{
  "compressionlevel": -1,
  "orientation": "orthogonal",
  "renderorder": "right-down",
  "tiledversion": "1.10.1",
  "type": "map",
  "version": "1.10",
  "width": 60,
  "height": 1,
  "tilewidth": 128,
  "tileheight": 174,
  "nextlayerid": 8,
  "nextobjectid": 1498,
  "infinite": false,
  "properties": [
    {
      "name": "horizonTiled",
      "type": "float",
      "value": 150.0
    },
    {
      "name": "uniformScale",
      "type": "bool",
      "value": true
    }
  ],
  "layers": [
    {
      "data": [
        0,
        0,
        0,
        0,
        0,
        0,
        0,
        0,
        0,
        0,
        0,
        0,
        0,
        0,
        0,
        0,
        0,
        0,
        0,
        0,
        0,
        0,
        0,
        0,
        0,
        0,
        0,
        0,
        0,
        0,
        0,
        0,
        0,
        0,
        0,
        0,
        0,
        0,
        0,
        0,
        0,
        0,
        0,
        0,
        0,
        0,
        0,
        0,
        0,
        0,
        0,
        0,
        0,
        0,
        0,
        0,
        0,
        0,
        0,
        0
      ],
      "height": 1,
      "width": 60,
      "id": 1,
      "name": "Corridor",
      "opacity": 1,
      "type": "tilelayer",
      "visible": true,
      "x": 0,
      "y": 0
    },
    {
      "id": 2,
      "type": "objectgroup",
      "name": "windows_bg",
      "parallaxx": 1.0,
      "parallaxy": 0.0,
      "objects": [
        {
          "id": 1000,
          "gid": 4,
          "x": -0.0,
          "y": 72.0,
          "width": 128.0,
          "height": 40.0,
          "visible": true,
          "name": "image15-7",
          "type": "window_pane",
          "properties": [
            {
              "name": "destructible",
              "type": "bool",
              "value": true
            },
            {
              "name": "hp",
              "type": "int",
              "value": 20
            },
            {
              "name": "parent_group",
              "type": "string",
              "value": "use2"
            },
            {
              "name": "piece_id",
              "type": "string",
              "value": "image15-7"
            },
            {
              "name": "damaged_sprite",
              "type": "string",
              "value": "xcybstr2_02.png"
            },
            {
              "name": "damage_state",
              "type": "string",
              "value": "broken"
            }
          ]
        },
        {
          "id": 1001,
          "gid": 6,
          "x": -0.0,
          "y": 112.0,
          "width": 128.0,
          "height": 40.0,
          "visible": true,
          "name": "image17-6",
          "type": "window_pane",
          "properties": [
            {
              "name": "destructible",
              "type": "bool",
              "value": true
            },
            {
              "name": "hp",
              "type": "int",
              "value": 20
            },
            {
              "name": "parent_group",
              "type": "string",
              "value": "use2"
            },
            {
              "name": "piece_id",
              "type": "string",
              "value": "image17-6"
            },
            {
              "name": "damaged_sprite",
              "type": "string",
              "value": "xcybstr2_04.png"
            },
            {
              "name": "damage_state",
              "type": "string",
              "value": "broken"
            }
          ]
        },
        {
          "id": 1002,
          "gid": 2,
          "x": -0.0,
          "y": 32.0,
          "width": 128.0,
          "height": 32.0,
          "visible": true,
          "name": "image19-1",
          "type": "window_pane",
          "properties": [
            {
              "name": "destructible",
              "type": "bool",
              "value": true
            },
            {
              "name": "hp",
              "type": "int",
              "value": 20
            },
            {
              "name": "parent_group",
              "type": "string",
              "value": "use2"
            },
            {
              "name": "piece_id",
              "type": "string",
              "value": "image19-1"
            },
            {
              "name": "damaged_sprite",
              "type": "string",
              "value": "xcybstr2_00.png"
            },
            {
              "name": "damage_state",
              "type": "string",
              "value": "broken"
            }
          ]
        },
        {
          "id": 1003,
          "gid": 4,
          "x": 128.0,
          "y": 72.0,
          "width": 128.0,
          "height": 40.0,
          "visible": true,
          "name": "image99",
          "type": "window_pane",
          "properties": [
            {
              "name": "destructible",
              "type": "bool",
              "value": true
            },
            {
              "name": "hp",
              "type": "int",
              "value": 20
            },
            {
              "name": "parent_group",
              "type": "string",
              "value": "use1"
            },
            {
              "name": "piece_id",
              "type": "string",
              "value": "image99"
            },
            {
              "name": "damaged_sprite",
              "type": "string",
              "value": "xcybstr2_02.png"
            },
            {
              "name": "damage_state",
              "type": "string",
              "value": "broken"
            }
          ]
        },
        {
          "id": 1004,
          "gid": 6,
          "x": 128.0,
          "y": 112.0,
          "width": 128.0,
          "height": 40.0,
          "visible": true,
          "name": "image101",
          "type": "window_pane",
          "properties": [
            {
              "name": "destructible",
              "type": "bool",
              "value": true
            },
            {
              "name": "hp",
              "type": "int",
              "value": 20
            },
            {
              "name": "parent_group",
              "type": "string",
              "value": "use1"
            },
            {
              "name": "piece_id",
              "type": "string",
              "value": "image101"
            },
            {
              "name": "damaged_sprite",
              "type": "string",
              "value": "xcybstr2_04.png"
            },
            {
              "name": "damage_state",
              "type": "string",
              "value": "broken"
            }
          ]
        },
        {
          "id": 1005,
          "gid": 2,
          "x": 128.0,
          "y": 32.0,
          "width": 128.0,
          "height": 32.0,
          "visible": true,
          "name": "image103",
          "type": "window_pane",
          "properties": [
            {
              "name": "destructible",
              "type": "bool",
              "value": true
            },
            {
              "name": "hp",
              "type": "int",
              "value": 20
            },
            {
              "name": "parent_group",
              "type": "string",
              "value": "use1"
            },
            {
              "name": "piece_id",
              "type": "string",
              "value": "image103"
            },
            {
              "name": "damaged_sprite",
              "type": "string",
              "value": "xcybstr2_00.png"
            },
            {
              "name": "damage_state",
              "type": "string",
              "value": "broken"
            }
          ]
        },
        {
          "id": 1006,
          "gid": 5,
          "x": 256.0,
          "y": 72.0,
          "width": 128.0,
          "height": 40.0,
          "visible": true,
          "name": "image100",
          "type": "window_pane",
          "properties": [
            {
              "name": "destructible",
              "type": "bool",
              "value": true
            },
            {
              "name": "hp",
              "type": "int",
              "value": 20
            },
            {
              "name": "parent_group",
              "type": "string",
              "value": "use1"
            },
            {
              "name": "piece_id",
              "type": "string",
              "value": "image100"
            },
            {
              "name": "damaged_sprite",
              "type": "string",
              "value": "xcybstr2_03.png"
            },
            {
              "name": "damage_state",
              "type": "string",
              "value": "broken"
            }
          ]
        },
        {
          "id": 1007,
          "gid": 7,
          "x": 256.0,
          "y": 112.0,
          "width": 128.0,
          "height": 40.0,
          "visible": true,
          "name": "image102",
          "type": "window_pane",
          "properties": [
            {
              "name": "destructible",
              "type": "bool",
              "value": true
            },
            {
              "name": "hp",
              "type": "int",
              "value": 20
            },
            {
              "name": "parent_group",
              "type": "string",
              "value": "use1"
            },
            {
              "name": "piece_id",
              "type": "string",
              "value": "image102"
            },
            {
              "name": "damaged_sprite",
              "type": "string",
              "value": "xcybstr2_05.png"
            },
            {
              "name": "damage_state",
              "type": "string",
              "value": "broken"
            }
          ]
        },
        {
          "id": 1008,
          "gid": 3,
          "x": 256.0,
          "y": 32.0,
          "width": 128.0,
          "height": 32.0,
          "visible": true,
          "name": "image104",
          "type": "window_pane",
          "properties": [
            {
              "name": "destructible",
              "type": "bool",
              "value": true
            },
            {
              "name": "hp",
              "type": "int",
              "value": 20
            },
            {
              "name": "parent_group",
              "type": "string",
              "value": "use1"
            },
            {
              "name": "piece_id",
              "type": "string",
              "value": "image104"
            },
            {
              "name": "damaged_sprite",
              "type": "string",
              "value": "xcybstr2_01.png"
            },
            {
              "name": "damage_state",
              "type": "string",
              "value": "broken"
            }
          ]
        },
        {
          "id": 1009,
          "gid": 4,
          "x": 384.0,
          "y": 72.0,
          "width": 128.0,
          "height": 40.0,
          "visible": true,
          "name": "image15",
          "type": "window_pane",
          "properties": [
            {
              "name": "destructible",
              "type": "bool",
              "value": true
            },
            {
              "name": "hp",
              "type": "int",
              "value": 20
            },
            {
              "name": "parent_group",
              "type": "string",
              "value": "use2"
            },
            {
              "name": "piece_id",
              "type": "string",
              "value": "image15"
            },
            {
              "name": "damaged_sprite",
              "type": "string",
              "value": "xcybstr2_02.png"
            },
            {
              "name": "damage_state",
              "type": "string",
              "value": "broken"
            }
          ]
        },
        {
          "id": 1010,
          "gid": 6,
          "x": 384.0,
          "y": 112.0,
          "width": 128.0,
          "height": 40.0,
          "visible": true,
          "name": "image17",
          "type": "window_pane",
          "properties": [
            {
              "name": "destructible",
              "type": "bool",
              "value": true
            },
            {
              "name": "hp",
              "type": "int",
              "value": 20
            },
            {
              "name": "parent_group",
              "type": "string",
              "value": "use2"
            },
            {
              "name": "piece_id",
              "type": "string",
              "value": "image17"
            },
            {
              "name": "damaged_sprite",
              "type": "string",
              "value": "xcybstr2_04.png"
            },
            {
              "name": "damage_state",
              "type": "string",
              "value": "broken"
            }
          ]
        },
        {
          "id": 1011,
          "gid": 2,
          "x": 384.0,
          "y": 32.0,
          "width": 128.0,
          "height": 32.0,
          "visible": true,
          "name": "image19",
          "type": "window_pane",
          "properties": [
            {
              "name": "destructible",
              "type": "bool",
              "value": true
            },
            {
              "name": "hp",
              "type": "int",
              "value": 20
            },
            {
              "name": "parent_group",
              "type": "string",
              "value": "use2"
            },
            {
              "name": "piece_id",
              "type": "string",
              "value": "image19"
            },
            {
              "name": "damaged_sprite",
              "type": "string",
              "value": "xcybstr2_00.png"
            },
            {
              "name": "damage_state",
              "type": "string",
              "value": "broken"
            }
          ]
        },
        {
          "id": 1012,
          "gid": 5,
          "x": 512.0,
          "y": 72.0,
          "width": 128.0,
          "height": 40.0,
          "visible": true,
          "name": "image16",
          "type": "window_pane",
          "properties": [
            {
              "name": "destructible",
              "type": "bool",
              "value": true
            },
            {
              "name": "hp",
              "type": "int",
              "value": 20
            },
            {
              "name": "parent_group",
              "type": "string",
              "value": "use2"
            },
            {
              "name": "piece_id",
              "type": "string",
              "value": "image16"
            },
            {
              "name": "damaged_sprite",
              "type": "string",
              "value": "xcybstr2_03.png"
            },
            {
              "name": "damage_state",
              "type": "string",
              "value": "broken"
            }
          ]
        },
        {
          "id": 1013,
          "gid": 7,
          "x": 512.0,
          "y": 112.0,
          "width": 128.0,
          "height": 40.0,
          "visible": true,
          "name": "image18",
          "type": "window_pane",
          "properties": [
            {
              "name": "destructible",
              "type": "bool",
              "value": true
            },
            {
              "name": "hp",
              "type": "int",
              "value": 20
            },
            {
              "name": "parent_group",
              "type": "string",
              "value": "use2"
            },
            {
              "name": "piece_id",
              "type": "string",
              "value": "image18"
            },
            {
              "name": "damaged_sprite",
              "type": "string",
              "value": "xcybstr2_05.png"
            },
            {
              "name": "damage_state",
              "type": "string",
              "value": "broken"
            }
          ]
        },
        {
          "id": 1014,
          "gid": 3,
          "x": 512.0,
          "y": 32.0,
          "width": 128.0,
          "height": 32.0,
          "visible": true,
          "name": "image20",
          "type": "window_pane",
          "properties": [
            {
              "name": "destructible",
              "type": "bool",
              "value": true
            },
            {
              "name": "hp",
              "type": "int",
              "value": 20
            },
            {
              "name": "parent_group",
              "type": "string",
              "value": "use2"
            },
            {
              "name": "piece_id",
              "type": "string",
              "value": "image20"
            },
            {
              "name": "damaged_sprite",
              "type": "string",
              "value": "xcybstr2_01.png"
            },
            {
              "name": "damage_state",
              "type": "string",
              "value": "broken"
            }
          ]
        },
        {
          "id": 1015,
          "gid": 4,
          "x": 640.0,
          "y": 72.0,
          "width": 128.0,
          "height": 40.0,
          "visible": true,
          "name": "image21",
          "type": "window_pane",
          "properties": [
            {
              "name": "destructible",
              "type": "bool",
              "value": true
            },
            {
              "name": "hp",
              "type": "int",
              "value": 20
            },
            {
              "name": "parent_group",
              "type": "string",
              "value": "use3"
            },
            {
              "name": "piece_id",
              "type": "string",
              "value": "image21"
            },
            {
              "name": "damaged_sprite",
              "type": "string",
              "value": "xcybstr2_02.png"
            },
            {
              "name": "damage_state",
              "type": "string",
              "value": "broken"
            }
          ]
        },
        {
          "id": 1016,
          "gid": 6,
          "x": 640.0,
          "y": 112.0,
          "width": 128.0,
          "height": 40.0,
          "visible": true,
          "name": "image23",
          "type": "window_pane",
          "properties": [
            {
              "name": "destructible",
              "type": "bool",
              "value": true
            },
            {
              "name": "hp",
              "type": "int",
              "value": 20
            },
            {
              "name": "parent_group",
              "type": "string",
              "value": "use3"
            },
            {
              "name": "piece_id",
              "type": "string",
              "value": "image23"
            },
            {
              "name": "damaged_sprite",
              "type": "string",
              "value": "xcybstr2_04.png"
            },
            {
              "name": "damage_state",
              "type": "string",
              "value": "broken"
            }
          ]
        },
        {
          "id": 1017,
          "gid": 2,
          "x": 640.0,
          "y": 32.0,
          "width": 128.0,
          "height": 32.0,
          "visible": true,
          "name": "image25",
          "type": "window_pane",
          "properties": [
            {
              "name": "destructible",
              "type": "bool",
              "value": true
            },
            {
              "name": "hp",
              "type": "int",
              "value": 20
            },
            {
              "name": "parent_group",
              "type": "string",
              "value": "use3"
            },
            {
              "name": "piece_id",
              "type": "string",
              "value": "image25"
            },
            {
              "name": "damaged_sprite",
              "type": "string",
              "value": "xcybstr2_00.png"
            },
            {
              "name": "damage_state",
              "type": "string",
              "value": "broken"
            }
          ]
        },
        {
          "id": 1018,
          "gid": 5,
          "x": 768.0,
          "y": 72.0,
          "width": 128.0,
          "height": 40.0,
          "visible": true,
          "name": "image22",
          "type": "window_pane",
          "properties": [
            {
              "name": "destructible",
              "type": "bool",
              "value": true
            },
            {
              "name": "hp",
              "type": "int",
              "value": 20
            },
            {
              "name": "parent_group",
              "type": "string",
              "value": "use3"
            },
            {
              "name": "piece_id",
              "type": "string",
              "value": "image22"
            },
            {
              "name": "damaged_sprite",
              "type": "string",
              "value": "xcybstr2_03.png"
            },
            {
              "name": "damage_state",
              "type": "string",
              "value": "broken"
            }
          ]
        },
        {
          "id": 1019,
          "gid": 7,
          "x": 768.0,
          "y": 112.0,
          "width": 128.0,
          "height": 40.0,
          "visible": true,
          "name": "image24",
          "type": "window_pane",
          "properties": [
            {
              "name": "destructible",
              "type": "bool",
              "value": true
            },
            {
              "name": "hp",
              "type": "int",
              "value": 20
            },
            {
              "name": "parent_group",
              "type": "string",
              "value": "use3"
            },
            {
              "name": "piece_id",
              "type": "string",
              "value": "image24"
            },
            {
              "name": "damaged_sprite",
              "type": "string",
              "value": "xcybstr2_05.png"
            },
            {
              "name": "damage_state",
              "type": "string",
              "value": "broken"
            }
          ]
        },
        {
          "id": 1020,
          "gid": 3,
          "x": 768.0,
          "y": 32.0,
          "width": 128.0,
          "height": 32.0,
          "visible": true,
          "name": "image26",
          "type": "window_pane",
          "properties": [
            {
              "name": "destructible",
              "type": "bool",
              "value": true
            },
            {
              "name": "hp",
              "type": "int",
              "value": 20
            },
            {
              "name": "parent_group",
              "type": "string",
              "value": "use3"
            },
            {
              "name": "piece_id",
              "type": "string",
              "value": "image26"
            },
            {
              "name": "damaged_sprite",
              "type": "string",
              "value": "xcybstr2_01.png"
            },
            {
              "name": "damage_state",
              "type": "string",
              "value": "broken"
            }
          ]
        },
        {
          "id": 1021,
          "gid": 4,
          "x": 896.0,
          "y": 72.0,
          "width": 128.0,
          "height": 40.0,
          "visible": true,
          "name": "image27",
          "type": "window_pane",
          "properties": [
            {
              "name": "destructible",
              "type": "bool",
              "value": true
            },
            {
              "name": "hp",
              "type": "int",
              "value": 20
            },
            {
              "name": "parent_group",
              "type": "string",
              "value": "use4"
            },
            {
              "name": "piece_id",
              "type": "string",
              "value": "image27"
            },
            {
              "name": "damaged_sprite",
              "type": "string",
              "value": "xcybstr2_02.png"
            },
            {
              "name": "damage_state",
              "type": "string",
              "value": "broken"
            }
          ]
        },
        {
          "id": 1022,
          "gid": 6,
          "x": 896.0,
          "y": 112.0,
          "width": 128.0,
          "height": 40.0,
          "visible": true,
          "name": "image29",
          "type": "window_pane",
          "properties": [
            {
              "name": "destructible",
              "type": "bool",
              "value": true
            },
            {
              "name": "hp",
              "type": "int",
              "value": 20
            },
            {
              "name": "parent_group",
              "type": "string",
              "value": "use4"
            },
            {
              "name": "piece_id",
              "type": "string",
              "value": "image29"
            },
            {
              "name": "damaged_sprite",
              "type": "string",
              "value": "xcybstr2_04.png"
            },
            {
              "name": "damage_state",
              "type": "string",
              "value": "broken"
            }
          ]
        },
        {
          "id": 1023,
          "gid": 2,
          "x": 896.0,
          "y": 32.0,
          "width": 128.0,
          "height": 32.0,
          "visible": true,
          "name": "image31",
          "type": "window_pane",
          "properties": [
            {
              "name": "destructible",
              "type": "bool",
              "value": true
            },
            {
              "name": "hp",
              "type": "int",
              "value": 20
            },
            {
              "name": "parent_group",
              "type": "string",
              "value": "use4"
            },
            {
              "name": "piece_id",
              "type": "string",
              "value": "image31"
            },
            {
              "name": "damaged_sprite",
              "type": "string",
              "value": "xcybstr2_00.png"
            },
            {
              "name": "damage_state",
              "type": "string",
              "value": "broken"
            }
          ]
        },
        {
          "id": 1024,
          "gid": 5,
          "x": 1024.0,
          "y": 72.0,
          "width": 128.0,
          "height": 40.0,
          "visible": true,
          "name": "image28",
          "type": "window_pane",
          "properties": [
            {
              "name": "destructible",
              "type": "bool",
              "value": true
            },
            {
              "name": "hp",
              "type": "int",
              "value": 20
            },
            {
              "name": "parent_group",
              "type": "string",
              "value": "use4"
            },
            {
              "name": "piece_id",
              "type": "string",
              "value": "image28"
            },
            {
              "name": "damaged_sprite",
              "type": "string",
              "value": "xcybstr2_03.png"
            },
            {
              "name": "damage_state",
              "type": "string",
              "value": "broken"
            }
          ]
        },
        {
          "id": 1025,
          "gid": 7,
          "x": 1024.0,
          "y": 112.0,
          "width": 128.0,
          "height": 40.0,
          "visible": true,
          "name": "image30",
          "type": "window_pane",
          "properties": [
            {
              "name": "destructible",
              "type": "bool",
              "value": true
            },
            {
              "name": "hp",
              "type": "int",
              "value": 20
            },
            {
              "name": "parent_group",
              "type": "string",
              "value": "use4"
            },
            {
              "name": "piece_id",
              "type": "string",
              "value": "image30"
            },
            {
              "name": "damaged_sprite",
              "type": "string",
              "value": "xcybstr2_05.png"
            },
            {
              "name": "damage_state",
              "type": "string",
              "value": "broken"
            }
          ]
        },
        {
          "id": 1026,
          "gid": 3,
          "x": 1024.0,
          "y": 32.0,
          "width": 128.0,
          "height": 32.0,
          "visible": true,
          "name": "image32",
          "type": "window_pane",
          "properties": [
            {
              "name": "destructible",
              "type": "bool",
              "value": true
            },
            {
              "name": "hp",
              "type": "int",
              "value": 20
            },
            {
              "name": "parent_group",
              "type": "string",
              "value": "use4"
            },
            {
              "name": "piece_id",
              "type": "string",
              "value": "image32"
            },
            {
              "name": "damaged_sprite",
              "type": "string",
              "value": "xcybstr2_01.png"
            },
            {
              "name": "damage_state",
              "type": "string",
              "value": "broken"
            }
          ]
        },
        {
          "id": 1027,
          "gid": 4,
          "x": 1152.0,
          "y": 72.0,
          "width": 128.0,
          "height": 40.0,
          "visible": true,
          "name": "image33",
          "type": "window_pane",
          "properties": [
            {
              "name": "destructible",
              "type": "bool",
              "value": true
            },
            {
              "name": "hp",
              "type": "int",
              "value": 20
            },
            {
              "name": "parent_group",
              "type": "string",
              "value": "use5"
            },
            {
              "name": "piece_id",
              "type": "string",
              "value": "image33"
            },
            {
              "name": "damaged_sprite",
              "type": "string",
              "value": "xcybstr2_02.png"
            },
            {
              "name": "damage_state",
              "type": "string",
              "value": "broken"
            }
          ]
        },
        {
          "id": 1028,
          "gid": 6,
          "x": 1152.0,
          "y": 112.0,
          "width": 128.0,
          "height": 40.0,
          "visible": true,
          "name": "image35",
          "type": "window_pane",
          "properties": [
            {
              "name": "destructible",
              "type": "bool",
              "value": true
            },
            {
              "name": "hp",
              "type": "int",
              "value": 20
            },
            {
              "name": "parent_group",
              "type": "string",
              "value": "use5"
            },
            {
              "name": "piece_id",
              "type": "string",
              "value": "image35"
            },
            {
              "name": "damaged_sprite",
              "type": "string",
              "value": "xcybstr2_04.png"
            },
            {
              "name": "damage_state",
              "type": "string",
              "value": "broken"
            }
          ]
        },
        {
          "id": 1029,
          "gid": 2,
          "x": 1152.0,
          "y": 32.0,
          "width": 128.0,
          "height": 32.0,
          "visible": true,
          "name": "image37",
          "type": "window_pane",
          "properties": [
            {
              "name": "destructible",
              "type": "bool",
              "value": true
            },
            {
              "name": "hp",
              "type": "int",
              "value": 20
            },
            {
              "name": "parent_group",
              "type": "string",
              "value": "use5"
            },
            {
              "name": "piece_id",
              "type": "string",
              "value": "image37"
            },
            {
              "name": "damaged_sprite",
              "type": "string",
              "value": "xcybstr2_00.png"
            },
            {
              "name": "damage_state",
              "type": "string",
              "value": "broken"
            }
          ]
        },
        {
          "id": 1030,
          "gid": 5,
          "x": 1280.0,
          "y": 72.0,
          "width": 128.0,
          "height": 40.0,
          "visible": true,
          "name": "image34",
          "type": "window_pane",
          "properties": [
            {
              "name": "destructible",
              "type": "bool",
              "value": true
            },
            {
              "name": "hp",
              "type": "int",
              "value": 20
            },
            {
              "name": "parent_group",
              "type": "string",
              "value": "use5"
            },
            {
              "name": "piece_id",
              "type": "string",
              "value": "image34"
            },
            {
              "name": "damaged_sprite",
              "type": "string",
              "value": "xcybstr2_03.png"
            },
            {
              "name": "damage_state",
              "type": "string",
              "value": "broken"
            }
          ]
        },
        {
          "id": 1031,
          "gid": 7,
          "x": 1280.0,
          "y": 112.0,
          "width": 128.0,
          "height": 40.0,
          "visible": true,
          "name": "image36",
          "type": "window_pane",
          "properties": [
            {
              "name": "destructible",
              "type": "bool",
              "value": true
            },
            {
              "name": "hp",
              "type": "int",
              "value": 20
            },
            {
              "name": "parent_group",
              "type": "string",
              "value": "use5"
            },
            {
              "name": "piece_id",
              "type": "string",
              "value": "image36"
            },
            {
              "name": "damaged_sprite",
              "type": "string",
              "value": "xcybstr2_05.png"
            },
            {
              "name": "damage_state",
              "type": "string",
              "value": "broken"
            }
          ]
        },
        {
          "id": 1032,
          "gid": 3,
          "x": 1280.0,
          "y": 32.0,
          "width": 128.0,
          "height": 32.0,
          "visible": true,
          "name": "image38",
          "type": "window_pane",
          "properties": [
            {
              "name": "destructible",
              "type": "bool",
              "value": true
            },
            {
              "name": "hp",
              "type": "int",
              "value": 20
            },
            {
              "name": "parent_group",
              "type": "string",
              "value": "use5"
            },
            {
              "name": "piece_id",
              "type": "string",
              "value": "image38"
            },
            {
              "name": "damaged_sprite",
              "type": "string",
              "value": "xcybstr2_01.png"
            },
            {
              "name": "damage_state",
              "type": "string",
              "value": "broken"
            }
          ]
        },
        {
          "id": 1033,
          "gid": 4,
          "x": 1408.0,
          "y": 72.0,
          "width": 128.0,
          "height": 40.0,
          "visible": true,
          "name": "image39",
          "type": "window_pane",
          "properties": [
            {
              "name": "destructible",
              "type": "bool",
              "value": true
            },
            {
              "name": "hp",
              "type": "int",
              "value": 20
            },
            {
              "name": "parent_group",
              "type": "string",
              "value": "use6"
            },
            {
              "name": "piece_id",
              "type": "string",
              "value": "image39"
            },
            {
              "name": "damaged_sprite",
              "type": "string",
              "value": "xcybstr2_02.png"
            },
            {
              "name": "damage_state",
              "type": "string",
              "value": "broken"
            }
          ]
        },
        {
          "id": 1034,
          "gid": 6,
          "x": 1408.0,
          "y": 112.0,
          "width": 128.0,
          "height": 40.0,
          "visible": true,
          "name": "image41",
          "type": "window_pane",
          "properties": [
            {
              "name": "destructible",
              "type": "bool",
              "value": true
            },
            {
              "name": "hp",
              "type": "int",
              "value": 20
            },
            {
              "name": "parent_group",
              "type": "string",
              "value": "use6"
            },
            {
              "name": "piece_id",
              "type": "string",
              "value": "image41"
            },
            {
              "name": "damaged_sprite",
              "type": "string",
              "value": "xcybstr2_04.png"
            },
            {
              "name": "damage_state",
              "type": "string",
              "value": "broken"
            }
          ]
        },
        {
          "id": 1035,
          "gid": 2,
          "x": 1408.0,
          "y": 32.0,
          "width": 128.0,
          "height": 32.0,
          "visible": true,
          "name": "image43",
          "type": "window_pane",
          "properties": [
            {
              "name": "destructible",
              "type": "bool",
              "value": true
            },
            {
              "name": "hp",
              "type": "int",
              "value": 20
            },
            {
              "name": "parent_group",
              "type": "string",
              "value": "use6"
            },
            {
              "name": "piece_id",
              "type": "string",
              "value": "image43"
            },
            {
              "name": "damaged_sprite",
              "type": "string",
              "value": "xcybstr2_00.png"
            },
            {
              "name": "damage_state",
              "type": "string",
              "value": "broken"
            }
          ]
        },
        {
          "id": 1036,
          "gid": 5,
          "x": 1536.0,
          "y": 72.0,
          "width": 128.0,
          "height": 40.0,
          "visible": true,
          "name": "image40",
          "type": "window_pane",
          "properties": [
            {
              "name": "destructible",
              "type": "bool",
              "value": true
            },
            {
              "name": "hp",
              "type": "int",
              "value": 20
            },
            {
              "name": "parent_group",
              "type": "string",
              "value": "use6"
            },
            {
              "name": "piece_id",
              "type": "string",
              "value": "image40"
            },
            {
              "name": "damaged_sprite",
              "type": "string",
              "value": "xcybstr2_03.png"
            },
            {
              "name": "damage_state",
              "type": "string",
              "value": "broken"
            }
          ]
        },
        {
          "id": 1037,
          "gid": 7,
          "x": 1536.0,
          "y": 112.0,
          "width": 128.0,
          "height": 40.0,
          "visible": true,
          "name": "image42",
          "type": "window_pane",
          "properties": [
            {
              "name": "destructible",
              "type": "bool",
              "value": true
            },
            {
              "name": "hp",
              "type": "int",
              "value": 20
            },
            {
              "name": "parent_group",
              "type": "string",
              "value": "use6"
            },
            {
              "name": "piece_id",
              "type": "string",
              "value": "image42"
            },
            {
              "name": "damaged_sprite",
              "type": "string",
              "value": "xcybstr2_05.png"
            },
            {
              "name": "damage_state",
              "type": "string",
              "value": "broken"
            }
          ]
        },
        {
          "id": 1038,
          "gid": 3,
          "x": 1536.0,
          "y": 32.0,
          "width": 128.0,
          "height": 32.0,
          "visible": true,
          "name": "image44",
          "type": "window_pane",
          "properties": [
            {
              "name": "destructible",
              "type": "bool",
              "value": true
            },
            {
              "name": "hp",
              "type": "int",
              "value": 20
            },
            {
              "name": "parent_group",
              "type": "string",
              "value": "use6"
            },
            {
              "name": "piece_id",
              "type": "string",
              "value": "image44"
            },
            {
              "name": "damaged_sprite",
              "type": "string",
              "value": "xcybstr2_01.png"
            },
            {
              "name": "damage_state",
              "type": "string",
              "value": "broken"
            }
          ]
        },
        {
          "id": 1039,
          "gid": 4,
          "x": 1664.0,
          "y": 72.0,
          "width": 128.0,
          "height": 40.0,
          "visible": true,
          "name": "image45",
          "type": "window_pane",
          "properties": [
            {
              "name": "destructible",
              "type": "bool",
              "value": true
            },
            {
              "name": "hp",
              "type": "int",
              "value": 20
            },
            {
              "name": "parent_group",
              "type": "string",
              "value": "use7"
            },
            {
              "name": "piece_id",
              "type": "string",
              "value": "image45"
            },
            {
              "name": "damaged_sprite",
              "type": "string",
              "value": "xcybstr2_02.png"
            },
            {
              "name": "damage_state",
              "type": "string",
              "value": "broken"
            }
          ]
        },
        {
          "id": 1040,
          "gid": 6,
          "x": 1664.0,
          "y": 112.0,
          "width": 128.0,
          "height": 40.0,
          "visible": true,
          "name": "image47",
          "type": "window_pane",
          "properties": [
            {
              "name": "destructible",
              "type": "bool",
              "value": true
            },
            {
              "name": "hp",
              "type": "int",
              "value": 20
            },
            {
              "name": "parent_group",
              "type": "string",
              "value": "use7"
            },
            {
              "name": "piece_id",
              "type": "string",
              "value": "image47"
            },
            {
              "name": "damaged_sprite",
              "type": "string",
              "value": "xcybstr2_04.png"
            },
            {
              "name": "damage_state",
              "type": "string",
              "value": "broken"
            }
          ]
        },
        {
          "id": 1041,
          "gid": 2,
          "x": 1664.0,
          "y": 32.0,
          "width": 128.0,
          "height": 32.0,
          "visible": true,
          "name": "image49",
          "type": "window_pane",
          "properties": [
            {
              "name": "destructible",
              "type": "bool",
              "value": true
            },
            {
              "name": "hp",
              "type": "int",
              "value": 20
            },
            {
              "name": "parent_group",
              "type": "string",
              "value": "use7"
            },
            {
              "name": "piece_id",
              "type": "string",
              "value": "image49"
            },
            {
              "name": "damaged_sprite",
              "type": "string",
              "value": "xcybstr2_00.png"
            },
            {
              "name": "damage_state",
              "type": "string",
              "value": "broken"
            }
          ]
        },
        {
          "id": 1042,
          "gid": 5,
          "x": 1792.0,
          "y": 72.0,
          "width": 128.0,
          "height": 40.0,
          "visible": true,
          "name": "image46",
          "type": "window_pane",
          "properties": [
            {
              "name": "destructible",
              "type": "bool",
              "value": true
            },
            {
              "name": "hp",
              "type": "int",
              "value": 20
            },
            {
              "name": "parent_group",
              "type": "string",
              "value": "use7"
            },
            {
              "name": "piece_id",
              "type": "string",
              "value": "image46"
            },
            {
              "name": "damaged_sprite",
              "type": "string",
              "value": "xcybstr2_03.png"
            },
            {
              "name": "damage_state",
              "type": "string",
              "value": "broken"
            }
          ]
        },
        {
          "id": 1043,
          "gid": 7,
          "x": 1792.0,
          "y": 112.0,
          "width": 128.0,
          "height": 40.0,
          "visible": true,
          "name": "image48",
          "type": "window_pane",
          "properties": [
            {
              "name": "destructible",
              "type": "bool",
              "value": true
            },
            {
              "name": "hp",
              "type": "int",
              "value": 20
            },
            {
              "name": "parent_group",
              "type": "string",
              "value": "use7"
            },
            {
              "name": "piece_id",
              "type": "string",
              "value": "image48"
            },
            {
              "name": "damaged_sprite",
              "type": "string",
              "value": "xcybstr2_05.png"
            },
            {
              "name": "damage_state",
              "type": "string",
              "value": "broken"
            }
          ]
        },
        {
          "id": 1044,
          "gid": 3,
          "x": 1792.0,
          "y": 32.0,
          "width": 128.0,
          "height": 32.0,
          "visible": true,
          "name": "image50",
          "type": "window_pane",
          "properties": [
            {
              "name": "destructible",
              "type": "bool",
              "value": true
            },
            {
              "name": "hp",
              "type": "int",
              "value": 20
            },
            {
              "name": "parent_group",
              "type": "string",
              "value": "use7"
            },
            {
              "name": "piece_id",
              "type": "string",
              "value": "image50"
            },
            {
              "name": "damaged_sprite",
              "type": "string",
              "value": "xcybstr2_01.png"
            },
            {
              "name": "damage_state",
              "type": "string",
              "value": "broken"
            }
          ]
        },
        {
          "id": 1045,
          "gid": 4,
          "x": 1920.0,
          "y": 72.0,
          "width": 128.0,
          "height": 40.0,
          "visible": true,
          "name": "image51",
          "type": "window_pane",
          "properties": [
            {
              "name": "destructible",
              "type": "bool",
              "value": true
            },
            {
              "name": "hp",
              "type": "int",
              "value": 20
            },
            {
              "name": "parent_group",
              "type": "string",
              "value": "use8"
            },
            {
              "name": "piece_id",
              "type": "string",
              "value": "image51"
            },
            {
              "name": "damaged_sprite",
              "type": "string",
              "value": "xcybstr2_02.png"
            },
            {
              "name": "damage_state",
              "type": "string",
              "value": "broken"
            }
          ]
        },
        {
          "id": 1046,
          "gid": 6,
          "x": 1920.0,
          "y": 112.0,
          "width": 128.0,
          "height": 40.0,
          "visible": true,
          "name": "image53",
          "type": "window_pane",
          "properties": [
            {
              "name": "destructible",
              "type": "bool",
              "value": true
            },
            {
              "name": "hp",
              "type": "int",
              "value": 20
            },
            {
              "name": "parent_group",
              "type": "string",
              "value": "use8"
            },
            {
              "name": "piece_id",
              "type": "string",
              "value": "image53"
            },
            {
              "name": "damaged_sprite",
              "type": "string",
              "value": "xcybstr2_04.png"
            },
            {
              "name": "damage_state",
              "type": "string",
              "value": "broken"
            }
          ]
        },
        {
          "id": 1047,
          "gid": 2,
          "x": 1920.0,
          "y": 32.0,
          "width": 128.0,
          "height": 32.0,
          "visible": true,
          "name": "image55",
          "type": "window_pane",
          "properties": [
            {
              "name": "destructible",
              "type": "bool",
              "value": true
            },
            {
              "name": "hp",
              "type": "int",
              "value": 20
            },
            {
              "name": "parent_group",
              "type": "string",
              "value": "use8"
            },
            {
              "name": "piece_id",
              "type": "string",
              "value": "image55"
            },
            {
              "name": "damaged_sprite",
              "type": "string",
              "value": "xcybstr2_00.png"
            },
            {
              "name": "damage_state",
              "type": "string",
              "value": "broken"
            }
          ]
        },
        {
          "id": 1048,
          "gid": 5,
          "x": 2048.0,
          "y": 72.0,
          "width": 128.0,
          "height": 40.0,
          "visible": true,
          "name": "image52",
          "type": "window_pane",
          "properties": [
            {
              "name": "destructible",
              "type": "bool",
              "value": true
            },
            {
              "name": "hp",
              "type": "int",
              "value": 20
            },
            {
              "name": "parent_group",
              "type": "string",
              "value": "use8"
            },
            {
              "name": "piece_id",
              "type": "string",
              "value": "image52"
            },
            {
              "name": "damaged_sprite",
              "type": "string",
              "value": "xcybstr2_03.png"
            },
            {
              "name": "damage_state",
              "type": "string",
              "value": "broken"
            }
          ]
        },
        {
          "id": 1049,
          "gid": 7,
          "x": 2048.0,
          "y": 112.0,
          "width": 128.0,
          "height": 40.0,
          "visible": true,
          "name": "image54",
          "type": "window_pane",
          "properties": [
            {
              "name": "destructible",
              "type": "bool",
              "value": true
            },
            {
              "name": "hp",
              "type": "int",
              "value": 20
            },
            {
              "name": "parent_group",
              "type": "string",
              "value": "use8"
            },
            {
              "name": "piece_id",
              "type": "string",
              "value": "image54"
            },
            {
              "name": "damaged_sprite",
              "type": "string",
              "value": "xcybstr2_05.png"
            },
            {
              "name": "damage_state",
              "type": "string",
              "value": "broken"
            }
          ]
        },
        {
          "id": 1050,
          "gid": 3,
          "x": 2048.0,
          "y": 32.0,
          "width": 128.0,
          "height": 32.0,
          "visible": true,
          "name": "image56",
          "type": "window_pane",
          "properties": [
            {
              "name": "destructible",
              "type": "bool",
              "value": true
            },
            {
              "name": "hp",
              "type": "int",
              "value": 20
            },
            {
              "name": "parent_group",
              "type": "string",
              "value": "use8"
            },
            {
              "name": "piece_id",
              "type": "string",
              "value": "image56"
            },
            {
              "name": "damaged_sprite",
              "type": "string",
              "value": "xcybstr2_01.png"
            },
            {
              "name": "damage_state",
              "type": "string",
              "value": "broken"
            }
          ]
        },
        {
          "id": 1051,
          "gid": 4,
          "x": 2176.0,
          "y": 72.0,
          "width": 128.0,
          "height": 40.0,
          "visible": true,
          "name": "image57",
          "type": "window_pane",
          "properties": [
            {
              "name": "destructible",
              "type": "bool",
              "value": true
            },
            {
              "name": "hp",
              "type": "int",
              "value": 20
            },
            {
              "name": "parent_group",
              "type": "string",
              "value": "use9"
            },
            {
              "name": "piece_id",
              "type": "string",
              "value": "image57"
            },
            {
              "name": "damaged_sprite",
              "type": "string",
              "value": "xcybstr2_02.png"
            },
            {
              "name": "damage_state",
              "type": "string",
              "value": "broken"
            }
          ]
        },
        {
          "id": 1052,
          "gid": 6,
          "x": 2176.0,
          "y": 112.0,
          "width": 128.0,
          "height": 40.0,
          "visible": true,
          "name": "image59",
          "type": "window_pane",
          "properties": [
            {
              "name": "destructible",
              "type": "bool",
              "value": true
            },
            {
              "name": "hp",
              "type": "int",
              "value": 20
            },
            {
              "name": "parent_group",
              "type": "string",
              "value": "use9"
            },
            {
              "name": "piece_id",
              "type": "string",
              "value": "image59"
            },
            {
              "name": "damaged_sprite",
              "type": "string",
              "value": "xcybstr2_04.png"
            },
            {
              "name": "damage_state",
              "type": "string",
              "value": "broken"
            }
          ]
        },
        {
          "id": 1053,
          "gid": 2,
          "x": 2176.0,
          "y": 32.0,
          "width": 128.0,
          "height": 32.0,
          "visible": true,
          "name": "image61",
          "type": "window_pane",
          "properties": [
            {
              "name": "destructible",
              "type": "bool",
              "value": true
            },
            {
              "name": "hp",
              "type": "int",
              "value": 20
            },
            {
              "name": "parent_group",
              "type": "string",
              "value": "use9"
            },
            {
              "name": "piece_id",
              "type": "string",
              "value": "image61"
            },
            {
              "name": "damaged_sprite",
              "type": "string",
              "value": "xcybstr2_00.png"
            },
            {
              "name": "damage_state",
              "type": "string",
              "value": "broken"
            }
          ]
        },
        {
          "id": 1054,
          "gid": 5,
          "x": 2304.0,
          "y": 72.0,
          "width": 128.0,
          "height": 40.0,
          "visible": true,
          "name": "image58",
          "type": "window_pane",
          "properties": [
            {
              "name": "destructible",
              "type": "bool",
              "value": true
            },
            {
              "name": "hp",
              "type": "int",
              "value": 20
            },
            {
              "name": "parent_group",
              "type": "string",
              "value": "use9"
            },
            {
              "name": "piece_id",
              "type": "string",
              "value": "image58"
            },
            {
              "name": "damaged_sprite",
              "type": "string",
              "value": "xcybstr2_03.png"
            },
            {
              "name": "damage_state",
              "type": "string",
              "value": "broken"
            }
          ]
        },
        {
          "id": 1055,
          "gid": 7,
          "x": 2304.0,
          "y": 112.0,
          "width": 128.0,
          "height": 40.0,
          "visible": true,
          "name": "image60",
          "type": "window_pane",
          "properties": [
            {
              "name": "destructible",
              "type": "bool",
              "value": true
            },
            {
              "name": "hp",
              "type": "int",
              "value": 20
            },
            {
              "name": "parent_group",
              "type": "string",
              "value": "use9"
            },
            {
              "name": "piece_id",
              "type": "string",
              "value": "image60"
            },
            {
              "name": "damaged_sprite",
              "type": "string",
              "value": "xcybstr2_05.png"
            },
            {
              "name": "damage_state",
              "type": "string",
              "value": "broken"
            }
          ]
        },
        {
          "id": 1056,
          "gid": 3,
          "x": 2304.0,
          "y": 32.0,
          "width": 128.0,
          "height": 32.0,
          "visible": true,
          "name": "image62",
          "type": "window_pane",
          "properties": [
            {
              "name": "destructible",
              "type": "bool",
              "value": true
            },
            {
              "name": "hp",
              "type": "int",
              "value": 20
            },
            {
              "name": "parent_group",
              "type": "string",
              "value": "use9"
            },
            {
              "name": "piece_id",
              "type": "string",
              "value": "image62"
            },
            {
              "name": "damaged_sprite",
              "type": "string",
              "value": "xcybstr2_01.png"
            },
            {
              "name": "damage_state",
              "type": "string",
              "value": "broken"
            }
          ]
        },
        {
          "id": 1057,
          "gid": 4,
          "x": 2432.0,
          "y": 72.0,
          "width": 128.0,
          "height": 40.0,
          "visible": true,
          "name": "image63",
          "type": "window_pane",
          "properties": [
            {
              "name": "destructible",
              "type": "bool",
              "value": true
            },
            {
              "name": "hp",
              "type": "int",
              "value": 20
            },
            {
              "name": "parent_group",
              "type": "string",
              "value": "use10"
            },
            {
              "name": "piece_id",
              "type": "string",
              "value": "image63"
            },
            {
              "name": "damaged_sprite",
              "type": "string",
              "value": "xcybstr2_02.png"
            },
            {
              "name": "damage_state",
              "type": "string",
              "value": "broken"
            }
          ]
        },
        {
          "id": 1058,
          "gid": 6,
          "x": 2432.0,
          "y": 112.0,
          "width": 128.0,
          "height": 40.0,
          "visible": true,
          "name": "image65",
          "type": "window_pane",
          "properties": [
            {
              "name": "destructible",
              "type": "bool",
              "value": true
            },
            {
              "name": "hp",
              "type": "int",
              "value": 20
            },
            {
              "name": "parent_group",
              "type": "string",
              "value": "use10"
            },
            {
              "name": "piece_id",
              "type": "string",
              "value": "image65"
            },
            {
              "name": "damaged_sprite",
              "type": "string",
              "value": "xcybstr2_04.png"
            },
            {
              "name": "damage_state",
              "type": "string",
              "value": "broken"
            }
          ]
        },
        {
          "id": 1059,
          "gid": 2,
          "x": 2432.0,
          "y": 32.0,
          "width": 128.0,
          "height": 32.0,
          "visible": true,
          "name": "image67",
          "type": "window_pane",
          "properties": [
            {
              "name": "destructible",
              "type": "bool",
              "value": true
            },
            {
              "name": "hp",
              "type": "int",
              "value": 20
            },
            {
              "name": "parent_group",
              "type": "string",
              "value": "use10"
            },
            {
              "name": "piece_id",
              "type": "string",
              "value": "image67"
            },
            {
              "name": "damaged_sprite",
              "type": "string",
              "value": "xcybstr2_00.png"
            },
            {
              "name": "damage_state",
              "type": "string",
              "value": "broken"
            }
          ]
        },
        {
          "id": 1060,
          "gid": 5,
          "x": 2560.0,
          "y": 72.0,
          "width": 128.0,
          "height": 40.0,
          "visible": true,
          "name": "image64",
          "type": "window_pane",
          "properties": [
            {
              "name": "destructible",
              "type": "bool",
              "value": true
            },
            {
              "name": "hp",
              "type": "int",
              "value": 20
            },
            {
              "name": "parent_group",
              "type": "string",
              "value": "use10"
            },
            {
              "name": "piece_id",
              "type": "string",
              "value": "image64"
            },
            {
              "name": "damaged_sprite",
              "type": "string",
              "value": "xcybstr2_03.png"
            },
            {
              "name": "damage_state",
              "type": "string",
              "value": "broken"
            }
          ]
        },
        {
          "id": 1061,
          "gid": 7,
          "x": 2560.0,
          "y": 112.0,
          "width": 128.0,
          "height": 40.0,
          "visible": true,
          "name": "image66",
          "type": "window_pane",
          "properties": [
            {
              "name": "destructible",
              "type": "bool",
              "value": true
            },
            {
              "name": "hp",
              "type": "int",
              "value": 20
            },
            {
              "name": "parent_group",
              "type": "string",
              "value": "use10"
            },
            {
              "name": "piece_id",
              "type": "string",
              "value": "image66"
            },
            {
              "name": "damaged_sprite",
              "type": "string",
              "value": "xcybstr2_05.png"
            },
            {
              "name": "damage_state",
              "type": "string",
              "value": "broken"
            }
          ]
        },
        {
          "id": 1062,
          "gid": 3,
          "x": 2560.0,
          "y": 32.0,
          "width": 128.0,
          "height": 32.0,
          "visible": true,
          "name": "image68",
          "type": "window_pane",
          "properties": [
            {
              "name": "destructible",
              "type": "bool",
              "value": true
            },
            {
              "name": "hp",
              "type": "int",
              "value": 20
            },
            {
              "name": "parent_group",
              "type": "string",
              "value": "use10"
            },
            {
              "name": "piece_id",
              "type": "string",
              "value": "image68"
            },
            {
              "name": "damaged_sprite",
              "type": "string",
              "value": "xcybstr2_01.png"
            },
            {
              "name": "damage_state",
              "type": "string",
              "value": "broken"
            }
          ]
        },
        {
          "id": 1063,
          "gid": 4,
          "x": 2688.0,
          "y": 72.0,
          "width": 128.0,
          "height": 40.0,
          "visible": true,
          "name": "image69",
          "type": "window_pane",
          "properties": [
            {
              "name": "destructible",
              "type": "bool",
              "value": true
            },
            {
              "name": "hp",
              "type": "int",
              "value": 20
            },
            {
              "name": "parent_group",
              "type": "string",
              "value": "use11"
            },
            {
              "name": "piece_id",
              "type": "string",
              "value": "image69"
            },
            {
              "name": "damaged_sprite",
              "type": "string",
              "value": "xcybstr2_02.png"
            },
            {
              "name": "damage_state",
              "type": "string",
              "value": "broken"
            }
          ]
        },
        {
          "id": 1064,
          "gid": 6,
          "x": 2688.0,
          "y": 112.0,
          "width": 128.0,
          "height": 40.0,
          "visible": true,
          "name": "image71",
          "type": "window_pane",
          "properties": [
            {
              "name": "destructible",
              "type": "bool",
              "value": true
            },
            {
              "name": "hp",
              "type": "int",
              "value": 20
            },
            {
              "name": "parent_group",
              "type": "string",
              "value": "use11"
            },
            {
              "name": "piece_id",
              "type": "string",
              "value": "image71"
            },
            {
              "name": "damaged_sprite",
              "type": "string",
              "value": "xcybstr2_04.png"
            },
            {
              "name": "damage_state",
              "type": "string",
              "value": "broken"
            }
          ]
        },
        {
          "id": 1065,
          "gid": 2,
          "x": 2688.0,
          "y": 32.0,
          "width": 128.0,
          "height": 32.0,
          "visible": true,
          "name": "image73",
          "type": "window_pane",
          "properties": [
            {
              "name": "destructible",
              "type": "bool",
              "value": true
            },
            {
              "name": "hp",
              "type": "int",
              "value": 20
            },
            {
              "name": "parent_group",
              "type": "string",
              "value": "use11"
            },
            {
              "name": "piece_id",
              "type": "string",
              "value": "image73"
            },
            {
              "name": "damaged_sprite",
              "type": "string",
              "value": "xcybstr2_00.png"
            },
            {
              "name": "damage_state",
              "type": "string",
              "value": "broken"
            }
          ]
        },
        {
          "id": 1066,
          "gid": 5,
          "x": 2816.0,
          "y": 72.0,
          "width": 128.0,
          "height": 40.0,
          "visible": true,
          "name": "image70",
          "type": "window_pane",
          "properties": [
            {
              "name": "destructible",
              "type": "bool",
              "value": true
            },
            {
              "name": "hp",
              "type": "int",
              "value": 20
            },
            {
              "name": "parent_group",
              "type": "string",
              "value": "use11"
            },
            {
              "name": "piece_id",
              "type": "string",
              "value": "image70"
            },
            {
              "name": "damaged_sprite",
              "type": "string",
              "value": "xcybstr2_03.png"
            },
            {
              "name": "damage_state",
              "type": "string",
              "value": "broken"
            }
          ]
        },
        {
          "id": 1067,
          "gid": 7,
          "x": 2816.0,
          "y": 112.0,
          "width": 128.0,
          "height": 40.0,
          "visible": true,
          "name": "image72",
          "type": "window_pane",
          "properties": [
            {
              "name": "destructible",
              "type": "bool",
              "value": true
            },
            {
              "name": "hp",
              "type": "int",
              "value": 20
            },
            {
              "name": "parent_group",
              "type": "string",
              "value": "use11"
            },
            {
              "name": "piece_id",
              "type": "string",
              "value": "image72"
            },
            {
              "name": "damaged_sprite",
              "type": "string",
              "value": "xcybstr2_05.png"
            },
            {
              "name": "damage_state",
              "type": "string",
              "value": "broken"
            }
          ]
        },
        {
          "id": 1068,
          "gid": 3,
          "x": 2816.0,
          "y": 32.0,
          "width": 128.0,
          "height": 32.0,
          "visible": true,
          "name": "image74",
          "type": "window_pane",
          "properties": [
            {
              "name": "destructible",
              "type": "bool",
              "value": true
            },
            {
              "name": "hp",
              "type": "int",
              "value": 20
            },
            {
              "name": "parent_group",
              "type": "string",
              "value": "use11"
            },
            {
              "name": "piece_id",
              "type": "string",
              "value": "image74"
            },
            {
              "name": "damaged_sprite",
              "type": "string",
              "value": "xcybstr2_01.png"
            },
            {
              "name": "damage_state",
              "type": "string",
              "value": "broken"
            }
          ]
        },
        {
          "id": 1069,
          "gid": 4,
          "x": 2944.0,
          "y": 72.0,
          "width": 128.0,
          "height": 40.0,
          "visible": true,
          "name": "image75",
          "type": "window_pane",
          "properties": [
            {
              "name": "destructible",
              "type": "bool",
              "value": true
            },
            {
              "name": "hp",
              "type": "int",
              "value": 20
            },
            {
              "name": "parent_group",
              "type": "string",
              "value": "use12"
            },
            {
              "name": "piece_id",
              "type": "string",
              "value": "image75"
            },
            {
              "name": "damaged_sprite",
              "type": "string",
              "value": "xcybstr2_02.png"
            },
            {
              "name": "damage_state",
              "type": "string",
              "value": "broken"
            }
          ]
        },
        {
          "id": 1070,
          "gid": 6,
          "x": 2944.0,
          "y": 112.0,
          "width": 128.0,
          "height": 40.0,
          "visible": true,
          "name": "image77",
          "type": "window_pane",
          "properties": [
            {
              "name": "destructible",
              "type": "bool",
              "value": true
            },
            {
              "name": "hp",
              "type": "int",
              "value": 20
            },
            {
              "name": "parent_group",
              "type": "string",
              "value": "use12"
            },
            {
              "name": "piece_id",
              "type": "string",
              "value": "image77"
            },
            {
              "name": "damaged_sprite",
              "type": "string",
              "value": "xcybstr2_04.png"
            },
            {
              "name": "damage_state",
              "type": "string",
              "value": "broken"
            }
          ]
        },
        {
          "id": 1071,
          "gid": 2,
          "x": 2944.0,
          "y": 32.0,
          "width": 128.0,
          "height": 32.0,
          "visible": true,
          "name": "image79",
          "type": "window_pane",
          "properties": [
            {
              "name": "destructible",
              "type": "bool",
              "value": true
            },
            {
              "name": "hp",
              "type": "int",
              "value": 20
            },
            {
              "name": "parent_group",
              "type": "string",
              "value": "use12"
            },
            {
              "name": "piece_id",
              "type": "string",
              "value": "image79"
            },
            {
              "name": "damaged_sprite",
              "type": "string",
              "value": "xcybstr2_00.png"
            },
            {
              "name": "damage_state",
              "type": "string",
              "value": "broken"
            }
          ]
        },
        {
          "id": 1072,
          "gid": 5,
          "x": 3072.0,
          "y": 72.0,
          "width": 128.0,
          "height": 40.0,
          "visible": true,
          "name": "image76",
          "type": "window_pane",
          "properties": [
            {
              "name": "destructible",
              "type": "bool",
              "value": true
            },
            {
              "name": "hp",
              "type": "int",
              "value": 20
            },
            {
              "name": "parent_group",
              "type": "string",
              "value": "use12"
            },
            {
              "name": "piece_id",
              "type": "string",
              "value": "image76"
            },
            {
              "name": "damaged_sprite",
              "type": "string",
              "value": "xcybstr2_03.png"
            },
            {
              "name": "damage_state",
              "type": "string",
              "value": "broken"
            }
          ]
        },
        {
          "id": 1073,
          "gid": 7,
          "x": 3072.0,
          "y": 112.0,
          "width": 128.0,
          "height": 40.0,
          "visible": true,
          "name": "image78",
          "type": "window_pane",
          "properties": [
            {
              "name": "destructible",
              "type": "bool",
              "value": true
            },
            {
              "name": "hp",
              "type": "int",
              "value": 20
            },
            {
              "name": "parent_group",
              "type": "string",
              "value": "use12"
            },
            {
              "name": "piece_id",
              "type": "string",
              "value": "image78"
            },
            {
              "name": "damaged_sprite",
              "type": "string",
              "value": "xcybstr2_05.png"
            },
            {
              "name": "damage_state",
              "type": "string",
              "value": "broken"
            }
          ]
        },
        {
          "id": 1074,
          "gid": 3,
          "x": 3072.0,
          "y": 32.0,
          "width": 128.0,
          "height": 32.0,
          "visible": true,
          "name": "image80",
          "type": "window_pane",
          "properties": [
            {
              "name": "destructible",
              "type": "bool",
              "value": true
            },
            {
              "name": "hp",
              "type": "int",
              "value": 20
            },
            {
              "name": "parent_group",
              "type": "string",
              "value": "use12"
            },
            {
              "name": "piece_id",
              "type": "string",
              "value": "image80"
            },
            {
              "name": "damaged_sprite",
              "type": "string",
              "value": "xcybstr2_01.png"
            },
            {
              "name": "damage_state",
              "type": "string",
              "value": "broken"
            }
          ]
        },
        {
          "id": 1075,
          "gid": 4,
          "x": 3200.0,
          "y": 72.0,
          "width": 128.0,
          "height": 40.0,
          "visible": true,
          "name": "image81",
          "type": "window_pane",
          "properties": [
            {
              "name": "destructible",
              "type": "bool",
              "value": true
            },
            {
              "name": "hp",
              "type": "int",
              "value": 20
            },
            {
              "name": "parent_group",
              "type": "string",
              "value": "use13"
            },
            {
              "name": "piece_id",
              "type": "string",
              "value": "image81"
            },
            {
              "name": "damaged_sprite",
              "type": "string",
              "value": "xcybstr2_02.png"
            },
            {
              "name": "damage_state",
              "type": "string",
              "value": "broken"
            }
          ]
        },
        {
          "id": 1076,
          "gid": 6,
          "x": 3200.0,
          "y": 112.0,
          "width": 128.0,
          "height": 40.0,
          "visible": true,
          "name": "image83",
          "type": "window_pane",
          "properties": [
            {
              "name": "destructible",
              "type": "bool",
              "value": true
            },
            {
              "name": "hp",
              "type": "int",
              "value": 20
            },
            {
              "name": "parent_group",
              "type": "string",
              "value": "use13"
            },
            {
              "name": "piece_id",
              "type": "string",
              "value": "image83"
            },
            {
              "name": "damaged_sprite",
              "type": "string",
              "value": "xcybstr2_04.png"
            },
            {
              "name": "damage_state",
              "type": "string",
              "value": "broken"
            }
          ]
        },
        {
          "id": 1077,
          "gid": 2,
          "x": 3200.0,
          "y": 32.0,
          "width": 128.0,
          "height": 32.0,
          "visible": true,
          "name": "image85",
          "type": "window_pane",
          "properties": [
            {
              "name": "destructible",
              "type": "bool",
              "value": true
            },
            {
              "name": "hp",
              "type": "int",
              "value": 20
            },
            {
              "name": "parent_group",
              "type": "string",
              "value": "use13"
            },
            {
              "name": "piece_id",
              "type": "string",
              "value": "image85"
            },
            {
              "name": "damaged_sprite",
              "type": "string",
              "value": "xcybstr2_00.png"
            },
            {
              "name": "damage_state",
              "type": "string",
              "value": "broken"
            }
          ]
        },
        {
          "id": 1078,
          "gid": 5,
          "x": 3328.0,
          "y": 72.0,
          "width": 128.0,
          "height": 40.0,
          "visible": true,
          "name": "image82",
          "type": "window_pane",
          "properties": [
            {
              "name": "destructible",
              "type": "bool",
              "value": true
            },
            {
              "name": "hp",
              "type": "int",
              "value": 20
            },
            {
              "name": "parent_group",
              "type": "string",
              "value": "use13"
            },
            {
              "name": "piece_id",
              "type": "string",
              "value": "image82"
            },
            {
              "name": "damaged_sprite",
              "type": "string",
              "value": "xcybstr2_03.png"
            },
            {
              "name": "damage_state",
              "type": "string",
              "value": "broken"
            }
          ]
        },
        {
          "id": 1079,
          "gid": 7,
          "x": 3328.0,
          "y": 112.0,
          "width": 128.0,
          "height": 40.0,
          "visible": true,
          "name": "image84",
          "type": "window_pane",
          "properties": [
            {
              "name": "destructible",
              "type": "bool",
              "value": true
            },
            {
              "name": "hp",
              "type": "int",
              "value": 20
            },
            {
              "name": "parent_group",
              "type": "string",
              "value": "use13"
            },
            {
              "name": "piece_id",
              "type": "string",
              "value": "image84"
            },
            {
              "name": "damaged_sprite",
              "type": "string",
              "value": "xcybstr2_05.png"
            },
            {
              "name": "damage_state",
              "type": "string",
              "value": "broken"
            }
          ]
        },
        {
          "id": 1080,
          "gid": 3,
          "x": 3328.0,
          "y": 32.0,
          "width": 128.0,
          "height": 32.0,
          "visible": true,
          "name": "image86",
          "type": "window_pane",
          "properties": [
            {
              "name": "destructible",
              "type": "bool",
              "value": true
            },
            {
              "name": "hp",
              "type": "int",
              "value": 20
            },
            {
              "name": "parent_group",
              "type": "string",
              "value": "use13"
            },
            {
              "name": "piece_id",
              "type": "string",
              "value": "image86"
            },
            {
              "name": "damaged_sprite",
              "type": "string",
              "value": "xcybstr2_01.png"
            },
            {
              "name": "damage_state",
              "type": "string",
              "value": "broken"
            }
          ]
        },
        {
          "id": 1081,
          "gid": 4,
          "x": 3456.0,
          "y": 72.0,
          "width": 128.0,
          "height": 40.0,
          "visible": true,
          "name": "image87",
          "type": "window_pane",
          "properties": [
            {
              "name": "destructible",
              "type": "bool",
              "value": true
            },
            {
              "name": "hp",
              "type": "int",
              "value": 20
            },
            {
              "name": "parent_group",
              "type": "string",
              "value": "use14"
            },
            {
              "name": "piece_id",
              "type": "string",
              "value": "image87"
            },
            {
              "name": "damaged_sprite",
              "type": "string",
              "value": "xcybstr2_02.png"
            },
            {
              "name": "damage_state",
              "type": "string",
              "value": "broken"
            }
          ]
        },
        {
          "id": 1082,
          "gid": 6,
          "x": 3456.0,
          "y": 112.0,
          "width": 128.0,
          "height": 40.0,
          "visible": true,
          "name": "image89",
          "type": "window_pane",
          "properties": [
            {
              "name": "destructible",
              "type": "bool",
              "value": true
            },
            {
              "name": "hp",
              "type": "int",
              "value": 20
            },
            {
              "name": "parent_group",
              "type": "string",
              "value": "use14"
            },
            {
              "name": "piece_id",
              "type": "string",
              "value": "image89"
            },
            {
              "name": "damaged_sprite",
              "type": "string",
              "value": "xcybstr2_04.png"
            },
            {
              "name": "damage_state",
              "type": "string",
              "value": "broken"
            }
          ]
        },
        {
          "id": 1083,
          "gid": 2,
          "x": 3456.0,
          "y": 32.0,
          "width": 128.0,
          "height": 32.0,
          "visible": true,
          "name": "image91",
          "type": "window_pane",
          "properties": [
            {
              "name": "destructible",
              "type": "bool",
              "value": true
            },
            {
              "name": "hp",
              "type": "int",
              "value": 20
            },
            {
              "name": "parent_group",
              "type": "string",
              "value": "use14"
            },
            {
              "name": "piece_id",
              "type": "string",
              "value": "image91"
            },
            {
              "name": "damaged_sprite",
              "type": "string",
              "value": "xcybstr2_00.png"
            },
            {
              "name": "damage_state",
              "type": "string",
              "value": "broken"
            }
          ]
        },
        {
          "id": 1084,
          "gid": 5,
          "x": 3584.0,
          "y": 72.0,
          "width": 128.0,
          "height": 40.0,
          "visible": true,
          "name": "image88",
          "type": "window_pane",
          "properties": [
            {
              "name": "destructible",
              "type": "bool",
              "value": true
            },
            {
              "name": "hp",
              "type": "int",
              "value": 20
            },
            {
              "name": "parent_group",
              "type": "string",
              "value": "use14"
            },
            {
              "name": "piece_id",
              "type": "string",
              "value": "image88"
            },
            {
              "name": "damaged_sprite",
              "type": "string",
              "value": "xcybstr2_03.png"
            },
            {
              "name": "damage_state",
              "type": "string",
              "value": "broken"
            }
          ]
        },
        {
          "id": 1085,
          "gid": 7,
          "x": 3584.0,
          "y": 112.0,
          "width": 128.0,
          "height": 40.0,
          "visible": true,
          "name": "image90",
          "type": "window_pane",
          "properties": [
            {
              "name": "destructible",
              "type": "bool",
              "value": true
            },
            {
              "name": "hp",
              "type": "int",
              "value": 20
            },
            {
              "name": "parent_group",
              "type": "string",
              "value": "use14"
            },
            {
              "name": "piece_id",
              "type": "string",
              "value": "image90"
            },
            {
              "name": "damaged_sprite",
              "type": "string",
              "value": "xcybstr2_05.png"
            },
            {
              "name": "damage_state",
              "type": "string",
              "value": "broken"
            }
          ]
        },
        {
          "id": 1086,
          "gid": 3,
          "x": 3584.0,
          "y": 32.0,
          "width": 128.0,
          "height": 32.0,
          "visible": true,
          "name": "image92",
          "type": "window_pane",
          "properties": [
            {
              "name": "destructible",
              "type": "bool",
              "value": true
            },
            {
              "name": "hp",
              "type": "int",
              "value": 20
            },
            {
              "name": "parent_group",
              "type": "string",
              "value": "use14"
            },
            {
              "name": "piece_id",
              "type": "string",
              "value": "image92"
            },
            {
              "name": "damaged_sprite",
              "type": "string",
              "value": "xcybstr2_01.png"
            },
            {
              "name": "damage_state",
              "type": "string",
              "value": "broken"
            }
          ]
        },
        {
          "id": 1087,
          "gid": 4,
          "x": 3712.0,
          "y": 72.0,
          "width": 128.0,
          "height": 40.0,
          "visible": true,
          "name": "image93",
          "type": "window_pane",
          "properties": [
            {
              "name": "destructible",
              "type": "bool",
              "value": true
            },
            {
              "name": "hp",
              "type": "int",
              "value": 20
            },
            {
              "name": "parent_group",
              "type": "string",
              "value": "use15"
            },
            {
              "name": "piece_id",
              "type": "string",
              "value": "image93"
            },
            {
              "name": "damaged_sprite",
              "type": "string",
              "value": "xcybstr2_02.png"
            },
            {
              "name": "damage_state",
              "type": "string",
              "value": "broken"
            }
          ]
        },
        {
          "id": 1088,
          "gid": 6,
          "x": 3712.0,
          "y": 112.0,
          "width": 128.0,
          "height": 40.0,
          "visible": true,
          "name": "image95",
          "type": "window_pane",
          "properties": [
            {
              "name": "destructible",
              "type": "bool",
              "value": true
            },
            {
              "name": "hp",
              "type": "int",
              "value": 20
            },
            {
              "name": "parent_group",
              "type": "string",
              "value": "use15"
            },
            {
              "name": "piece_id",
              "type": "string",
              "value": "image95"
            },
            {
              "name": "damaged_sprite",
              "type": "string",
              "value": "xcybstr2_04.png"
            },
            {
              "name": "damage_state",
              "type": "string",
              "value": "broken"
            }
          ]
        },
        {
          "id": 1089,
          "gid": 2,
          "x": 3712.0,
          "y": 32.0,
          "width": 128.0,
          "height": 32.0,
          "visible": true,
          "name": "image97",
          "type": "window_pane",
          "properties": [
            {
              "name": "destructible",
              "type": "bool",
              "value": true
            },
            {
              "name": "hp",
              "type": "int",
              "value": 20
            },
            {
              "name": "parent_group",
              "type": "string",
              "value": "use15"
            },
            {
              "name": "piece_id",
              "type": "string",
              "value": "image97"
            },
            {
              "name": "damaged_sprite",
              "type": "string",
              "value": "xcybstr2_00.png"
            },
            {
              "name": "damage_state",
              "type": "string",
              "value": "broken"
            }
          ]
        },
        {
          "id": 1090,
          "gid": 5,
          "x": 3840.0,
          "y": 72.0,
          "width": 128.0,
          "height": 40.0,
          "visible": true,
          "name": "image94",
          "type": "window_pane",
          "properties": [
            {
              "name": "destructible",
              "type": "bool",
              "value": true
            },
            {
              "name": "hp",
              "type": "int",
              "value": 20
            },
            {
              "name": "parent_group",
              "type": "string",
              "value": "use15"
            },
            {
              "name": "piece_id",
              "type": "string",
              "value": "image94"
            },
            {
              "name": "damaged_sprite",
              "type": "string",
              "value": "xcybstr2_03.png"
            },
            {
              "name": "damage_state",
              "type": "string",
              "value": "broken"
            }
          ]
        },
        {
          "id": 1091,
          "gid": 7,
          "x": 3840.0,
          "y": 112.0,
          "width": 128.0,
          "height": 40.0,
          "visible": true,
          "name": "image96",
          "type": "window_pane",
          "properties": [
            {
              "name": "destructible",
              "type": "bool",
              "value": true
            },
            {
              "name": "hp",
              "type": "int",
              "value": 20
            },
            {
              "name": "parent_group",
              "type": "string",
              "value": "use15"
            },
            {
              "name": "piece_id",
              "type": "string",
              "value": "image96"
            },
            {
              "name": "damaged_sprite",
              "type": "string",
              "value": "xcybstr2_05.png"
            },
            {
              "name": "damage_state",
              "type": "string",
              "value": "broken"
            }
          ]
        },
        {
          "id": 1092,
          "gid": 3,
          "x": 3840.0,
          "y": 32.0,
          "width": 128.0,
          "height": 32.0,
          "visible": true,
          "name": "image98",
          "type": "window_pane",
          "properties": [
            {
              "name": "destructible",
              "type": "bool",
              "value": true
            },
            {
              "name": "hp",
              "type": "int",
              "value": 20
            },
            {
              "name": "parent_group",
              "type": "string",
              "value": "use15"
            },
            {
              "name": "piece_id",
              "type": "string",
              "value": "image98"
            },
            {
              "name": "damaged_sprite",
              "type": "string",
              "value": "xcybstr2_01.png"
            },
            {
              "name": "damage_state",
              "type": "string",
              "value": "broken"
            }
          ]
        },
        {
          "id": 1093,
          "gid": 4,
          "x": 3968.0,
          "y": 72.0,
          "width": 128.0,
          "height": 40.0,
          "visible": true,
          "name": "image454",
          "type": "window_pane",
          "properties": [
            {
              "name": "destructible",
              "type": "bool",
              "value": true
            },
            {
              "name": "hp",
              "type": "int",
              "value": 20
            },
            {
              "name": "parent_group",
              "type": "string",
              "value": "g459"
            },
            {
              "name": "piece_id",
              "type": "string",
              "value": "image454"
            },
            {
              "name": "damaged_sprite",
              "type": "string",
              "value": "xcybstr2_02.png"
            },
            {
              "name": "damage_state",
              "type": "string",
              "value": "broken"
            }
          ]
        },
        {
          "id": 1094,
          "gid": 6,
          "x": 3968.0,
          "y": 112.0,
          "width": 128.0,
          "height": 40.0,
          "visible": true,
          "name": "image456",
          "type": "window_pane",
          "properties": [
            {
              "name": "destructible",
              "type": "bool",
              "value": true
            },
            {
              "name": "hp",
              "type": "int",
              "value": 20
            },
            {
              "name": "parent_group",
              "type": "string",
              "value": "g459"
            },
            {
              "name": "piece_id",
              "type": "string",
              "value": "image456"
            },
            {
              "name": "damaged_sprite",
              "type": "string",
              "value": "xcybstr2_04.png"
            },
            {
              "name": "damage_state",
              "type": "string",
              "value": "broken"
            }
          ]
        },
        {
          "id": 1095,
          "gid": 2,
          "x": 3968.0,
          "y": 32.0,
          "width": 128.0,
          "height": 32.0,
          "visible": true,
          "name": "image458",
          "type": "window_pane",
          "properties": [
            {
              "name": "destructible",
              "type": "bool",
              "value": true
            },
            {
              "name": "hp",
              "type": "int",
              "value": 20
            },
            {
              "name": "parent_group",
              "type": "string",
              "value": "g459"
            },
            {
              "name": "piece_id",
              "type": "string",
              "value": "image458"
            },
            {
              "name": "damaged_sprite",
              "type": "string",
              "value": "xcybstr2_00.png"
            },
            {
              "name": "damage_state",
              "type": "string",
              "value": "broken"
            }
          ]
        },
        {
          "id": 1096,
          "gid": 5,
          "x": 4096.0,
          "y": 72.0,
          "width": 128.0,
          "height": 40.0,
          "visible": true,
          "name": "image455",
          "type": "window_pane",
          "properties": [
            {
              "name": "destructible",
              "type": "bool",
              "value": true
            },
            {
              "name": "hp",
              "type": "int",
              "value": 20
            },
            {
              "name": "parent_group",
              "type": "string",
              "value": "g459"
            },
            {
              "name": "piece_id",
              "type": "string",
              "value": "image455"
            },
            {
              "name": "damaged_sprite",
              "type": "string",
              "value": "xcybstr2_03.png"
            },
            {
              "name": "damage_state",
              "type": "string",
              "value": "broken"
            }
          ]
        },
        {
          "id": 1097,
          "gid": 7,
          "x": 4096.0,
          "y": 112.0,
          "width": 128.0,
          "height": 40.0,
          "visible": true,
          "name": "image457",
          "type": "window_pane",
          "properties": [
            {
              "name": "destructible",
              "type": "bool",
              "value": true
            },
            {
              "name": "hp",
              "type": "int",
              "value": 20
            },
            {
              "name": "parent_group",
              "type": "string",
              "value": "g459"
            },
            {
              "name": "piece_id",
              "type": "string",
              "value": "image457"
            },
            {
              "name": "damaged_sprite",
              "type": "string",
              "value": "xcybstr2_05.png"
            },
            {
              "name": "damage_state",
              "type": "string",
              "value": "broken"
            }
          ]
        },
        {
          "id": 1098,
          "gid": 3,
          "x": 4096.0,
          "y": 32.0,
          "width": 128.0,
          "height": 32.0,
          "visible": true,
          "name": "image459",
          "type": "window_pane",
          "properties": [
            {
              "name": "destructible",
              "type": "bool",
              "value": true
            },
            {
              "name": "hp",
              "type": "int",
              "value": 20
            },
            {
              "name": "parent_group",
              "type": "string",
              "value": "g459"
            },
            {
              "name": "piece_id",
              "type": "string",
              "value": "image459"
            },
            {
              "name": "damaged_sprite",
              "type": "string",
              "value": "xcybstr2_01.png"
            },
            {
              "name": "damage_state",
              "type": "string",
              "value": "broken"
            }
          ]
        }
      ],
      "opacity": 1,
      "visible": true,
      "x": 0,
      "y": 0
    },
    {
      "id": 3,
      "type": "objectgroup",
      "name": "equipment_wall",
      "parallaxx": 1.0,
      "parallaxy": 0.0,
      "objects": [
        {
          "id": 1099,
          "gid": 29,
          "x": 142.89,
          "y": 93.63,
          "width": 56.0,
          "height": 16.0,
          "visible": true,
          "name": "g175",
          "type": "furniture_piece",
          "properties": [
            {
              "name": "destructible",
              "type": "bool",
              "value": true
            },
            {
              "name": "hp",
              "type": "int",
              "value": 20
            },
            {
              "name": "parent_group",
              "type": "string",
              "value": "g533"
            },
            {
              "name": "piece_id",
              "type": "string",
              "value": "g175"
            },
            {
              "name": "damaged_sprite",
              "type": "string",
              "value": "xcybstr4_09.png"
            },
            {
              "name": "damage_state",
              "type": "string",
              "value": "intact"
            }
          ]
        },
        {
          "id": 1100,
          "gid": 30,
          "x": 142.89,
          "y": 120.63,
          "width": 28.0,
          "height": 27.0,
          "visible": true,
          "name": "g176",
          "type": "furniture_piece",
          "properties": [
            {
              "name": "destructible",
              "type": "bool",
              "value": true
            },
            {
              "name": "hp",
              "type": "int",
              "value": 20
            },
            {
              "name": "parent_group",
              "type": "string",
              "value": "g533"
            },
            {
              "name": "piece_id",
              "type": "string",
              "value": "g176"
            },
            {
              "name": "damaged_sprite",
              "type": "string",
              "value": "xcybstr4_10.png"
            },
            {
              "name": "damage_state",
              "type": "string",
              "value": "intact"
            }
          ]
        },
        {
          "id": 1101,
          "gid": 28,
          "x": 160.83,
          "y": 78.64,
          "width": 18.0,
          "height": 17.0,
          "visible": true,
          "name": "g174",
          "type": "furniture_piece",
          "properties": [
            {
              "name": "destructible",
              "type": "bool",
              "value": true
            },
            {
              "name": "hp",
              "type": "int",
              "value": 20
            },
            {
              "name": "parent_group",
              "type": "string",
              "value": "g533"
            },
            {
              "name": "piece_id",
              "type": "string",
              "value": "g174"
            },
            {
              "name": "damaged_sprite",
              "type": "string",
              "value": "xcybstr4_08.png"
            },
            {
              "name": "damage_state",
              "type": "string",
              "value": "intact"
            }
          ]
        },
        {
          "id": 1102,
          "gid": 31,
          "x": 170.89,
          "y": 120.63,
          "width": 28.0,
          "height": 27.0,
          "visible": true,
          "name": "g177",
          "type": "furniture_piece",
          "properties": [
            {
              "name": "destructible",
              "type": "bool",
              "value": true
            },
            {
              "name": "hp",
              "type": "int",
              "value": 20
            },
            {
              "name": "parent_group",
              "type": "string",
              "value": "g533"
            },
            {
              "name": "piece_id",
              "type": "string",
              "value": "g177"
            },
            {
              "name": "damaged_sprite",
              "type": "string",
              "value": "xcybstr4_11.png"
            },
            {
              "name": "damage_state",
              "type": "string",
              "value": "intact"
            }
          ]
        },
        {
          "id": 1103,
          "gid": 36,
          "x": 198.89,
          "y": 88.63,
          "width": 16.0,
          "height": 16.0,
          "visible": true,
          "name": "g178",
          "type": "furniture_piece",
          "properties": [
            {
              "name": "destructible",
              "type": "bool",
              "value": true
            },
            {
              "name": "hp",
              "type": "int",
              "value": 20
            },
            {
              "name": "parent_group",
              "type": "string",
              "value": "g533"
            },
            {
              "name": "piece_id",
              "type": "string",
              "value": "g178"
            },
            {
              "name": "damaged_sprite",
              "type": "string",
              "value": "xcybstr4_13.png"
            },
            {
              "name": "damage_state",
              "type": "string",
              "value": "intact"
            }
          ]
        },
        {
          "id": 1104,
          "gid": 36,
          "x": 198.89,
          "y": 104.63,
          "width": 16.0,
          "height": 16.0,
          "visible": true,
          "name": "g179",
          "type": "furniture_piece",
          "properties": [
            {
              "name": "destructible",
              "type": "bool",
              "value": true
            },
            {
              "name": "hp",
              "type": "int",
              "value": 20
            },
            {
              "name": "parent_group",
              "type": "string",
              "value": "g533"
            },
            {
              "name": "piece_id",
              "type": "string",
              "value": "g179"
            },
            {
              "name": "damaged_sprite",
              "type": "string",
              "value": "xcybstr4_13.png"
            },
            {
              "name": "damage_state",
              "type": "string",
              "value": "intact"
            }
          ]
        },
        {
          "id": 1105,
          "gid": 36,
          "x": 198.89,
          "y": 120.63,
          "width": 16.0,
          "height": 16.0,
          "visible": true,
          "name": "g180",
          "type": "furniture_piece",
          "properties": [
            {
              "name": "destructible",
              "type": "bool",
              "value": true
            },
            {
              "name": "hp",
              "type": "int",
              "value": 20
            },
            {
              "name": "parent_group",
              "type": "string",
              "value": "g533"
            },
            {
              "name": "piece_id",
              "type": "string",
              "value": "g180"
            },
            {
              "name": "damaged_sprite",
              "type": "string",
              "value": "xcybstr4_13.png"
            },
            {
              "name": "damage_state",
              "type": "string",
              "value": "intact"
            }
          ]
        },
        {
          "id": 1106,
          "gid": 8,
          "x": 376.0,
          "y": 56.63,
          "width": 24.0,
          "height": 24.0,
          "visible": true,
          "name": "g164",
          "type": "furniture_piece",
          "properties": [
            {
              "name": "destructible",
              "type": "bool",
              "value": true
            },
            {
              "name": "hp",
              "type": "int",
              "value": 20
            },
            {
              "name": "parent_group",
              "type": "string",
              "value": "g154"
            },
            {
              "name": "piece_id",
              "type": "string",
              "value": "g164"
            },
            {
              "name": "damaged_sprite",
              "type": "string",
              "value": "xcybstr3_08.png"
            },
            {
              "name": "damage_state",
              "type": "string",
              "value": "intact"
            }
          ]
        },
        {
          "id": 1107,
          "gid": 9,
          "x": 376.0,
          "y": 80.63,
          "width": 24.0,
          "height": 24.0,
          "visible": true,
          "name": "g167",
          "type": "furniture_piece",
          "properties": [
            {
              "name": "destructible",
              "type": "bool",
              "value": true
            },
            {
              "name": "hp",
              "type": "int",
              "value": 20
            },
            {
              "name": "parent_group",
              "type": "string",
              "value": "g154"
            },
            {
              "name": "piece_id",
              "type": "string",
              "value": "g167"
            },
            {
              "name": "damaged_sprite",
              "type": "string",
              "value": "xcybstr3_09.png"
            },
            {
              "name": "damage_state",
              "type": "string",
              "value": "intact"
            }
          ]
        },
        {
          "id": 1108,
          "gid": 10,
          "x": 376.0,
          "y": 120.63,
          "width": 24.0,
          "height": 40.0,
          "visible": true,
          "name": "g170",
          "type": "furniture_piece",
          "properties": [
            {
              "name": "destructible",
              "type": "bool",
              "value": true
            },
            {
              "name": "hp",
              "type": "int",
              "value": 20
            },
            {
              "name": "parent_group",
              "type": "string",
              "value": "g154"
            },
            {
              "name": "piece_id",
              "type": "string",
              "value": "g170"
            },
            {
              "name": "damaged_sprite",
              "type": "string",
              "value": "xcybstr3_10.png"
            },
            {
              "name": "damage_state",
              "type": "string",
              "value": "intact"
            }
          ]
        },
        {
          "id": 1109,
          "gid": 14,
          "x": 400.0,
          "y": 80.63,
          "width": 16.0,
          "height": 32.0,
          "visible": true,
          "name": "g168",
          "type": "furniture_piece",
          "properties": [
            {
              "name": "destructible",
              "type": "bool",
              "value": true
            },
            {
              "name": "hp",
              "type": "int",
              "value": 20
            },
            {
              "name": "parent_group",
              "type": "string",
              "value": "g154"
            },
            {
              "name": "piece_id",
              "type": "string",
              "value": "g168"
            },
            {
              "name": "damaged_sprite",
              "type": "string",
              "value": "xcybstr3_14.png"
            },
            {
              "name": "damage_state",
              "type": "string",
              "value": "intact"
            }
          ]
        },
        {
          "id": 1110,
          "gid": 15,
          "x": 400.0,
          "y": 120.63,
          "width": 16.0,
          "height": 40.0,
          "visible": true,
          "name": "g171",
          "type": "furniture_piece",
          "properties": [
            {
              "name": "destructible",
              "type": "bool",
              "value": true
            },
            {
              "name": "hp",
              "type": "int",
              "value": 20
            },
            {
              "name": "parent_group",
              "type": "string",
              "value": "g154"
            },
            {
              "name": "piece_id",
              "type": "string",
              "value": "g171"
            },
            {
              "name": "damaged_sprite",
              "type": "string",
              "value": "xcybstr3_15.png"
            },
            {
              "name": "damage_state",
              "type": "string",
              "value": "intact"
            }
          ]
        },
        {
          "id": 1111,
          "gid": 13,
          "x": 400.0,
          "y": 48.63,
          "width": 16.0,
          "height": 16.0,
          "visible": true,
          "name": "g165",
          "type": "furniture_piece",
          "properties": [
            {
              "name": "destructible",
              "type": "bool",
              "value": true
            },
            {
              "name": "hp",
              "type": "int",
              "value": 20
            },
            {
              "name": "parent_group",
              "type": "string",
              "value": "g154"
            },
            {
              "name": "piece_id",
              "type": "string",
              "value": "g165"
            },
            {
              "name": "damaged_sprite",
              "type": "string",
              "value": "xcybstr3_13.png"
            },
            {
              "name": "damage_state",
              "type": "string",
              "value": "intact"
            }
          ]
        },
        {
          "id": 1112,
          "gid": 8,
          "x": 416.0,
          "y": 56.63,
          "width": 24.0,
          "height": 24.0,
          "visible": true,
          "name": "g166",
          "type": "furniture_piece",
          "properties": [
            {
              "name": "destructible",
              "type": "bool",
              "value": true
            },
            {
              "name": "hp",
              "type": "int",
              "value": 20
            },
            {
              "name": "parent_group",
              "type": "string",
              "value": "g154"
            },
            {
              "name": "piece_id",
              "type": "string",
              "value": "g166"
            },
            {
              "name": "damaged_sprite",
              "type": "string",
              "value": "xcybstr3_08.png"
            },
            {
              "name": "damage_state",
              "type": "string",
              "value": "intact"
            }
          ]
        },
        {
          "id": 1113,
          "gid": 10,
          "x": 416.0,
          "y": 120.63,
          "width": 24.0,
          "height": 40.0,
          "visible": true,
          "name": "g172",
          "type": "furniture_piece",
          "properties": [
            {
              "name": "destructible",
              "type": "bool",
              "value": true
            },
            {
              "name": "hp",
              "type": "int",
              "value": 20
            },
            {
              "name": "parent_group",
              "type": "string",
              "value": "g154"
            },
            {
              "name": "piece_id",
              "type": "string",
              "value": "g172"
            },
            {
              "name": "damaged_sprite",
              "type": "string",
              "value": "xcybstr3_10.png"
            },
            {
              "name": "damage_state",
              "type": "string",
              "value": "intact"
            }
          ]
        },
        {
          "id": 1114,
          "gid": 9,
          "x": 416.0,
          "y": 80.63,
          "width": 24.0,
          "height": 24.0,
          "visible": true,
          "name": "g169",
          "type": "furniture_piece",
          "properties": [
            {
              "name": "destructible",
              "type": "bool",
              "value": true
            },
            {
              "name": "hp",
              "type": "int",
              "value": 20
            },
            {
              "name": "parent_group",
              "type": "string",
              "value": "g154"
            },
            {
              "name": "piece_id",
              "type": "string",
              "value": "g169"
            },
            {
              "name": "damaged_sprite",
              "type": "string",
              "value": "xcybstr3_09.png"
            },
            {
              "name": "damage_state",
              "type": "string",
              "value": "intact"
            }
          ]
        },
        {
          "id": 1115,
          "gid": 24,
          "x": 440.0,
          "y": 120.63,
          "width": 32.0,
          "height": 56.0,
          "visible": true,
          "name": "g173",
          "type": "furniture_piece",
          "properties": [
            {
              "name": "destructible",
              "type": "bool",
              "value": true
            },
            {
              "name": "hp",
              "type": "int",
              "value": 20
            },
            {
              "name": "parent_group",
              "type": "string",
              "value": "g154"
            },
            {
              "name": "piece_id",
              "type": "string",
              "value": "g173"
            },
            {
              "name": "damaged_sprite",
              "type": "string",
              "value": "xcybstr4_01.png"
            },
            {
              "name": "damage_state",
              "type": "string",
              "value": "intact"
            }
          ]
        },
        {
          "id": 1116,
          "gid": 29,
          "x": 543.33,
          "y": 93.63,
          "width": 56.0,
          "height": 16.0,
          "visible": true,
          "name": "g542",
          "type": "furniture_piece",
          "properties": [
            {
              "name": "destructible",
              "type": "bool",
              "value": true
            },
            {
              "name": "hp",
              "type": "int",
              "value": 20
            },
            {
              "name": "parent_group",
              "type": "string",
              "value": "g547"
            },
            {
              "name": "piece_id",
              "type": "string",
              "value": "g542"
            },
            {
              "name": "damaged_sprite",
              "type": "string",
              "value": "xcybstr4_09.png"
            },
            {
              "name": "damage_state",
              "type": "string",
              "value": "intact"
            }
          ]
        },
        {
          "id": 1117,
          "gid": 30,
          "x": 543.33,
          "y": 120.63,
          "width": 28.0,
          "height": 27.0,
          "visible": true,
          "name": "g544",
          "type": "furniture_piece",
          "properties": [
            {
              "name": "destructible",
              "type": "bool",
              "value": true
            },
            {
              "name": "hp",
              "type": "int",
              "value": 20
            },
            {
              "name": "parent_group",
              "type": "string",
              "value": "g547"
            },
            {
              "name": "piece_id",
              "type": "string",
              "value": "g544"
            },
            {
              "name": "damaged_sprite",
              "type": "string",
              "value": "xcybstr4_10.png"
            },
            {
              "name": "damage_state",
              "type": "string",
              "value": "intact"
            }
          ]
        },
        {
          "id": 1118,
          "gid": 28,
          "x": 561.27,
          "y": 78.64,
          "width": 18.0,
          "height": 17.0,
          "visible": true,
          "name": "g540",
          "type": "furniture_piece",
          "properties": [
            {
              "name": "destructible",
              "type": "bool",
              "value": true
            },
            {
              "name": "hp",
              "type": "int",
              "value": 20
            },
            {
              "name": "parent_group",
              "type": "string",
              "value": "g547"
            },
            {
              "name": "piece_id",
              "type": "string",
              "value": "g540"
            },
            {
              "name": "damaged_sprite",
              "type": "string",
              "value": "xcybstr4_08.png"
            },
            {
              "name": "damage_state",
              "type": "string",
              "value": "intact"
            }
          ]
        },
        {
          "id": 1119,
          "gid": 31,
          "x": 571.33,
          "y": 120.63,
          "width": 28.0,
          "height": 27.0,
          "visible": true,
          "name": "g546",
          "type": "furniture_piece",
          "properties": [
            {
              "name": "destructible",
              "type": "bool",
              "value": true
            },
            {
              "name": "hp",
              "type": "int",
              "value": 20
            },
            {
              "name": "parent_group",
              "type": "string",
              "value": "g547"
            },
            {
              "name": "piece_id",
              "type": "string",
              "value": "g546"
            },
            {
              "name": "damaged_sprite",
              "type": "string",
              "value": "xcybstr4_11.png"
            },
            {
              "name": "damage_state",
              "type": "string",
              "value": "intact"
            }
          ]
        },
        {
          "id": 1120,
          "gid": 36,
          "x": 599.33,
          "y": 88.63,
          "width": 16.0,
          "height": 16.0,
          "visible": true,
          "name": "g534",
          "type": "furniture_piece",
          "properties": [
            {
              "name": "destructible",
              "type": "bool",
              "value": true
            },
            {
              "name": "hp",
              "type": "int",
              "value": 20
            },
            {
              "name": "parent_group",
              "type": "string",
              "value": "g547"
            },
            {
              "name": "piece_id",
              "type": "string",
              "value": "g534"
            },
            {
              "name": "damaged_sprite",
              "type": "string",
              "value": "xcybstr4_13.png"
            },
            {
              "name": "damage_state",
              "type": "string",
              "value": "intact"
            }
          ]
        },
        {
          "id": 1121,
          "gid": 36,
          "x": 599.33,
          "y": 104.63,
          "width": 16.0,
          "height": 16.0,
          "visible": true,
          "name": "g536",
          "type": "furniture_piece",
          "properties": [
            {
              "name": "destructible",
              "type": "bool",
              "value": true
            },
            {
              "name": "hp",
              "type": "int",
              "value": 20
            },
            {
              "name": "parent_group",
              "type": "string",
              "value": "g547"
            },
            {
              "name": "piece_id",
              "type": "string",
              "value": "g536"
            },
            {
              "name": "damaged_sprite",
              "type": "string",
              "value": "xcybstr4_13.png"
            },
            {
              "name": "damage_state",
              "type": "string",
              "value": "intact"
            }
          ]
        },
        {
          "id": 1122,
          "gid": 36,
          "x": 599.33,
          "y": 120.63,
          "width": 16.0,
          "height": 16.0,
          "visible": true,
          "name": "g538",
          "type": "furniture_piece",
          "properties": [
            {
              "name": "destructible",
              "type": "bool",
              "value": true
            },
            {
              "name": "hp",
              "type": "int",
              "value": 20
            },
            {
              "name": "parent_group",
              "type": "string",
              "value": "g547"
            },
            {
              "name": "piece_id",
              "type": "string",
              "value": "g538"
            },
            {
              "name": "damaged_sprite",
              "type": "string",
              "value": "xcybstr4_13.png"
            },
            {
              "name": "damage_state",
              "type": "string",
              "value": "intact"
            }
          ]
        },
        {
          "id": 1123,
          "gid": 29,
          "x": 820.06,
          "y": 93.63,
          "width": 56.0,
          "height": 16.0,
          "visible": true,
          "name": "g556",
          "type": "furniture_piece",
          "properties": [
            {
              "name": "destructible",
              "type": "bool",
              "value": true
            },
            {
              "name": "hp",
              "type": "int",
              "value": 20
            },
            {
              "name": "parent_group",
              "type": "string",
              "value": "g561"
            },
            {
              "name": "piece_id",
              "type": "string",
              "value": "g556"
            },
            {
              "name": "damaged_sprite",
              "type": "string",
              "value": "xcybstr4_09.png"
            },
            {
              "name": "damage_state",
              "type": "string",
              "value": "intact"
            }
          ]
        },
        {
          "id": 1124,
          "gid": 30,
          "x": 820.06,
          "y": 120.63,
          "width": 28.0,
          "height": 27.0,
          "visible": true,
          "name": "g558",
          "type": "furniture_piece",
          "properties": [
            {
              "name": "destructible",
              "type": "bool",
              "value": true
            },
            {
              "name": "hp",
              "type": "int",
              "value": 20
            },
            {
              "name": "parent_group",
              "type": "string",
              "value": "g561"
            },
            {
              "name": "piece_id",
              "type": "string",
              "value": "g558"
            },
            {
              "name": "damaged_sprite",
              "type": "string",
              "value": "xcybstr4_10.png"
            },
            {
              "name": "damage_state",
              "type": "string",
              "value": "intact"
            }
          ]
        },
        {
          "id": 1125,
          "gid": 28,
          "x": 838.0,
          "y": 78.64,
          "width": 18.0,
          "height": 17.0,
          "visible": true,
          "name": "g554",
          "type": "furniture_piece",
          "properties": [
            {
              "name": "destructible",
              "type": "bool",
              "value": true
            },
            {
              "name": "hp",
              "type": "int",
              "value": 20
            },
            {
              "name": "parent_group",
              "type": "string",
              "value": "g561"
            },
            {
              "name": "piece_id",
              "type": "string",
              "value": "g554"
            },
            {
              "name": "damaged_sprite",
              "type": "string",
              "value": "xcybstr4_08.png"
            },
            {
              "name": "damage_state",
              "type": "string",
              "value": "intact"
            }
          ]
        },
        {
          "id": 1126,
          "gid": 31,
          "x": 848.06,
          "y": 120.63,
          "width": 28.0,
          "height": 27.0,
          "visible": true,
          "name": "g560",
          "type": "furniture_piece",
          "properties": [
            {
              "name": "destructible",
              "type": "bool",
              "value": true
            },
            {
              "name": "hp",
              "type": "int",
              "value": 20
            },
            {
              "name": "parent_group",
              "type": "string",
              "value": "g561"
            },
            {
              "name": "piece_id",
              "type": "string",
              "value": "g560"
            },
            {
              "name": "damaged_sprite",
              "type": "string",
              "value": "xcybstr4_11.png"
            },
            {
              "name": "damage_state",
              "type": "string",
              "value": "intact"
            }
          ]
        },
        {
          "id": 1127,
          "gid": 36,
          "x": 876.06,
          "y": 88.63,
          "width": 16.0,
          "height": 16.0,
          "visible": true,
          "name": "g548",
          "type": "furniture_piece",
          "properties": [
            {
              "name": "destructible",
              "type": "bool",
              "value": true
            },
            {
              "name": "hp",
              "type": "int",
              "value": 20
            },
            {
              "name": "parent_group",
              "type": "string",
              "value": "g561"
            },
            {
              "name": "piece_id",
              "type": "string",
              "value": "g548"
            },
            {
              "name": "damaged_sprite",
              "type": "string",
              "value": "xcybstr4_13.png"
            },
            {
              "name": "damage_state",
              "type": "string",
              "value": "intact"
            }
          ]
        },
        {
          "id": 1128,
          "gid": 36,
          "x": 876.06,
          "y": 104.63,
          "width": 16.0,
          "height": 16.0,
          "visible": true,
          "name": "g550",
          "type": "furniture_piece",
          "properties": [
            {
              "name": "destructible",
              "type": "bool",
              "value": true
            },
            {
              "name": "hp",
              "type": "int",
              "value": 20
            },
            {
              "name": "parent_group",
              "type": "string",
              "value": "g561"
            },
            {
              "name": "piece_id",
              "type": "string",
              "value": "g550"
            },
            {
              "name": "damaged_sprite",
              "type": "string",
              "value": "xcybstr4_13.png"
            },
            {
              "name": "damage_state",
              "type": "string",
              "value": "intact"
            }
          ]
        },
        {
          "id": 1129,
          "gid": 36,
          "x": 876.06,
          "y": 120.63,
          "width": 16.0,
          "height": 16.0,
          "visible": true,
          "name": "g552",
          "type": "furniture_piece",
          "properties": [
            {
              "name": "destructible",
              "type": "bool",
              "value": true
            },
            {
              "name": "hp",
              "type": "int",
              "value": 20
            },
            {
              "name": "parent_group",
              "type": "string",
              "value": "g561"
            },
            {
              "name": "piece_id",
              "type": "string",
              "value": "g552"
            },
            {
              "name": "damaged_sprite",
              "type": "string",
              "value": "xcybstr4_13.png"
            },
            {
              "name": "damage_state",
              "type": "string",
              "value": "intact"
            }
          ]
        },
        {
          "id": 1130,
          "gid": 26,
          "x": 1010.0,
          "y": 120.63,
          "width": 24.0,
          "height": 63.0,
          "visible": true,
          "name": "g407",
          "type": "furniture_piece",
          "properties": [
            {
              "name": "destructible",
              "type": "bool",
              "value": true
            },
            {
              "name": "hp",
              "type": "int",
              "value": 20
            },
            {
              "name": "parent_group",
              "type": "string",
              "value": "g500"
            },
            {
              "name": "piece_id",
              "type": "string",
              "value": "g407"
            },
            {
              "name": "damaged_sprite",
              "type": "string",
              "value": "xcybstr4_03.png"
            },
            {
              "name": "damage_state",
              "type": "string",
              "value": "intact"
            }
          ]
        },
        {
          "id": 1131,
          "gid": 26,
          "x": 1034.0,
          "y": 120.63,
          "width": 24.0,
          "height": 63.0,
          "visible": true,
          "name": "g408",
          "type": "furniture_piece",
          "properties": [
            {
              "name": "destructible",
              "type": "bool",
              "value": true
            },
            {
              "name": "hp",
              "type": "int",
              "value": 20
            },
            {
              "name": "parent_group",
              "type": "string",
              "value": "g500"
            },
            {
              "name": "piece_id",
              "type": "string",
              "value": "g408"
            },
            {
              "name": "damaged_sprite",
              "type": "string",
              "value": "xcybstr4_03.png"
            },
            {
              "name": "damage_state",
              "type": "string",
              "value": "intact"
            }
          ]
        },
        {
          "id": 1132,
          "gid": 26,
          "x": 1058.0,
          "y": 120.63,
          "width": 24.0,
          "height": 63.0,
          "visible": true,
          "name": "g409",
          "type": "furniture_piece",
          "properties": [
            {
              "name": "destructible",
              "type": "bool",
              "value": true
            },
            {
              "name": "hp",
              "type": "int",
              "value": 20
            },
            {
              "name": "parent_group",
              "type": "string",
              "value": "g500"
            },
            {
              "name": "piece_id",
              "type": "string",
              "value": "g409"
            },
            {
              "name": "damaged_sprite",
              "type": "string",
              "value": "xcybstr4_03.png"
            },
            {
              "name": "damage_state",
              "type": "string",
              "value": "intact"
            }
          ]
        },
        {
          "id": 1133,
          "gid": 26,
          "x": 1082.0,
          "y": 120.63,
          "width": 24.0,
          "height": 63.0,
          "visible": true,
          "name": "g410",
          "type": "furniture_piece",
          "properties": [
            {
              "name": "destructible",
              "type": "bool",
              "value": true
            },
            {
              "name": "hp",
              "type": "int",
              "value": 20
            },
            {
              "name": "parent_group",
              "type": "string",
              "value": "g500"
            },
            {
              "name": "piece_id",
              "type": "string",
              "value": "g410"
            },
            {
              "name": "damaged_sprite",
              "type": "string",
              "value": "xcybstr4_03.png"
            },
            {
              "name": "damage_state",
              "type": "string",
              "value": "intact"
            }
          ]
        },
        {
          "id": 1134,
          "gid": 8,
          "x": 1140.95,
          "y": 56.0,
          "width": 24.0,
          "height": 24.0,
          "visible": true,
          "name": "g185",
          "type": "furniture_piece",
          "properties": [
            {
              "name": "destructible",
              "type": "bool",
              "value": true
            },
            {
              "name": "hp",
              "type": "int",
              "value": 20
            },
            {
              "name": "parent_group",
              "type": "string",
              "value": "g605"
            },
            {
              "name": "piece_id",
              "type": "string",
              "value": "g185"
            },
            {
              "name": "damaged_sprite",
              "type": "string",
              "value": "xcybstr3_08.png"
            },
            {
              "name": "damage_state",
              "type": "string",
              "value": "intact"
            }
          ]
        },
        {
          "id": 1135,
          "gid": 9,
          "x": 1140.95,
          "y": 80.0,
          "width": 24.0,
          "height": 24.0,
          "visible": true,
          "name": "g189",
          "type": "furniture_piece",
          "properties": [
            {
              "name": "destructible",
              "type": "bool",
              "value": true
            },
            {
              "name": "hp",
              "type": "int",
              "value": 20
            },
            {
              "name": "parent_group",
              "type": "string",
              "value": "g605"
            },
            {
              "name": "piece_id",
              "type": "string",
              "value": "g189"
            },
            {
              "name": "damaged_sprite",
              "type": "string",
              "value": "xcybstr3_09.png"
            },
            {
              "name": "damage_state",
              "type": "string",
              "value": "intact"
            }
          ]
        },
        {
          "id": 1136,
          "gid": 10,
          "x": 1140.95,
          "y": 120.0,
          "width": 24.0,
          "height": 40.0,
          "visible": true,
          "name": "g191",
          "type": "furniture_piece",
          "properties": [
            {
              "name": "destructible",
              "type": "bool",
              "value": true
            },
            {
              "name": "hp",
              "type": "int",
              "value": 20
            },
            {
              "name": "parent_group",
              "type": "string",
              "value": "g605"
            },
            {
              "name": "piece_id",
              "type": "string",
              "value": "g191"
            },
            {
              "name": "damaged_sprite",
              "type": "string",
              "value": "xcybstr3_10.png"
            },
            {
              "name": "damage_state",
              "type": "string",
              "value": "intact"
            }
          ]
        },
        {
          "id": 1137,
          "gid": 14,
          "x": 1164.95,
          "y": 80.0,
          "width": 16.0,
          "height": 32.0,
          "visible": true,
          "name": "g193",
          "type": "furniture_piece",
          "properties": [
            {
              "name": "destructible",
              "type": "bool",
              "value": true
            },
            {
              "name": "hp",
              "type": "int",
              "value": 20
            },
            {
              "name": "parent_group",
              "type": "string",
              "value": "g605"
            },
            {
              "name": "piece_id",
              "type": "string",
              "value": "g193"
            },
            {
              "name": "damaged_sprite",
              "type": "string",
              "value": "xcybstr3_14.png"
            },
            {
              "name": "damage_state",
              "type": "string",
              "value": "intact"
            }
          ]
        },
        {
          "id": 1138,
          "gid": 15,
          "x": 1164.95,
          "y": 120.0,
          "width": 16.0,
          "height": 40.0,
          "visible": true,
          "name": "g195",
          "type": "furniture_piece",
          "properties": [
            {
              "name": "destructible",
              "type": "bool",
              "value": true
            },
            {
              "name": "hp",
              "type": "int",
              "value": 20
            },
            {
              "name": "parent_group",
              "type": "string",
              "value": "g605"
            },
            {
              "name": "piece_id",
              "type": "string",
              "value": "g195"
            },
            {
              "name": "damaged_sprite",
              "type": "string",
              "value": "xcybstr3_15.png"
            },
            {
              "name": "damage_state",
              "type": "string",
              "value": "intact"
            }
          ]
        },
        {
          "id": 1139,
          "gid": 13,
          "x": 1164.95,
          "y": 48.0,
          "width": 16.0,
          "height": 16.0,
          "visible": true,
          "name": "g204",
          "type": "furniture_piece",
          "properties": [
            {
              "name": "destructible",
              "type": "bool",
              "value": true
            },
            {
              "name": "hp",
              "type": "int",
              "value": 20
            },
            {
              "name": "parent_group",
              "type": "string",
              "value": "g605"
            },
            {
              "name": "piece_id",
              "type": "string",
              "value": "g204"
            },
            {
              "name": "damaged_sprite",
              "type": "string",
              "value": "xcybstr3_13.png"
            },
            {
              "name": "damage_state",
              "type": "string",
              "value": "intact"
            }
          ]
        },
        {
          "id": 1140,
          "gid": 8,
          "x": 1180.95,
          "y": 56.0,
          "width": 24.0,
          "height": 24.0,
          "visible": true,
          "name": "g198",
          "type": "furniture_piece",
          "properties": [
            {
              "name": "destructible",
              "type": "bool",
              "value": true
            },
            {
              "name": "hp",
              "type": "int",
              "value": 20
            },
            {
              "name": "parent_group",
              "type": "string",
              "value": "g605"
            },
            {
              "name": "piece_id",
              "type": "string",
              "value": "g198"
            },
            {
              "name": "damaged_sprite",
              "type": "string",
              "value": "xcybstr3_08.png"
            },
            {
              "name": "damage_state",
              "type": "string",
              "value": "intact"
            }
          ]
        },
        {
          "id": 1141,
          "gid": 10,
          "x": 1180.95,
          "y": 120.0,
          "width": 24.0,
          "height": 40.0,
          "visible": true,
          "name": "g202",
          "type": "furniture_piece",
          "properties": [
            {
              "name": "destructible",
              "type": "bool",
              "value": true
            },
            {
              "name": "hp",
              "type": "int",
              "value": 20
            },
            {
              "name": "parent_group",
              "type": "string",
              "value": "g605"
            },
            {
              "name": "piece_id",
              "type": "string",
              "value": "g202"
            },
            {
              "name": "damaged_sprite",
              "type": "string",
              "value": "xcybstr3_10.png"
            },
            {
              "name": "damage_state",
              "type": "string",
              "value": "intact"
            }
          ]
        },
        {
          "id": 1142,
          "gid": 9,
          "x": 1180.95,
          "y": 80.0,
          "width": 24.0,
          "height": 24.0,
          "visible": true,
          "name": "g200",
          "type": "furniture_piece",
          "properties": [
            {
              "name": "destructible",
              "type": "bool",
              "value": true
            },
            {
              "name": "hp",
              "type": "int",
              "value": 20
            },
            {
              "name": "parent_group",
              "type": "string",
              "value": "g605"
            },
            {
              "name": "piece_id",
              "type": "string",
              "value": "g200"
            },
            {
              "name": "damaged_sprite",
              "type": "string",
              "value": "xcybstr3_09.png"
            },
            {
              "name": "damage_state",
              "type": "string",
              "value": "intact"
            }
          ]
        },
        {
          "id": 1143,
          "gid": 24,
          "x": 1204.95,
          "y": 120.0,
          "width": 32.0,
          "height": 56.0,
          "visible": true,
          "name": "g206",
          "type": "furniture_piece",
          "properties": [
            {
              "name": "destructible",
              "type": "bool",
              "value": true
            },
            {
              "name": "hp",
              "type": "int",
              "value": 20
            },
            {
              "name": "parent_group",
              "type": "string",
              "value": "g605"
            },
            {
              "name": "piece_id",
              "type": "string",
              "value": "g206"
            },
            {
              "name": "damaged_sprite",
              "type": "string",
              "value": "xcybstr4_01.png"
            },
            {
              "name": "damage_state",
              "type": "string",
              "value": "intact"
            }
          ]
        },
        {
          "id": 1144,
          "gid": 8,
          "x": 1286.0,
          "y": 56.0,
          "width": 24.0,
          "height": 24.0,
          "visible": true,
          "name": "g482",
          "type": "furniture_piece",
          "properties": [
            {
              "name": "destructible",
              "type": "bool",
              "value": true
            },
            {
              "name": "hp",
              "type": "int",
              "value": 20
            },
            {
              "name": "parent_group",
              "type": "string",
              "value": "g604"
            },
            {
              "name": "piece_id",
              "type": "string",
              "value": "g482"
            },
            {
              "name": "damaged_sprite",
              "type": "string",
              "value": "xcybstr3_08.png"
            },
            {
              "name": "damage_state",
              "type": "string",
              "value": "intact"
            }
          ]
        },
        {
          "id": 1145,
          "gid": 9,
          "x": 1286.0,
          "y": 80.0,
          "width": 24.0,
          "height": 24.0,
          "visible": true,
          "name": "g483",
          "type": "furniture_piece",
          "properties": [
            {
              "name": "destructible",
              "type": "bool",
              "value": true
            },
            {
              "name": "hp",
              "type": "int",
              "value": 20
            },
            {
              "name": "parent_group",
              "type": "string",
              "value": "g604"
            },
            {
              "name": "piece_id",
              "type": "string",
              "value": "g483"
            },
            {
              "name": "damaged_sprite",
              "type": "string",
              "value": "xcybstr3_09.png"
            },
            {
              "name": "damage_state",
              "type": "string",
              "value": "intact"
            }
          ]
        },
        {
          "id": 1146,
          "gid": 10,
          "x": 1286.0,
          "y": 120.0,
          "width": 24.0,
          "height": 40.0,
          "visible": true,
          "name": "g484",
          "type": "furniture_piece",
          "properties": [
            {
              "name": "destructible",
              "type": "bool",
              "value": true
            },
            {
              "name": "hp",
              "type": "int",
              "value": 20
            },
            {
              "name": "parent_group",
              "type": "string",
              "value": "g604"
            },
            {
              "name": "piece_id",
              "type": "string",
              "value": "g484"
            },
            {
              "name": "damaged_sprite",
              "type": "string",
              "value": "xcybstr3_10.png"
            },
            {
              "name": "damage_state",
              "type": "string",
              "value": "intact"
            }
          ]
        },
        {
          "id": 1147,
          "gid": 11,
          "x": 1310.0,
          "y": 80.0,
          "width": 16.0,
          "height": 24.0,
          "visible": true,
          "name": "g494",
          "type": "furniture_piece",
          "properties": [
            {
              "name": "destructible",
              "type": "bool",
              "value": true
            },
            {
              "name": "hp",
              "type": "int",
              "value": 20
            },
            {
              "name": "parent_group",
              "type": "string",
              "value": "g604"
            },
            {
              "name": "piece_id",
              "type": "string",
              "value": "g494"
            },
            {
              "name": "damaged_sprite",
              "type": "string",
              "value": "xcybstr3_11.png"
            },
            {
              "name": "damage_state",
              "type": "string",
              "value": "intact"
            }
          ]
        },
        {
          "id": 1148,
          "gid": 12,
          "x": 1310.0,
          "y": 120.0,
          "width": 16.0,
          "height": 40.0,
          "visible": true,
          "name": "g485",
          "type": "furniture_piece",
          "properties": [
            {
              "name": "destructible",
              "type": "bool",
              "value": true
            },
            {
              "name": "hp",
              "type": "int",
              "value": 20
            },
            {
              "name": "parent_group",
              "type": "string",
              "value": "g604"
            },
            {
              "name": "piece_id",
              "type": "string",
              "value": "g485"
            },
            {
              "name": "damaged_sprite",
              "type": "string",
              "value": "xcybstr3_12.png"
            },
            {
              "name": "damage_state",
              "type": "string",
              "value": "intact"
            }
          ]
        },
        {
          "id": 1149,
          "gid": 11,
          "x": 1310.0,
          "y": 56.0,
          "width": 16.0,
          "height": 24.0,
          "visible": true,
          "name": "g495",
          "type": "furniture_piece",
          "properties": [
            {
              "name": "destructible",
              "type": "bool",
              "value": true
            },
            {
              "name": "hp",
              "type": "int",
              "value": 20
            },
            {
              "name": "parent_group",
              "type": "string",
              "value": "g604"
            },
            {
              "name": "piece_id",
              "type": "string",
              "value": "g495"
            },
            {
              "name": "damaged_sprite",
              "type": "string",
              "value": "xcybstr3_11.png"
            },
            {
              "name": "damage_state",
              "type": "string",
              "value": "intact"
            }
          ]
        },
        {
          "id": 1150,
          "gid": 11,
          "x": 1326.0,
          "y": 80.0,
          "width": 16.0,
          "height": 24.0,
          "visible": true,
          "name": "g493",
          "type": "furniture_piece",
          "properties": [
            {
              "name": "destructible",
              "type": "bool",
              "value": true
            },
            {
              "name": "hp",
              "type": "int",
              "value": 20
            },
            {
              "name": "parent_group",
              "type": "string",
              "value": "g604"
            },
            {
              "name": "piece_id",
              "type": "string",
              "value": "g493"
            },
            {
              "name": "damaged_sprite",
              "type": "string",
              "value": "xcybstr3_11.png"
            },
            {
              "name": "damage_state",
              "type": "string",
              "value": "intact"
            }
          ]
        },
        {
          "id": 1151,
          "gid": 11,
          "x": 1326.0,
          "y": 56.0,
          "width": 16.0,
          "height": 24.0,
          "visible": true,
          "name": "g496",
          "type": "furniture_piece",
          "properties": [
            {
              "name": "destructible",
              "type": "bool",
              "value": true
            },
            {
              "name": "hp",
              "type": "int",
              "value": 20
            },
            {
              "name": "parent_group",
              "type": "string",
              "value": "g604"
            },
            {
              "name": "piece_id",
              "type": "string",
              "value": "g496"
            },
            {
              "name": "damaged_sprite",
              "type": "string",
              "value": "xcybstr3_11.png"
            },
            {
              "name": "damage_state",
              "type": "string",
              "value": "intact"
            }
          ]
        },
        {
          "id": 1152,
          "gid": 12,
          "x": 1326.0,
          "y": 120.0,
          "width": 16.0,
          "height": 40.0,
          "visible": true,
          "name": "g486",
          "type": "furniture_piece",
          "properties": [
            {
              "name": "destructible",
              "type": "bool",
              "value": true
            },
            {
              "name": "hp",
              "type": "int",
              "value": 20
            },
            {
              "name": "parent_group",
              "type": "string",
              "value": "g604"
            },
            {
              "name": "piece_id",
              "type": "string",
              "value": "g486"
            },
            {
              "name": "damaged_sprite",
              "type": "string",
              "value": "xcybstr3_12.png"
            },
            {
              "name": "damage_state",
              "type": "string",
              "value": "intact"
            }
          ]
        },
        {
          "id": 1153,
          "gid": 10,
          "x": 1342.0,
          "y": 120.0,
          "width": 24.0,
          "height": 40.0,
          "visible": true,
          "name": "g487",
          "type": "furniture_piece",
          "properties": [
            {
              "name": "destructible",
              "type": "bool",
              "value": true
            },
            {
              "name": "hp",
              "type": "int",
              "value": 20
            },
            {
              "name": "parent_group",
              "type": "string",
              "value": "g604"
            },
            {
              "name": "piece_id",
              "type": "string",
              "value": "g487"
            },
            {
              "name": "damaged_sprite",
              "type": "string",
              "value": "xcybstr3_10.png"
            },
            {
              "name": "damage_state",
              "type": "string",
              "value": "intact"
            }
          ]
        },
        {
          "id": 1154,
          "gid": 8,
          "x": 1342.0,
          "y": 80.0,
          "width": 24.0,
          "height": 24.0,
          "visible": true,
          "name": "g492",
          "type": "furniture_piece",
          "properties": [
            {
              "name": "destructible",
              "type": "bool",
              "value": true
            },
            {
              "name": "hp",
              "type": "int",
              "value": 20
            },
            {
              "name": "parent_group",
              "type": "string",
              "value": "g604"
            },
            {
              "name": "piece_id",
              "type": "string",
              "value": "g492"
            },
            {
              "name": "damaged_sprite",
              "type": "string",
              "value": "xcybstr3_08.png"
            },
            {
              "name": "damage_state",
              "type": "string",
              "value": "intact"
            }
          ]
        },
        {
          "id": 1155,
          "gid": 8,
          "x": 1342.0,
          "y": 56.0,
          "width": 24.0,
          "height": 24.0,
          "visible": true,
          "name": "g497",
          "type": "furniture_piece",
          "properties": [
            {
              "name": "destructible",
              "type": "bool",
              "value": true
            },
            {
              "name": "hp",
              "type": "int",
              "value": 20
            },
            {
              "name": "parent_group",
              "type": "string",
              "value": "g604"
            },
            {
              "name": "piece_id",
              "type": "string",
              "value": "g497"
            },
            {
              "name": "damaged_sprite",
              "type": "string",
              "value": "xcybstr3_08.png"
            },
            {
              "name": "damage_state",
              "type": "string",
              "value": "intact"
            }
          ]
        },
        {
          "id": 1156,
          "gid": 13,
          "x": 1366.0,
          "y": 48.0,
          "width": 16.0,
          "height": 16.0,
          "visible": true,
          "name": "g498",
          "type": "furniture_piece",
          "properties": [
            {
              "name": "destructible",
              "type": "bool",
              "value": true
            },
            {
              "name": "hp",
              "type": "int",
              "value": 20
            },
            {
              "name": "parent_group",
              "type": "string",
              "value": "g604"
            },
            {
              "name": "piece_id",
              "type": "string",
              "value": "g498"
            },
            {
              "name": "damaged_sprite",
              "type": "string",
              "value": "xcybstr3_13.png"
            },
            {
              "name": "damage_state",
              "type": "string",
              "value": "intact"
            }
          ]
        },
        {
          "id": 1157,
          "gid": 14,
          "x": 1366.0,
          "y": 80.0,
          "width": 16.0,
          "height": 32.0,
          "visible": true,
          "name": "g491",
          "type": "furniture_piece",
          "properties": [
            {
              "name": "destructible",
              "type": "bool",
              "value": true
            },
            {
              "name": "hp",
              "type": "int",
              "value": 20
            },
            {
              "name": "parent_group",
              "type": "string",
              "value": "g604"
            },
            {
              "name": "piece_id",
              "type": "string",
              "value": "g491"
            },
            {
              "name": "damaged_sprite",
              "type": "string",
              "value": "xcybstr3_14.png"
            },
            {
              "name": "damage_state",
              "type": "string",
              "value": "intact"
            }
          ]
        },
        {
          "id": 1158,
          "gid": 15,
          "x": 1366.0,
          "y": 120.0,
          "width": 16.0,
          "height": 40.0,
          "visible": true,
          "name": "g488",
          "type": "furniture_piece",
          "properties": [
            {
              "name": "destructible",
              "type": "bool",
              "value": true
            },
            {
              "name": "hp",
              "type": "int",
              "value": 20
            },
            {
              "name": "parent_group",
              "type": "string",
              "value": "g604"
            },
            {
              "name": "piece_id",
              "type": "string",
              "value": "g488"
            },
            {
              "name": "damaged_sprite",
              "type": "string",
              "value": "xcybstr3_15.png"
            },
            {
              "name": "damage_state",
              "type": "string",
              "value": "intact"
            }
          ]
        },
        {
          "id": 1159,
          "gid": 8,
          "x": 1382.0,
          "y": 56.0,
          "width": 24.0,
          "height": 24.0,
          "visible": true,
          "name": "g499",
          "type": "furniture_piece",
          "properties": [
            {
              "name": "destructible",
              "type": "bool",
              "value": true
            },
            {
              "name": "hp",
              "type": "int",
              "value": 20
            },
            {
              "name": "parent_group",
              "type": "string",
              "value": "g604"
            },
            {
              "name": "piece_id",
              "type": "string",
              "value": "g499"
            },
            {
              "name": "damaged_sprite",
              "type": "string",
              "value": "xcybstr3_08.png"
            },
            {
              "name": "damage_state",
              "type": "string",
              "value": "intact"
            }
          ]
        },
        {
          "id": 1160,
          "gid": 9,
          "x": 1382.0,
          "y": 80.0,
          "width": 24.0,
          "height": 24.0,
          "visible": true,
          "name": "g490",
          "type": "furniture_piece",
          "properties": [
            {
              "name": "destructible",
              "type": "bool",
              "value": true
            },
            {
              "name": "hp",
              "type": "int",
              "value": 20
            },
            {
              "name": "parent_group",
              "type": "string",
              "value": "g604"
            },
            {
              "name": "piece_id",
              "type": "string",
              "value": "g490"
            },
            {
              "name": "damaged_sprite",
              "type": "string",
              "value": "xcybstr3_09.png"
            },
            {
              "name": "damage_state",
              "type": "string",
              "value": "intact"
            }
          ]
        },
        {
          "id": 1161,
          "gid": 10,
          "x": 1382.0,
          "y": 120.0,
          "width": 24.0,
          "height": 40.0,
          "visible": true,
          "name": "g489",
          "type": "furniture_piece",
          "properties": [
            {
              "name": "destructible",
              "type": "bool",
              "value": true
            },
            {
              "name": "hp",
              "type": "int",
              "value": 20
            },
            {
              "name": "parent_group",
              "type": "string",
              "value": "g604"
            },
            {
              "name": "piece_id",
              "type": "string",
              "value": "g489"
            },
            {
              "name": "damaged_sprite",
              "type": "string",
              "value": "xcybstr3_10.png"
            },
            {
              "name": "damage_state",
              "type": "string",
              "value": "intact"
            }
          ]
        },
        {
          "id": 1162,
          "gid": 26,
          "x": 1604.93,
          "y": 120.63,
          "width": 24.0,
          "height": 63.0,
          "visible": true,
          "name": "g501",
          "type": "furniture_piece",
          "properties": [
            {
              "name": "destructible",
              "type": "bool",
              "value": true
            },
            {
              "name": "hp",
              "type": "int",
              "value": 20
            },
            {
              "name": "parent_group",
              "type": "string",
              "value": "g508"
            },
            {
              "name": "piece_id",
              "type": "string",
              "value": "g501"
            },
            {
              "name": "damaged_sprite",
              "type": "string",
              "value": "xcybstr4_03.png"
            },
            {
              "name": "damage_state",
              "type": "string",
              "value": "intact"
            }
          ]
        },
        {
          "id": 1163,
          "gid": 26,
          "x": 1628.93,
          "y": 120.63,
          "width": 24.0,
          "height": 63.0,
          "visible": true,
          "name": "g503",
          "type": "furniture_piece",
          "properties": [
            {
              "name": "destructible",
              "type": "bool",
              "value": true
            },
            {
              "name": "hp",
              "type": "int",
              "value": 20
            },
            {
              "name": "parent_group",
              "type": "string",
              "value": "g508"
            },
            {
              "name": "piece_id",
              "type": "string",
              "value": "g503"
            },
            {
              "name": "damaged_sprite",
              "type": "string",
              "value": "xcybstr4_03.png"
            },
            {
              "name": "damage_state",
              "type": "string",
              "value": "intact"
            }
          ]
        },
        {
          "id": 1164,
          "gid": 26,
          "x": 1652.92,
          "y": 120.63,
          "width": 24.0,
          "height": 63.0,
          "visible": true,
          "name": "g505",
          "type": "furniture_piece",
          "properties": [
            {
              "name": "destructible",
              "type": "bool",
              "value": true
            },
            {
              "name": "hp",
              "type": "int",
              "value": 20
            },
            {
              "name": "parent_group",
              "type": "string",
              "value": "g508"
            },
            {
              "name": "piece_id",
              "type": "string",
              "value": "g505"
            },
            {
              "name": "damaged_sprite",
              "type": "string",
              "value": "xcybstr4_03.png"
            },
            {
              "name": "damage_state",
              "type": "string",
              "value": "intact"
            }
          ]
        },
        {
          "id": 1165,
          "gid": 26,
          "x": 1676.92,
          "y": 120.63,
          "width": 24.0,
          "height": 63.0,
          "visible": true,
          "name": "g507",
          "type": "furniture_piece",
          "properties": [
            {
              "name": "destructible",
              "type": "bool",
              "value": true
            },
            {
              "name": "hp",
              "type": "int",
              "value": 20
            },
            {
              "name": "parent_group",
              "type": "string",
              "value": "g508"
            },
            {
              "name": "piece_id",
              "type": "string",
              "value": "g507"
            },
            {
              "name": "damaged_sprite",
              "type": "string",
              "value": "xcybstr4_03.png"
            },
            {
              "name": "damage_state",
              "type": "string",
              "value": "intact"
            }
          ]
        },
        {
          "id": 1166,
          "gid": 8,
          "x": 1864.0,
          "y": 56.0,
          "width": 24.0,
          "height": 24.0,
          "visible": true,
          "name": "g612",
          "type": "furniture_piece",
          "properties": [
            {
              "name": "destructible",
              "type": "bool",
              "value": true
            },
            {
              "name": "hp",
              "type": "int",
              "value": 20
            },
            {
              "name": "parent_group",
              "type": "string",
              "value": "g641"
            },
            {
              "name": "piece_id",
              "type": "string",
              "value": "g612"
            },
            {
              "name": "damaged_sprite",
              "type": "string",
              "value": "xcybstr3_08.png"
            },
            {
              "name": "damage_state",
              "type": "string",
              "value": "intact"
            }
          ]
        },
        {
          "id": 1167,
          "gid": 9,
          "x": 1864.0,
          "y": 80.0,
          "width": 24.0,
          "height": 24.0,
          "visible": true,
          "name": "g614",
          "type": "furniture_piece",
          "properties": [
            {
              "name": "destructible",
              "type": "bool",
              "value": true
            },
            {
              "name": "hp",
              "type": "int",
              "value": 20
            },
            {
              "name": "parent_group",
              "type": "string",
              "value": "g641"
            },
            {
              "name": "piece_id",
              "type": "string",
              "value": "g614"
            },
            {
              "name": "damaged_sprite",
              "type": "string",
              "value": "xcybstr3_09.png"
            },
            {
              "name": "damage_state",
              "type": "string",
              "value": "intact"
            }
          ]
        },
        {
          "id": 1168,
          "gid": 10,
          "x": 1864.0,
          "y": 120.0,
          "width": 24.0,
          "height": 40.0,
          "visible": true,
          "name": "g616",
          "type": "furniture_piece",
          "properties": [
            {
              "name": "destructible",
              "type": "bool",
              "value": true
            },
            {
              "name": "hp",
              "type": "int",
              "value": 20
            },
            {
              "name": "parent_group",
              "type": "string",
              "value": "g641"
            },
            {
              "name": "piece_id",
              "type": "string",
              "value": "g616"
            },
            {
              "name": "damaged_sprite",
              "type": "string",
              "value": "xcybstr3_10.png"
            },
            {
              "name": "damage_state",
              "type": "string",
              "value": "intact"
            }
          ]
        },
        {
          "id": 1169,
          "gid": 11,
          "x": 1888.0,
          "y": 80.0,
          "width": 16.0,
          "height": 24.0,
          "visible": true,
          "name": "g606",
          "type": "furniture_piece",
          "properties": [
            {
              "name": "destructible",
              "type": "bool",
              "value": true
            },
            {
              "name": "hp",
              "type": "int",
              "value": 20
            },
            {
              "name": "parent_group",
              "type": "string",
              "value": "g641"
            },
            {
              "name": "piece_id",
              "type": "string",
              "value": "g606"
            },
            {
              "name": "damaged_sprite",
              "type": "string",
              "value": "xcybstr3_11.png"
            },
            {
              "name": "damage_state",
              "type": "string",
              "value": "intact"
            }
          ]
        },
        {
          "id": 1170,
          "gid": 12,
          "x": 1888.0,
          "y": 120.0,
          "width": 16.0,
          "height": 40.0,
          "visible": true,
          "name": "g608",
          "type": "furniture_piece",
          "properties": [
            {
              "name": "destructible",
              "type": "bool",
              "value": true
            },
            {
              "name": "hp",
              "type": "int",
              "value": 20
            },
            {
              "name": "parent_group",
              "type": "string",
              "value": "g641"
            },
            {
              "name": "piece_id",
              "type": "string",
              "value": "g608"
            },
            {
              "name": "damaged_sprite",
              "type": "string",
              "value": "xcybstr3_12.png"
            },
            {
              "name": "damage_state",
              "type": "string",
              "value": "intact"
            }
          ]
        },
        {
          "id": 1171,
          "gid": 11,
          "x": 1888.0,
          "y": 56.0,
          "width": 16.0,
          "height": 24.0,
          "visible": true,
          "name": "g626",
          "type": "furniture_piece",
          "properties": [
            {
              "name": "destructible",
              "type": "bool",
              "value": true
            },
            {
              "name": "hp",
              "type": "int",
              "value": 20
            },
            {
              "name": "parent_group",
              "type": "string",
              "value": "g641"
            },
            {
              "name": "piece_id",
              "type": "string",
              "value": "g626"
            },
            {
              "name": "damaged_sprite",
              "type": "string",
              "value": "xcybstr3_11.png"
            },
            {
              "name": "damage_state",
              "type": "string",
              "value": "intact"
            }
          ]
        },
        {
          "id": 1172,
          "gid": 11,
          "x": 1904.0,
          "y": 80.0,
          "width": 16.0,
          "height": 24.0,
          "visible": true,
          "name": "g624",
          "type": "furniture_piece",
          "properties": [
            {
              "name": "destructible",
              "type": "bool",
              "value": true
            },
            {
              "name": "hp",
              "type": "int",
              "value": 20
            },
            {
              "name": "parent_group",
              "type": "string",
              "value": "g641"
            },
            {
              "name": "piece_id",
              "type": "string",
              "value": "g624"
            },
            {
              "name": "damaged_sprite",
              "type": "string",
              "value": "xcybstr3_11.png"
            },
            {
              "name": "damage_state",
              "type": "string",
              "value": "intact"
            }
          ]
        },
        {
          "id": 1173,
          "gid": 11,
          "x": 1904.0,
          "y": 56.0,
          "width": 16.0,
          "height": 24.0,
          "visible": true,
          "name": "g628",
          "type": "furniture_piece",
          "properties": [
            {
              "name": "destructible",
              "type": "bool",
              "value": true
            },
            {
              "name": "hp",
              "type": "int",
              "value": 20
            },
            {
              "name": "parent_group",
              "type": "string",
              "value": "g641"
            },
            {
              "name": "piece_id",
              "type": "string",
              "value": "g628"
            },
            {
              "name": "damaged_sprite",
              "type": "string",
              "value": "xcybstr3_11.png"
            },
            {
              "name": "damage_state",
              "type": "string",
              "value": "intact"
            }
          ]
        },
        {
          "id": 1174,
          "gid": 12,
          "x": 1904.0,
          "y": 120.0,
          "width": 16.0,
          "height": 40.0,
          "visible": true,
          "name": "g630",
          "type": "furniture_piece",
          "properties": [
            {
              "name": "destructible",
              "type": "bool",
              "value": true
            },
            {
              "name": "hp",
              "type": "int",
              "value": 20
            },
            {
              "name": "parent_group",
              "type": "string",
              "value": "g641"
            },
            {
              "name": "piece_id",
              "type": "string",
              "value": "g630"
            },
            {
              "name": "damaged_sprite",
              "type": "string",
              "value": "xcybstr3_12.png"
            },
            {
              "name": "damage_state",
              "type": "string",
              "value": "intact"
            }
          ]
        },
        {
          "id": 1175,
          "gid": 10,
          "x": 1920.0,
          "y": 120.0,
          "width": 24.0,
          "height": 40.0,
          "visible": true,
          "name": "g618",
          "type": "furniture_piece",
          "properties": [
            {
              "name": "destructible",
              "type": "bool",
              "value": true
            },
            {
              "name": "hp",
              "type": "int",
              "value": 20
            },
            {
              "name": "parent_group",
              "type": "string",
              "value": "g641"
            },
            {
              "name": "piece_id",
              "type": "string",
              "value": "g618"
            },
            {
              "name": "damaged_sprite",
              "type": "string",
              "value": "xcybstr3_10.png"
            },
            {
              "name": "damage_state",
              "type": "string",
              "value": "intact"
            }
          ]
        },
        {
          "id": 1176,
          "gid": 8,
          "x": 1920.0,
          "y": 80.0,
          "width": 24.0,
          "height": 24.0,
          "visible": true,
          "name": "g620",
          "type": "furniture_piece",
          "properties": [
            {
              "name": "destructible",
              "type": "bool",
              "value": true
            },
            {
              "name": "hp",
              "type": "int",
              "value": 20
            },
            {
              "name": "parent_group",
              "type": "string",
              "value": "g641"
            },
            {
              "name": "piece_id",
              "type": "string",
              "value": "g620"
            },
            {
              "name": "damaged_sprite",
              "type": "string",
              "value": "xcybstr3_08.png"
            },
            {
              "name": "damage_state",
              "type": "string",
              "value": "intact"
            }
          ]
        },
        {
          "id": 1177,
          "gid": 8,
          "x": 1920.0,
          "y": 56.0,
          "width": 24.0,
          "height": 24.0,
          "visible": true,
          "name": "g622",
          "type": "furniture_piece",
          "properties": [
            {
              "name": "destructible",
              "type": "bool",
              "value": true
            },
            {
              "name": "hp",
              "type": "int",
              "value": 20
            },
            {
              "name": "parent_group",
              "type": "string",
              "value": "g641"
            },
            {
              "name": "piece_id",
              "type": "string",
              "value": "g622"
            },
            {
              "name": "damaged_sprite",
              "type": "string",
              "value": "xcybstr3_08.png"
            },
            {
              "name": "damage_state",
              "type": "string",
              "value": "intact"
            }
          ]
        },
        {
          "id": 1178,
          "gid": 13,
          "x": 1944.0,
          "y": 48.0,
          "width": 16.0,
          "height": 16.0,
          "visible": true,
          "name": "g610",
          "type": "furniture_piece",
          "properties": [
            {
              "name": "destructible",
              "type": "bool",
              "value": true
            },
            {
              "name": "hp",
              "type": "int",
              "value": 20
            },
            {
              "name": "parent_group",
              "type": "string",
              "value": "g641"
            },
            {
              "name": "piece_id",
              "type": "string",
              "value": "g610"
            },
            {
              "name": "damaged_sprite",
              "type": "string",
              "value": "xcybstr3_13.png"
            },
            {
              "name": "damage_state",
              "type": "string",
              "value": "intact"
            }
          ]
        },
        {
          "id": 1179,
          "gid": 14,
          "x": 1944.0,
          "y": 80.0,
          "width": 16.0,
          "height": 32.0,
          "visible": true,
          "name": "g632",
          "type": "furniture_piece",
          "properties": [
            {
              "name": "destructible",
              "type": "bool",
              "value": true
            },
            {
              "name": "hp",
              "type": "int",
              "value": 20
            },
            {
              "name": "parent_group",
              "type": "string",
              "value": "g641"
            },
            {
              "name": "piece_id",
              "type": "string",
              "value": "g632"
            },
            {
              "name": "damaged_sprite",
              "type": "string",
              "value": "xcybstr3_14.png"
            },
            {
              "name": "damage_state",
              "type": "string",
              "value": "intact"
            }
          ]
        },
        {
          "id": 1180,
          "gid": 15,
          "x": 1944.0,
          "y": 120.0,
          "width": 16.0,
          "height": 40.0,
          "visible": true,
          "name": "g634",
          "type": "furniture_piece",
          "properties": [
            {
              "name": "destructible",
              "type": "bool",
              "value": true
            },
            {
              "name": "hp",
              "type": "int",
              "value": 20
            },
            {
              "name": "parent_group",
              "type": "string",
              "value": "g641"
            },
            {
              "name": "piece_id",
              "type": "string",
              "value": "g634"
            },
            {
              "name": "damaged_sprite",
              "type": "string",
              "value": "xcybstr3_15.png"
            },
            {
              "name": "damage_state",
              "type": "string",
              "value": "intact"
            }
          ]
        },
        {
          "id": 1181,
          "gid": 8,
          "x": 1960.0,
          "y": 56.0,
          "width": 24.0,
          "height": 24.0,
          "visible": true,
          "name": "g636",
          "type": "furniture_piece",
          "properties": [
            {
              "name": "destructible",
              "type": "bool",
              "value": true
            },
            {
              "name": "hp",
              "type": "int",
              "value": 20
            },
            {
              "name": "parent_group",
              "type": "string",
              "value": "g641"
            },
            {
              "name": "piece_id",
              "type": "string",
              "value": "g636"
            },
            {
              "name": "damaged_sprite",
              "type": "string",
              "value": "xcybstr3_08.png"
            },
            {
              "name": "damage_state",
              "type": "string",
              "value": "intact"
            }
          ]
        },
        {
          "id": 1182,
          "gid": 9,
          "x": 1960.0,
          "y": 80.0,
          "width": 24.0,
          "height": 24.0,
          "visible": true,
          "name": "g638",
          "type": "furniture_piece",
          "properties": [
            {
              "name": "destructible",
              "type": "bool",
              "value": true
            },
            {
              "name": "hp",
              "type": "int",
              "value": 20
            },
            {
              "name": "parent_group",
              "type": "string",
              "value": "g641"
            },
            {
              "name": "piece_id",
              "type": "string",
              "value": "g638"
            },
            {
              "name": "damaged_sprite",
              "type": "string",
              "value": "xcybstr3_09.png"
            },
            {
              "name": "damage_state",
              "type": "string",
              "value": "intact"
            }
          ]
        },
        {
          "id": 1183,
          "gid": 10,
          "x": 1960.0,
          "y": 120.0,
          "width": 24.0,
          "height": 40.0,
          "visible": true,
          "name": "g640",
          "type": "furniture_piece",
          "properties": [
            {
              "name": "destructible",
              "type": "bool",
              "value": true
            },
            {
              "name": "hp",
              "type": "int",
              "value": 20
            },
            {
              "name": "parent_group",
              "type": "string",
              "value": "g641"
            },
            {
              "name": "piece_id",
              "type": "string",
              "value": "g640"
            },
            {
              "name": "damaged_sprite",
              "type": "string",
              "value": "xcybstr3_10.png"
            },
            {
              "name": "damage_state",
              "type": "string",
              "value": "intact"
            }
          ]
        },
        {
          "id": 1184,
          "gid": 26,
          "x": 2174.0,
          "y": 120.63,
          "width": 24.0,
          "height": 63.0,
          "visible": true,
          "name": "g509",
          "type": "furniture_piece",
          "properties": [
            {
              "name": "destructible",
              "type": "bool",
              "value": true
            },
            {
              "name": "hp",
              "type": "int",
              "value": 20
            },
            {
              "name": "parent_group",
              "type": "string",
              "value": "g516"
            },
            {
              "name": "piece_id",
              "type": "string",
              "value": "g509"
            },
            {
              "name": "damaged_sprite",
              "type": "string",
              "value": "xcybstr4_03.png"
            },
            {
              "name": "damage_state",
              "type": "string",
              "value": "intact"
            }
          ]
        },
        {
          "id": 1185,
          "gid": 26,
          "x": 2198.0,
          "y": 120.63,
          "width": 24.0,
          "height": 63.0,
          "visible": true,
          "name": "g511",
          "type": "furniture_piece",
          "properties": [
            {
              "name": "destructible",
              "type": "bool",
              "value": true
            },
            {
              "name": "hp",
              "type": "int",
              "value": 20
            },
            {
              "name": "parent_group",
              "type": "string",
              "value": "g516"
            },
            {
              "name": "piece_id",
              "type": "string",
              "value": "g511"
            },
            {
              "name": "damaged_sprite",
              "type": "string",
              "value": "xcybstr4_03.png"
            },
            {
              "name": "damage_state",
              "type": "string",
              "value": "intact"
            }
          ]
        },
        {
          "id": 1186,
          "gid": 26,
          "x": 2222.0,
          "y": 120.63,
          "width": 24.0,
          "height": 63.0,
          "visible": true,
          "name": "g513",
          "type": "furniture_piece",
          "properties": [
            {
              "name": "destructible",
              "type": "bool",
              "value": true
            },
            {
              "name": "hp",
              "type": "int",
              "value": 20
            },
            {
              "name": "parent_group",
              "type": "string",
              "value": "g516"
            },
            {
              "name": "piece_id",
              "type": "string",
              "value": "g513"
            },
            {
              "name": "damaged_sprite",
              "type": "string",
              "value": "xcybstr4_03.png"
            },
            {
              "name": "damage_state",
              "type": "string",
              "value": "intact"
            }
          ]
        },
        {
          "id": 1187,
          "gid": 26,
          "x": 2246.0,
          "y": 120.63,
          "width": 24.0,
          "height": 63.0,
          "visible": true,
          "name": "g515",
          "type": "furniture_piece",
          "properties": [
            {
              "name": "destructible",
              "type": "bool",
              "value": true
            },
            {
              "name": "hp",
              "type": "int",
              "value": 20
            },
            {
              "name": "parent_group",
              "type": "string",
              "value": "g516"
            },
            {
              "name": "piece_id",
              "type": "string",
              "value": "g515"
            },
            {
              "name": "damaged_sprite",
              "type": "string",
              "value": "xcybstr4_03.png"
            },
            {
              "name": "damage_state",
              "type": "string",
              "value": "intact"
            }
          ]
        },
        {
          "id": 1188,
          "gid": 29,
          "x": 2269.94,
          "y": 93.63,
          "width": 56.0,
          "height": 16.0,
          "visible": true,
          "name": "g570",
          "type": "furniture_piece",
          "properties": [
            {
              "name": "destructible",
              "type": "bool",
              "value": true
            },
            {
              "name": "hp",
              "type": "int",
              "value": 20
            },
            {
              "name": "parent_group",
              "type": "string",
              "value": "g575"
            },
            {
              "name": "piece_id",
              "type": "string",
              "value": "g570"
            },
            {
              "name": "damaged_sprite",
              "type": "string",
              "value": "xcybstr4_09.png"
            },
            {
              "name": "damage_state",
              "type": "string",
              "value": "intact"
            }
          ]
        },
        {
          "id": 1189,
          "gid": 30,
          "x": 2269.94,
          "y": 120.63,
          "width": 28.0,
          "height": 27.0,
          "visible": true,
          "name": "g572",
          "type": "furniture_piece",
          "properties": [
            {
              "name": "destructible",
              "type": "bool",
              "value": true
            },
            {
              "name": "hp",
              "type": "int",
              "value": 20
            },
            {
              "name": "parent_group",
              "type": "string",
              "value": "g575"
            },
            {
              "name": "piece_id",
              "type": "string",
              "value": "g572"
            },
            {
              "name": "damaged_sprite",
              "type": "string",
              "value": "xcybstr4_10.png"
            },
            {
              "name": "damage_state",
              "type": "string",
              "value": "intact"
            }
          ]
        },
        {
          "id": 1190,
          "gid": 28,
          "x": 2287.88,
          "y": 78.64,
          "width": 18.0,
          "height": 17.0,
          "visible": true,
          "name": "g568",
          "type": "furniture_piece",
          "properties": [
            {
              "name": "destructible",
              "type": "bool",
              "value": true
            },
            {
              "name": "hp",
              "type": "int",
              "value": 20
            },
            {
              "name": "parent_group",
              "type": "string",
              "value": "g575"
            },
            {
              "name": "piece_id",
              "type": "string",
              "value": "g568"
            },
            {
              "name": "damaged_sprite",
              "type": "string",
              "value": "xcybstr4_08.png"
            },
            {
              "name": "damage_state",
              "type": "string",
              "value": "intact"
            }
          ]
        },
        {
          "id": 1191,
          "gid": 31,
          "x": 2297.94,
          "y": 120.63,
          "width": 28.0,
          "height": 27.0,
          "visible": true,
          "name": "g574",
          "type": "furniture_piece",
          "properties": [
            {
              "name": "destructible",
              "type": "bool",
              "value": true
            },
            {
              "name": "hp",
              "type": "int",
              "value": 20
            },
            {
              "name": "parent_group",
              "type": "string",
              "value": "g575"
            },
            {
              "name": "piece_id",
              "type": "string",
              "value": "g574"
            },
            {
              "name": "damaged_sprite",
              "type": "string",
              "value": "xcybstr4_11.png"
            },
            {
              "name": "damage_state",
              "type": "string",
              "value": "intact"
            }
          ]
        },
        {
          "id": 1192,
          "gid": 36,
          "x": 2325.94,
          "y": 88.63,
          "width": 16.0,
          "height": 16.0,
          "visible": true,
          "name": "g562",
          "type": "furniture_piece",
          "properties": [
            {
              "name": "destructible",
              "type": "bool",
              "value": true
            },
            {
              "name": "hp",
              "type": "int",
              "value": 20
            },
            {
              "name": "parent_group",
              "type": "string",
              "value": "g575"
            },
            {
              "name": "piece_id",
              "type": "string",
              "value": "g562"
            },
            {
              "name": "damaged_sprite",
              "type": "string",
              "value": "xcybstr4_13.png"
            },
            {
              "name": "damage_state",
              "type": "string",
              "value": "intact"
            }
          ]
        },
        {
          "id": 1193,
          "gid": 36,
          "x": 2325.94,
          "y": 104.63,
          "width": 16.0,
          "height": 16.0,
          "visible": true,
          "name": "g564",
          "type": "furniture_piece",
          "properties": [
            {
              "name": "destructible",
              "type": "bool",
              "value": true
            },
            {
              "name": "hp",
              "type": "int",
              "value": 20
            },
            {
              "name": "parent_group",
              "type": "string",
              "value": "g575"
            },
            {
              "name": "piece_id",
              "type": "string",
              "value": "g564"
            },
            {
              "name": "damaged_sprite",
              "type": "string",
              "value": "xcybstr4_13.png"
            },
            {
              "name": "damage_state",
              "type": "string",
              "value": "intact"
            }
          ]
        },
        {
          "id": 1194,
          "gid": 36,
          "x": 2325.94,
          "y": 120.63,
          "width": 16.0,
          "height": 16.0,
          "visible": true,
          "name": "g566",
          "type": "furniture_piece",
          "properties": [
            {
              "name": "destructible",
              "type": "bool",
              "value": true
            },
            {
              "name": "hp",
              "type": "int",
              "value": 20
            },
            {
              "name": "parent_group",
              "type": "string",
              "value": "g575"
            },
            {
              "name": "piece_id",
              "type": "string",
              "value": "g566"
            },
            {
              "name": "damaged_sprite",
              "type": "string",
              "value": "xcybstr4_13.png"
            },
            {
              "name": "damage_state",
              "type": "string",
              "value": "intact"
            }
          ]
        },
        {
          "id": 1195,
          "gid": 8,
          "x": 2556.0,
          "y": 56.0,
          "width": 24.0,
          "height": 24.0,
          "visible": true,
          "name": "g208",
          "type": "furniture_piece",
          "properties": [
            {
              "name": "destructible",
              "type": "bool",
              "value": true
            },
            {
              "name": "hp",
              "type": "int",
              "value": 20
            },
            {
              "name": "parent_group",
              "type": "string",
              "value": "g374"
            },
            {
              "name": "piece_id",
              "type": "string",
              "value": "g208"
            },
            {
              "name": "damaged_sprite",
              "type": "string",
              "value": "xcybstr3_08.png"
            },
            {
              "name": "damage_state",
              "type": "string",
              "value": "intact"
            }
          ]
        },
        {
          "id": 1196,
          "gid": 9,
          "x": 2556.0,
          "y": 80.0,
          "width": 24.0,
          "height": 24.0,
          "visible": true,
          "name": "g210",
          "type": "furniture_piece",
          "properties": [
            {
              "name": "destructible",
              "type": "bool",
              "value": true
            },
            {
              "name": "hp",
              "type": "int",
              "value": 20
            },
            {
              "name": "parent_group",
              "type": "string",
              "value": "g374"
            },
            {
              "name": "piece_id",
              "type": "string",
              "value": "g210"
            },
            {
              "name": "damaged_sprite",
              "type": "string",
              "value": "xcybstr3_09.png"
            },
            {
              "name": "damage_state",
              "type": "string",
              "value": "intact"
            }
          ]
        },
        {
          "id": 1197,
          "gid": 10,
          "x": 2556.0,
          "y": 120.0,
          "width": 24.0,
          "height": 40.0,
          "visible": true,
          "name": "g212",
          "type": "furniture_piece",
          "properties": [
            {
              "name": "destructible",
              "type": "bool",
              "value": true
            },
            {
              "name": "hp",
              "type": "int",
              "value": 20
            },
            {
              "name": "parent_group",
              "type": "string",
              "value": "g374"
            },
            {
              "name": "piece_id",
              "type": "string",
              "value": "g212"
            },
            {
              "name": "damaged_sprite",
              "type": "string",
              "value": "xcybstr3_10.png"
            },
            {
              "name": "damage_state",
              "type": "string",
              "value": "intact"
            }
          ]
        },
        {
          "id": 1198,
          "gid": 14,
          "x": 2580.0,
          "y": 80.0,
          "width": 16.0,
          "height": 32.0,
          "visible": true,
          "name": "g229",
          "type": "furniture_piece",
          "properties": [
            {
              "name": "destructible",
              "type": "bool",
              "value": true
            },
            {
              "name": "hp",
              "type": "int",
              "value": 20
            },
            {
              "name": "parent_group",
              "type": "string",
              "value": "g374"
            },
            {
              "name": "piece_id",
              "type": "string",
              "value": "g229"
            },
            {
              "name": "damaged_sprite",
              "type": "string",
              "value": "xcybstr3_14.png"
            },
            {
              "name": "damage_state",
              "type": "string",
              "value": "intact"
            }
          ]
        },
        {
          "id": 1199,
          "gid": 15,
          "x": 2580.0,
          "y": 120.0,
          "width": 16.0,
          "height": 40.0,
          "visible": true,
          "name": "g240",
          "type": "furniture_piece",
          "properties": [
            {
              "name": "destructible",
              "type": "bool",
              "value": true
            },
            {
              "name": "hp",
              "type": "int",
              "value": 20
            },
            {
              "name": "parent_group",
              "type": "string",
              "value": "g374"
            },
            {
              "name": "piece_id",
              "type": "string",
              "value": "g240"
            },
            {
              "name": "damaged_sprite",
              "type": "string",
              "value": "xcybstr3_15.png"
            },
            {
              "name": "damage_state",
              "type": "string",
              "value": "intact"
            }
          ]
        },
        {
          "id": 1200,
          "gid": 13,
          "x": 2580.0,
          "y": 48.0,
          "width": 16.0,
          "height": 16.0,
          "visible": true,
          "name": "g371",
          "type": "furniture_piece",
          "properties": [
            {
              "name": "destructible",
              "type": "bool",
              "value": true
            },
            {
              "name": "hp",
              "type": "int",
              "value": 20
            },
            {
              "name": "parent_group",
              "type": "string",
              "value": "g374"
            },
            {
              "name": "piece_id",
              "type": "string",
              "value": "g371"
            },
            {
              "name": "damaged_sprite",
              "type": "string",
              "value": "xcybstr3_13.png"
            },
            {
              "name": "damage_state",
              "type": "string",
              "value": "intact"
            }
          ]
        },
        {
          "id": 1201,
          "gid": 8,
          "x": 2596.0,
          "y": 56.0,
          "width": 24.0,
          "height": 24.0,
          "visible": true,
          "name": "g241",
          "type": "furniture_piece",
          "properties": [
            {
              "name": "destructible",
              "type": "bool",
              "value": true
            },
            {
              "name": "hp",
              "type": "int",
              "value": 20
            },
            {
              "name": "parent_group",
              "type": "string",
              "value": "g374"
            },
            {
              "name": "piece_id",
              "type": "string",
              "value": "g241"
            },
            {
              "name": "damaged_sprite",
              "type": "string",
              "value": "xcybstr3_08.png"
            },
            {
              "name": "damage_state",
              "type": "string",
              "value": "intact"
            }
          ]
        },
        {
          "id": 1202,
          "gid": 10,
          "x": 2596.0,
          "y": 120.0,
          "width": 24.0,
          "height": 40.0,
          "visible": true,
          "name": "g369",
          "type": "furniture_piece",
          "properties": [
            {
              "name": "destructible",
              "type": "bool",
              "value": true
            },
            {
              "name": "hp",
              "type": "int",
              "value": 20
            },
            {
              "name": "parent_group",
              "type": "string",
              "value": "g374"
            },
            {
              "name": "piece_id",
              "type": "string",
              "value": "g369"
            },
            {
              "name": "damaged_sprite",
              "type": "string",
              "value": "xcybstr3_10.png"
            },
            {
              "name": "damage_state",
              "type": "string",
              "value": "intact"
            }
          ]
        },
        {
          "id": 1203,
          "gid": 9,
          "x": 2596.0,
          "y": 80.0,
          "width": 24.0,
          "height": 24.0,
          "visible": true,
          "name": "g243",
          "type": "furniture_piece",
          "properties": [
            {
              "name": "destructible",
              "type": "bool",
              "value": true
            },
            {
              "name": "hp",
              "type": "int",
              "value": 20
            },
            {
              "name": "parent_group",
              "type": "string",
              "value": "g374"
            },
            {
              "name": "piece_id",
              "type": "string",
              "value": "g243"
            },
            {
              "name": "damaged_sprite",
              "type": "string",
              "value": "xcybstr3_09.png"
            },
            {
              "name": "damage_state",
              "type": "string",
              "value": "intact"
            }
          ]
        },
        {
          "id": 1204,
          "gid": 24,
          "x": 2620.0,
          "y": 120.0,
          "width": 32.0,
          "height": 56.0,
          "visible": true,
          "name": "g373",
          "type": "furniture_piece",
          "properties": [
            {
              "name": "destructible",
              "type": "bool",
              "value": true
            },
            {
              "name": "hp",
              "type": "int",
              "value": 20
            },
            {
              "name": "parent_group",
              "type": "string",
              "value": "g374"
            },
            {
              "name": "piece_id",
              "type": "string",
              "value": "g373"
            },
            {
              "name": "damaged_sprite",
              "type": "string",
              "value": "xcybstr4_01.png"
            },
            {
              "name": "damage_state",
              "type": "string",
              "value": "intact"
            }
          ]
        },
        {
          "id": 1205,
          "gid": 8,
          "x": 2721.05,
          "y": 56.0,
          "width": 24.0,
          "height": 24.0,
          "visible": true,
          "name": "g648",
          "type": "furniture_piece",
          "properties": [
            {
              "name": "destructible",
              "type": "bool",
              "value": true
            },
            {
              "name": "hp",
              "type": "int",
              "value": 20
            },
            {
              "name": "parent_group",
              "type": "string",
              "value": "g677"
            },
            {
              "name": "piece_id",
              "type": "string",
              "value": "g648"
            },
            {
              "name": "damaged_sprite",
              "type": "string",
              "value": "xcybstr3_08.png"
            },
            {
              "name": "damage_state",
              "type": "string",
              "value": "intact"
            }
          ]
        },
        {
          "id": 1206,
          "gid": 9,
          "x": 2721.05,
          "y": 80.0,
          "width": 24.0,
          "height": 24.0,
          "visible": true,
          "name": "g650",
          "type": "furniture_piece",
          "properties": [
            {
              "name": "destructible",
              "type": "bool",
              "value": true
            },
            {
              "name": "hp",
              "type": "int",
              "value": 20
            },
            {
              "name": "parent_group",
              "type": "string",
              "value": "g677"
            },
            {
              "name": "piece_id",
              "type": "string",
              "value": "g650"
            },
            {
              "name": "damaged_sprite",
              "type": "string",
              "value": "xcybstr3_09.png"
            },
            {
              "name": "damage_state",
              "type": "string",
              "value": "intact"
            }
          ]
        },
        {
          "id": 1207,
          "gid": 10,
          "x": 2721.05,
          "y": 120.0,
          "width": 24.0,
          "height": 40.0,
          "visible": true,
          "name": "g652",
          "type": "furniture_piece",
          "properties": [
            {
              "name": "destructible",
              "type": "bool",
              "value": true
            },
            {
              "name": "hp",
              "type": "int",
              "value": 20
            },
            {
              "name": "parent_group",
              "type": "string",
              "value": "g677"
            },
            {
              "name": "piece_id",
              "type": "string",
              "value": "g652"
            },
            {
              "name": "damaged_sprite",
              "type": "string",
              "value": "xcybstr3_10.png"
            },
            {
              "name": "damage_state",
              "type": "string",
              "value": "intact"
            }
          ]
        },
        {
          "id": 1208,
          "gid": 11,
          "x": 2745.05,
          "y": 80.0,
          "width": 16.0,
          "height": 24.0,
          "visible": true,
          "name": "g642",
          "type": "furniture_piece",
          "properties": [
            {
              "name": "destructible",
              "type": "bool",
              "value": true
            },
            {
              "name": "hp",
              "type": "int",
              "value": 20
            },
            {
              "name": "parent_group",
              "type": "string",
              "value": "g677"
            },
            {
              "name": "piece_id",
              "type": "string",
              "value": "g642"
            },
            {
              "name": "damaged_sprite",
              "type": "string",
              "value": "xcybstr3_11.png"
            },
            {
              "name": "damage_state",
              "type": "string",
              "value": "intact"
            }
          ]
        },
        {
          "id": 1209,
          "gid": 12,
          "x": 2745.05,
          "y": 120.0,
          "width": 16.0,
          "height": 40.0,
          "visible": true,
          "name": "g644",
          "type": "furniture_piece",
          "properties": [
            {
              "name": "destructible",
              "type": "bool",
              "value": true
            },
            {
              "name": "hp",
              "type": "int",
              "value": 20
            },
            {
              "name": "parent_group",
              "type": "string",
              "value": "g677"
            },
            {
              "name": "piece_id",
              "type": "string",
              "value": "g644"
            },
            {
              "name": "damaged_sprite",
              "type": "string",
              "value": "xcybstr3_12.png"
            },
            {
              "name": "damage_state",
              "type": "string",
              "value": "intact"
            }
          ]
        },
        {
          "id": 1210,
          "gid": 11,
          "x": 2745.05,
          "y": 56.0,
          "width": 16.0,
          "height": 24.0,
          "visible": true,
          "name": "g662",
          "type": "furniture_piece",
          "properties": [
            {
              "name": "destructible",
              "type": "bool",
              "value": true
            },
            {
              "name": "hp",
              "type": "int",
              "value": 20
            },
            {
              "name": "parent_group",
              "type": "string",
              "value": "g677"
            },
            {
              "name": "piece_id",
              "type": "string",
              "value": "g662"
            },
            {
              "name": "damaged_sprite",
              "type": "string",
              "value": "xcybstr3_11.png"
            },
            {
              "name": "damage_state",
              "type": "string",
              "value": "intact"
            }
          ]
        },
        {
          "id": 1211,
          "gid": 11,
          "x": 2761.05,
          "y": 80.0,
          "width": 16.0,
          "height": 24.0,
          "visible": true,
          "name": "g660",
          "type": "furniture_piece",
          "properties": [
            {
              "name": "destructible",
              "type": "bool",
              "value": true
            },
            {
              "name": "hp",
              "type": "int",
              "value": 20
            },
            {
              "name": "parent_group",
              "type": "string",
              "value": "g677"
            },
            {
              "name": "piece_id",
              "type": "string",
              "value": "g660"
            },
            {
              "name": "damaged_sprite",
              "type": "string",
              "value": "xcybstr3_11.png"
            },
            {
              "name": "damage_state",
              "type": "string",
              "value": "intact"
            }
          ]
        },
        {
          "id": 1212,
          "gid": 11,
          "x": 2761.05,
          "y": 56.0,
          "width": 16.0,
          "height": 24.0,
          "visible": true,
          "name": "g664",
          "type": "furniture_piece",
          "properties": [
            {
              "name": "destructible",
              "type": "bool",
              "value": true
            },
            {
              "name": "hp",
              "type": "int",
              "value": 20
            },
            {
              "name": "parent_group",
              "type": "string",
              "value": "g677"
            },
            {
              "name": "piece_id",
              "type": "string",
              "value": "g664"
            },
            {
              "name": "damaged_sprite",
              "type": "string",
              "value": "xcybstr3_11.png"
            },
            {
              "name": "damage_state",
              "type": "string",
              "value": "intact"
            }
          ]
        },
        {
          "id": 1213,
          "gid": 12,
          "x": 2761.05,
          "y": 120.0,
          "width": 16.0,
          "height": 40.0,
          "visible": true,
          "name": "g666",
          "type": "furniture_piece",
          "properties": [
            {
              "name": "destructible",
              "type": "bool",
              "value": true
            },
            {
              "name": "hp",
              "type": "int",
              "value": 20
            },
            {
              "name": "parent_group",
              "type": "string",
              "value": "g677"
            },
            {
              "name": "piece_id",
              "type": "string",
              "value": "g666"
            },
            {
              "name": "damaged_sprite",
              "type": "string",
              "value": "xcybstr3_12.png"
            },
            {
              "name": "damage_state",
              "type": "string",
              "value": "intact"
            }
          ]
        },
        {
          "id": 1214,
          "gid": 10,
          "x": 2777.05,
          "y": 120.0,
          "width": 24.0,
          "height": 40.0,
          "visible": true,
          "name": "g654",
          "type": "furniture_piece",
          "properties": [
            {
              "name": "destructible",
              "type": "bool",
              "value": true
            },
            {
              "name": "hp",
              "type": "int",
              "value": 20
            },
            {
              "name": "parent_group",
              "type": "string",
              "value": "g677"
            },
            {
              "name": "piece_id",
              "type": "string",
              "value": "g654"
            },
            {
              "name": "damaged_sprite",
              "type": "string",
              "value": "xcybstr3_10.png"
            },
            {
              "name": "damage_state",
              "type": "string",
              "value": "intact"
            }
          ]
        },
        {
          "id": 1215,
          "gid": 8,
          "x": 2777.05,
          "y": 80.0,
          "width": 24.0,
          "height": 24.0,
          "visible": true,
          "name": "g656",
          "type": "furniture_piece",
          "properties": [
            {
              "name": "destructible",
              "type": "bool",
              "value": true
            },
            {
              "name": "hp",
              "type": "int",
              "value": 20
            },
            {
              "name": "parent_group",
              "type": "string",
              "value": "g677"
            },
            {
              "name": "piece_id",
              "type": "string",
              "value": "g656"
            },
            {
              "name": "damaged_sprite",
              "type": "string",
              "value": "xcybstr3_08.png"
            },
            {
              "name": "damage_state",
              "type": "string",
              "value": "intact"
            }
          ]
        },
        {
          "id": 1216,
          "gid": 8,
          "x": 2777.05,
          "y": 56.0,
          "width": 24.0,
          "height": 24.0,
          "visible": true,
          "name": "g658",
          "type": "furniture_piece",
          "properties": [
            {
              "name": "destructible",
              "type": "bool",
              "value": true
            },
            {
              "name": "hp",
              "type": "int",
              "value": 20
            },
            {
              "name": "parent_group",
              "type": "string",
              "value": "g677"
            },
            {
              "name": "piece_id",
              "type": "string",
              "value": "g658"
            },
            {
              "name": "damaged_sprite",
              "type": "string",
              "value": "xcybstr3_08.png"
            },
            {
              "name": "damage_state",
              "type": "string",
              "value": "intact"
            }
          ]
        },
        {
          "id": 1217,
          "gid": 13,
          "x": 2801.05,
          "y": 48.0,
          "width": 16.0,
          "height": 16.0,
          "visible": true,
          "name": "g646",
          "type": "furniture_piece",
          "properties": [
            {
              "name": "destructible",
              "type": "bool",
              "value": true
            },
            {
              "name": "hp",
              "type": "int",
              "value": 20
            },
            {
              "name": "parent_group",
              "type": "string",
              "value": "g677"
            },
            {
              "name": "piece_id",
              "type": "string",
              "value": "g646"
            },
            {
              "name": "damaged_sprite",
              "type": "string",
              "value": "xcybstr3_13.png"
            },
            {
              "name": "damage_state",
              "type": "string",
              "value": "intact"
            }
          ]
        },
        {
          "id": 1218,
          "gid": 14,
          "x": 2801.05,
          "y": 80.0,
          "width": 16.0,
          "height": 32.0,
          "visible": true,
          "name": "g668",
          "type": "furniture_piece",
          "properties": [
            {
              "name": "destructible",
              "type": "bool",
              "value": true
            },
            {
              "name": "hp",
              "type": "int",
              "value": 20
            },
            {
              "name": "parent_group",
              "type": "string",
              "value": "g677"
            },
            {
              "name": "piece_id",
              "type": "string",
              "value": "g668"
            },
            {
              "name": "damaged_sprite",
              "type": "string",
              "value": "xcybstr3_14.png"
            },
            {
              "name": "damage_state",
              "type": "string",
              "value": "intact"
            }
          ]
        },
        {
          "id": 1219,
          "gid": 15,
          "x": 2801.05,
          "y": 120.0,
          "width": 16.0,
          "height": 40.0,
          "visible": true,
          "name": "g670",
          "type": "furniture_piece",
          "properties": [
            {
              "name": "destructible",
              "type": "bool",
              "value": true
            },
            {
              "name": "hp",
              "type": "int",
              "value": 20
            },
            {
              "name": "parent_group",
              "type": "string",
              "value": "g677"
            },
            {
              "name": "piece_id",
              "type": "string",
              "value": "g670"
            },
            {
              "name": "damaged_sprite",
              "type": "string",
              "value": "xcybstr3_15.png"
            },
            {
              "name": "damage_state",
              "type": "string",
              "value": "intact"
            }
          ]
        },
        {
          "id": 1220,
          "gid": 8,
          "x": 2817.05,
          "y": 56.0,
          "width": 24.0,
          "height": 24.0,
          "visible": true,
          "name": "g672",
          "type": "furniture_piece",
          "properties": [
            {
              "name": "destructible",
              "type": "bool",
              "value": true
            },
            {
              "name": "hp",
              "type": "int",
              "value": 20
            },
            {
              "name": "parent_group",
              "type": "string",
              "value": "g677"
            },
            {
              "name": "piece_id",
              "type": "string",
              "value": "g672"
            },
            {
              "name": "damaged_sprite",
              "type": "string",
              "value": "xcybstr3_08.png"
            },
            {
              "name": "damage_state",
              "type": "string",
              "value": "intact"
            }
          ]
        },
        {
          "id": 1221,
          "gid": 9,
          "x": 2817.05,
          "y": 80.0,
          "width": 24.0,
          "height": 24.0,
          "visible": true,
          "name": "g674",
          "type": "furniture_piece",
          "properties": [
            {
              "name": "destructible",
              "type": "bool",
              "value": true
            },
            {
              "name": "hp",
              "type": "int",
              "value": 20
            },
            {
              "name": "parent_group",
              "type": "string",
              "value": "g677"
            },
            {
              "name": "piece_id",
              "type": "string",
              "value": "g674"
            },
            {
              "name": "damaged_sprite",
              "type": "string",
              "value": "xcybstr3_09.png"
            },
            {
              "name": "damage_state",
              "type": "string",
              "value": "intact"
            }
          ]
        },
        {
          "id": 1222,
          "gid": 10,
          "x": 2817.05,
          "y": 120.0,
          "width": 24.0,
          "height": 40.0,
          "visible": true,
          "name": "g676",
          "type": "furniture_piece",
          "properties": [
            {
              "name": "destructible",
              "type": "bool",
              "value": true
            },
            {
              "name": "hp",
              "type": "int",
              "value": 20
            },
            {
              "name": "parent_group",
              "type": "string",
              "value": "g677"
            },
            {
              "name": "piece_id",
              "type": "string",
              "value": "g676"
            },
            {
              "name": "damaged_sprite",
              "type": "string",
              "value": "xcybstr3_10.png"
            },
            {
              "name": "damage_state",
              "type": "string",
              "value": "intact"
            }
          ]
        },
        {
          "id": 1223,
          "gid": 26,
          "x": 3032.0,
          "y": 120.63,
          "width": 24.0,
          "height": 63.0,
          "visible": true,
          "name": "g517",
          "type": "furniture_piece",
          "properties": [
            {
              "name": "destructible",
              "type": "bool",
              "value": true
            },
            {
              "name": "hp",
              "type": "int",
              "value": 20
            },
            {
              "name": "parent_group",
              "type": "string",
              "value": "g524"
            },
            {
              "name": "piece_id",
              "type": "string",
              "value": "g517"
            },
            {
              "name": "damaged_sprite",
              "type": "string",
              "value": "xcybstr4_03.png"
            },
            {
              "name": "damage_state",
              "type": "string",
              "value": "intact"
            }
          ]
        },
        {
          "id": 1224,
          "gid": 26,
          "x": 3056.0,
          "y": 120.63,
          "width": 24.0,
          "height": 63.0,
          "visible": true,
          "name": "g519",
          "type": "furniture_piece",
          "properties": [
            {
              "name": "destructible",
              "type": "bool",
              "value": true
            },
            {
              "name": "hp",
              "type": "int",
              "value": 20
            },
            {
              "name": "parent_group",
              "type": "string",
              "value": "g524"
            },
            {
              "name": "piece_id",
              "type": "string",
              "value": "g519"
            },
            {
              "name": "damaged_sprite",
              "type": "string",
              "value": "xcybstr4_03.png"
            },
            {
              "name": "damage_state",
              "type": "string",
              "value": "intact"
            }
          ]
        },
        {
          "id": 1225,
          "gid": 26,
          "x": 3080.0,
          "y": 120.63,
          "width": 24.0,
          "height": 63.0,
          "visible": true,
          "name": "g521",
          "type": "furniture_piece",
          "properties": [
            {
              "name": "destructible",
              "type": "bool",
              "value": true
            },
            {
              "name": "hp",
              "type": "int",
              "value": 20
            },
            {
              "name": "parent_group",
              "type": "string",
              "value": "g524"
            },
            {
              "name": "piece_id",
              "type": "string",
              "value": "g521"
            },
            {
              "name": "damaged_sprite",
              "type": "string",
              "value": "xcybstr4_03.png"
            },
            {
              "name": "damage_state",
              "type": "string",
              "value": "intact"
            }
          ]
        },
        {
          "id": 1226,
          "gid": 26,
          "x": 3104.0,
          "y": 120.63,
          "width": 24.0,
          "height": 63.0,
          "visible": true,
          "name": "g523",
          "type": "furniture_piece",
          "properties": [
            {
              "name": "destructible",
              "type": "bool",
              "value": true
            },
            {
              "name": "hp",
              "type": "int",
              "value": 20
            },
            {
              "name": "parent_group",
              "type": "string",
              "value": "g524"
            },
            {
              "name": "piece_id",
              "type": "string",
              "value": "g523"
            },
            {
              "name": "damaged_sprite",
              "type": "string",
              "value": "xcybstr4_03.png"
            },
            {
              "name": "damage_state",
              "type": "string",
              "value": "intact"
            }
          ]
        },
        {
          "id": 1227,
          "gid": 29,
          "x": 3128.0,
          "y": 93.63,
          "width": 56.0,
          "height": 16.0,
          "visible": true,
          "name": "g584",
          "type": "furniture_piece",
          "properties": [
            {
              "name": "destructible",
              "type": "bool",
              "value": true
            },
            {
              "name": "hp",
              "type": "int",
              "value": 20
            },
            {
              "name": "parent_group",
              "type": "string",
              "value": "g589"
            },
            {
              "name": "piece_id",
              "type": "string",
              "value": "g584"
            },
            {
              "name": "damaged_sprite",
              "type": "string",
              "value": "xcybstr4_09.png"
            },
            {
              "name": "damage_state",
              "type": "string",
              "value": "intact"
            }
          ]
        },
        {
          "id": 1228,
          "gid": 30,
          "x": 3128.0,
          "y": 120.63,
          "width": 28.0,
          "height": 27.0,
          "visible": true,
          "name": "g586",
          "type": "furniture_piece",
          "properties": [
            {
              "name": "destructible",
              "type": "bool",
              "value": true
            },
            {
              "name": "hp",
              "type": "int",
              "value": 20
            },
            {
              "name": "parent_group",
              "type": "string",
              "value": "g589"
            },
            {
              "name": "piece_id",
              "type": "string",
              "value": "g586"
            },
            {
              "name": "damaged_sprite",
              "type": "string",
              "value": "xcybstr4_10.png"
            },
            {
              "name": "damage_state",
              "type": "string",
              "value": "intact"
            }
          ]
        },
        {
          "id": 1229,
          "gid": 28,
          "x": 3145.94,
          "y": 78.64,
          "width": 18.0,
          "height": 17.0,
          "visible": true,
          "name": "g582",
          "type": "furniture_piece",
          "properties": [
            {
              "name": "destructible",
              "type": "bool",
              "value": true
            },
            {
              "name": "hp",
              "type": "int",
              "value": 20
            },
            {
              "name": "parent_group",
              "type": "string",
              "value": "g589"
            },
            {
              "name": "piece_id",
              "type": "string",
              "value": "g582"
            },
            {
              "name": "damaged_sprite",
              "type": "string",
              "value": "xcybstr4_08.png"
            },
            {
              "name": "damage_state",
              "type": "string",
              "value": "intact"
            }
          ]
        },
        {
          "id": 1230,
          "gid": 31,
          "x": 3156.0,
          "y": 120.63,
          "width": 28.0,
          "height": 27.0,
          "visible": true,
          "name": "g588",
          "type": "furniture_piece",
          "properties": [
            {
              "name": "destructible",
              "type": "bool",
              "value": true
            },
            {
              "name": "hp",
              "type": "int",
              "value": 20
            },
            {
              "name": "parent_group",
              "type": "string",
              "value": "g589"
            },
            {
              "name": "piece_id",
              "type": "string",
              "value": "g588"
            },
            {
              "name": "damaged_sprite",
              "type": "string",
              "value": "xcybstr4_11.png"
            },
            {
              "name": "damage_state",
              "type": "string",
              "value": "intact"
            }
          ]
        },
        {
          "id": 1231,
          "gid": 36,
          "x": 3184.0,
          "y": 88.63,
          "width": 16.0,
          "height": 16.0,
          "visible": true,
          "name": "g576",
          "type": "furniture_piece",
          "properties": [
            {
              "name": "destructible",
              "type": "bool",
              "value": true
            },
            {
              "name": "hp",
              "type": "int",
              "value": 20
            },
            {
              "name": "parent_group",
              "type": "string",
              "value": "g589"
            },
            {
              "name": "piece_id",
              "type": "string",
              "value": "g576"
            },
            {
              "name": "damaged_sprite",
              "type": "string",
              "value": "xcybstr4_13.png"
            },
            {
              "name": "damage_state",
              "type": "string",
              "value": "intact"
            }
          ]
        },
        {
          "id": 1232,
          "gid": 36,
          "x": 3184.0,
          "y": 104.63,
          "width": 16.0,
          "height": 16.0,
          "visible": true,
          "name": "g578",
          "type": "furniture_piece",
          "properties": [
            {
              "name": "destructible",
              "type": "bool",
              "value": true
            },
            {
              "name": "hp",
              "type": "int",
              "value": 20
            },
            {
              "name": "parent_group",
              "type": "string",
              "value": "g589"
            },
            {
              "name": "piece_id",
              "type": "string",
              "value": "g578"
            },
            {
              "name": "damaged_sprite",
              "type": "string",
              "value": "xcybstr4_13.png"
            },
            {
              "name": "damage_state",
              "type": "string",
              "value": "intact"
            }
          ]
        },
        {
          "id": 1233,
          "gid": 36,
          "x": 3184.0,
          "y": 120.63,
          "width": 16.0,
          "height": 16.0,
          "visible": true,
          "name": "g580",
          "type": "furniture_piece",
          "properties": [
            {
              "name": "destructible",
              "type": "bool",
              "value": true
            },
            {
              "name": "hp",
              "type": "int",
              "value": 20
            },
            {
              "name": "parent_group",
              "type": "string",
              "value": "g589"
            },
            {
              "name": "piece_id",
              "type": "string",
              "value": "g580"
            },
            {
              "name": "damaged_sprite",
              "type": "string",
              "value": "xcybstr4_13.png"
            },
            {
              "name": "damage_state",
              "type": "string",
              "value": "intact"
            }
          ]
        },
        {
          "id": 1234,
          "gid": 8,
          "x": 3426.95,
          "y": 56.0,
          "width": 24.0,
          "height": 24.0,
          "visible": true,
          "name": "g386",
          "type": "furniture_piece",
          "properties": [
            {
              "name": "destructible",
              "type": "bool",
              "value": true
            },
            {
              "name": "hp",
              "type": "int",
              "value": 20
            },
            {
              "name": "parent_group",
              "type": "string",
              "value": "g405"
            },
            {
              "name": "piece_id",
              "type": "string",
              "value": "g386"
            },
            {
              "name": "damaged_sprite",
              "type": "string",
              "value": "xcybstr3_08.png"
            },
            {
              "name": "damage_state",
              "type": "string",
              "value": "intact"
            }
          ]
        },
        {
          "id": 1235,
          "gid": 9,
          "x": 3426.95,
          "y": 80.0,
          "width": 24.0,
          "height": 24.0,
          "visible": true,
          "name": "g388",
          "type": "furniture_piece",
          "properties": [
            {
              "name": "destructible",
              "type": "bool",
              "value": true
            },
            {
              "name": "hp",
              "type": "int",
              "value": 20
            },
            {
              "name": "parent_group",
              "type": "string",
              "value": "g405"
            },
            {
              "name": "piece_id",
              "type": "string",
              "value": "g388"
            },
            {
              "name": "damaged_sprite",
              "type": "string",
              "value": "xcybstr3_09.png"
            },
            {
              "name": "damage_state",
              "type": "string",
              "value": "intact"
            }
          ]
        },
        {
          "id": 1236,
          "gid": 10,
          "x": 3426.95,
          "y": 120.0,
          "width": 24.0,
          "height": 40.0,
          "visible": true,
          "name": "g390",
          "type": "furniture_piece",
          "properties": [
            {
              "name": "destructible",
              "type": "bool",
              "value": true
            },
            {
              "name": "hp",
              "type": "int",
              "value": 20
            },
            {
              "name": "parent_group",
              "type": "string",
              "value": "g405"
            },
            {
              "name": "piece_id",
              "type": "string",
              "value": "g390"
            },
            {
              "name": "damaged_sprite",
              "type": "string",
              "value": "xcybstr3_10.png"
            },
            {
              "name": "damage_state",
              "type": "string",
              "value": "intact"
            }
          ]
        },
        {
          "id": 1237,
          "gid": 14,
          "x": 3450.95,
          "y": 80.0,
          "width": 16.0,
          "height": 32.0,
          "visible": true,
          "name": "g392",
          "type": "furniture_piece",
          "properties": [
            {
              "name": "destructible",
              "type": "bool",
              "value": true
            },
            {
              "name": "hp",
              "type": "int",
              "value": 20
            },
            {
              "name": "parent_group",
              "type": "string",
              "value": "g405"
            },
            {
              "name": "piece_id",
              "type": "string",
              "value": "g392"
            },
            {
              "name": "damaged_sprite",
              "type": "string",
              "value": "xcybstr3_14.png"
            },
            {
              "name": "damage_state",
              "type": "string",
              "value": "intact"
            }
          ]
        },
        {
          "id": 1238,
          "gid": 15,
          "x": 3450.95,
          "y": 120.0,
          "width": 16.0,
          "height": 40.0,
          "visible": true,
          "name": "g394",
          "type": "furniture_piece",
          "properties": [
            {
              "name": "destructible",
              "type": "bool",
              "value": true
            },
            {
              "name": "hp",
              "type": "int",
              "value": 20
            },
            {
              "name": "parent_group",
              "type": "string",
              "value": "g405"
            },
            {
              "name": "piece_id",
              "type": "string",
              "value": "g394"
            },
            {
              "name": "damaged_sprite",
              "type": "string",
              "value": "xcybstr3_15.png"
            },
            {
              "name": "damage_state",
              "type": "string",
              "value": "intact"
            }
          ]
        },
        {
          "id": 1239,
          "gid": 13,
          "x": 3450.95,
          "y": 48.0,
          "width": 16.0,
          "height": 16.0,
          "visible": true,
          "name": "g402",
          "type": "furniture_piece",
          "properties": [
            {
              "name": "destructible",
              "type": "bool",
              "value": true
            },
            {
              "name": "hp",
              "type": "int",
              "value": 20
            },
            {
              "name": "parent_group",
              "type": "string",
              "value": "g405"
            },
            {
              "name": "piece_id",
              "type": "string",
              "value": "g402"
            },
            {
              "name": "damaged_sprite",
              "type": "string",
              "value": "xcybstr3_13.png"
            },
            {
              "name": "damage_state",
              "type": "string",
              "value": "intact"
            }
          ]
        },
        {
          "id": 1240,
          "gid": 8,
          "x": 3466.95,
          "y": 56.0,
          "width": 24.0,
          "height": 24.0,
          "visible": true,
          "name": "g396",
          "type": "furniture_piece",
          "properties": [
            {
              "name": "destructible",
              "type": "bool",
              "value": true
            },
            {
              "name": "hp",
              "type": "int",
              "value": 20
            },
            {
              "name": "parent_group",
              "type": "string",
              "value": "g405"
            },
            {
              "name": "piece_id",
              "type": "string",
              "value": "g396"
            },
            {
              "name": "damaged_sprite",
              "type": "string",
              "value": "xcybstr3_08.png"
            },
            {
              "name": "damage_state",
              "type": "string",
              "value": "intact"
            }
          ]
        },
        {
          "id": 1241,
          "gid": 10,
          "x": 3466.95,
          "y": 120.0,
          "width": 24.0,
          "height": 40.0,
          "visible": true,
          "name": "g400",
          "type": "furniture_piece",
          "properties": [
            {
              "name": "destructible",
              "type": "bool",
              "value": true
            },
            {
              "name": "hp",
              "type": "int",
              "value": 20
            },
            {
              "name": "parent_group",
              "type": "string",
              "value": "g405"
            },
            {
              "name": "piece_id",
              "type": "string",
              "value": "g400"
            },
            {
              "name": "damaged_sprite",
              "type": "string",
              "value": "xcybstr3_10.png"
            },
            {
              "name": "damage_state",
              "type": "string",
              "value": "intact"
            }
          ]
        },
        {
          "id": 1242,
          "gid": 9,
          "x": 3466.95,
          "y": 80.0,
          "width": 24.0,
          "height": 24.0,
          "visible": true,
          "name": "g398",
          "type": "furniture_piece",
          "properties": [
            {
              "name": "destructible",
              "type": "bool",
              "value": true
            },
            {
              "name": "hp",
              "type": "int",
              "value": 20
            },
            {
              "name": "parent_group",
              "type": "string",
              "value": "g405"
            },
            {
              "name": "piece_id",
              "type": "string",
              "value": "g398"
            },
            {
              "name": "damaged_sprite",
              "type": "string",
              "value": "xcybstr3_09.png"
            },
            {
              "name": "damage_state",
              "type": "string",
              "value": "intact"
            }
          ]
        },
        {
          "id": 1243,
          "gid": 24,
          "x": 3490.95,
          "y": 120.0,
          "width": 32.0,
          "height": 56.0,
          "visible": true,
          "name": "g404",
          "type": "furniture_piece",
          "properties": [
            {
              "name": "destructible",
              "type": "bool",
              "value": true
            },
            {
              "name": "hp",
              "type": "int",
              "value": 20
            },
            {
              "name": "parent_group",
              "type": "string",
              "value": "g405"
            },
            {
              "name": "piece_id",
              "type": "string",
              "value": "g404"
            },
            {
              "name": "damaged_sprite",
              "type": "string",
              "value": "xcybstr4_01.png"
            },
            {
              "name": "damage_state",
              "type": "string",
              "value": "intact"
            }
          ]
        },
        {
          "id": 1244,
          "gid": 8,
          "x": 3593.0,
          "y": 56.0,
          "width": 24.0,
          "height": 24.0,
          "visible": true,
          "name": "g684",
          "type": "furniture_piece",
          "properties": [
            {
              "name": "destructible",
              "type": "bool",
              "value": true
            },
            {
              "name": "hp",
              "type": "int",
              "value": 20
            },
            {
              "name": "parent_group",
              "type": "string",
              "value": "g713"
            },
            {
              "name": "piece_id",
              "type": "string",
              "value": "g684"
            },
            {
              "name": "damaged_sprite",
              "type": "string",
              "value": "xcybstr3_08.png"
            },
            {
              "name": "damage_state",
              "type": "string",
              "value": "intact"
            }
          ]
        },
        {
          "id": 1245,
          "gid": 9,
          "x": 3593.0,
          "y": 80.0,
          "width": 24.0,
          "height": 24.0,
          "visible": true,
          "name": "g686",
          "type": "furniture_piece",
          "properties": [
            {
              "name": "destructible",
              "type": "bool",
              "value": true
            },
            {
              "name": "hp",
              "type": "int",
              "value": 20
            },
            {
              "name": "parent_group",
              "type": "string",
              "value": "g713"
            },
            {
              "name": "piece_id",
              "type": "string",
              "value": "g686"
            },
            {
              "name": "damaged_sprite",
              "type": "string",
              "value": "xcybstr3_09.png"
            },
            {
              "name": "damage_state",
              "type": "string",
              "value": "intact"
            }
          ]
        },
        {
          "id": 1246,
          "gid": 10,
          "x": 3593.0,
          "y": 120.0,
          "width": 24.0,
          "height": 40.0,
          "visible": true,
          "name": "g688",
          "type": "furniture_piece",
          "properties": [
            {
              "name": "destructible",
              "type": "bool",
              "value": true
            },
            {
              "name": "hp",
              "type": "int",
              "value": 20
            },
            {
              "name": "parent_group",
              "type": "string",
              "value": "g713"
            },
            {
              "name": "piece_id",
              "type": "string",
              "value": "g688"
            },
            {
              "name": "damaged_sprite",
              "type": "string",
              "value": "xcybstr3_10.png"
            },
            {
              "name": "damage_state",
              "type": "string",
              "value": "intact"
            }
          ]
        },
        {
          "id": 1247,
          "gid": 11,
          "x": 3617.0,
          "y": 80.0,
          "width": 16.0,
          "height": 24.0,
          "visible": true,
          "name": "g678",
          "type": "furniture_piece",
          "properties": [
            {
              "name": "destructible",
              "type": "bool",
              "value": true
            },
            {
              "name": "hp",
              "type": "int",
              "value": 20
            },
            {
              "name": "parent_group",
              "type": "string",
              "value": "g713"
            },
            {
              "name": "piece_id",
              "type": "string",
              "value": "g678"
            },
            {
              "name": "damaged_sprite",
              "type": "string",
              "value": "xcybstr3_11.png"
            },
            {
              "name": "damage_state",
              "type": "string",
              "value": "intact"
            }
          ]
        },
        {
          "id": 1248,
          "gid": 12,
          "x": 3617.0,
          "y": 120.0,
          "width": 16.0,
          "height": 40.0,
          "visible": true,
          "name": "g680",
          "type": "furniture_piece",
          "properties": [
            {
              "name": "destructible",
              "type": "bool",
              "value": true
            },
            {
              "name": "hp",
              "type": "int",
              "value": 20
            },
            {
              "name": "parent_group",
              "type": "string",
              "value": "g713"
            },
            {
              "name": "piece_id",
              "type": "string",
              "value": "g680"
            },
            {
              "name": "damaged_sprite",
              "type": "string",
              "value": "xcybstr3_12.png"
            },
            {
              "name": "damage_state",
              "type": "string",
              "value": "intact"
            }
          ]
        },
        {
          "id": 1249,
          "gid": 11,
          "x": 3617.0,
          "y": 56.0,
          "width": 16.0,
          "height": 24.0,
          "visible": true,
          "name": "g698",
          "type": "furniture_piece",
          "properties": [
            {
              "name": "destructible",
              "type": "bool",
              "value": true
            },
            {
              "name": "hp",
              "type": "int",
              "value": 20
            },
            {
              "name": "parent_group",
              "type": "string",
              "value": "g713"
            },
            {
              "name": "piece_id",
              "type": "string",
              "value": "g698"
            },
            {
              "name": "damaged_sprite",
              "type": "string",
              "value": "xcybstr3_11.png"
            },
            {
              "name": "damage_state",
              "type": "string",
              "value": "intact"
            }
          ]
        },
        {
          "id": 1250,
          "gid": 11,
          "x": 3633.0,
          "y": 80.0,
          "width": 16.0,
          "height": 24.0,
          "visible": true,
          "name": "g696",
          "type": "furniture_piece",
          "properties": [
            {
              "name": "destructible",
              "type": "bool",
              "value": true
            },
            {
              "name": "hp",
              "type": "int",
              "value": 20
            },
            {
              "name": "parent_group",
              "type": "string",
              "value": "g713"
            },
            {
              "name": "piece_id",
              "type": "string",
              "value": "g696"
            },
            {
              "name": "damaged_sprite",
              "type": "string",
              "value": "xcybstr3_11.png"
            },
            {
              "name": "damage_state",
              "type": "string",
              "value": "intact"
            }
          ]
        },
        {
          "id": 1251,
          "gid": 11,
          "x": 3633.0,
          "y": 56.0,
          "width": 16.0,
          "height": 24.0,
          "visible": true,
          "name": "g700",
          "type": "furniture_piece",
          "properties": [
            {
              "name": "destructible",
              "type": "bool",
              "value": true
            },
            {
              "name": "hp",
              "type": "int",
              "value": 20
            },
            {
              "name": "parent_group",
              "type": "string",
              "value": "g713"
            },
            {
              "name": "piece_id",
              "type": "string",
              "value": "g700"
            },
            {
              "name": "damaged_sprite",
              "type": "string",
              "value": "xcybstr3_11.png"
            },
            {
              "name": "damage_state",
              "type": "string",
              "value": "intact"
            }
          ]
        },
        {
          "id": 1252,
          "gid": 12,
          "x": 3633.0,
          "y": 120.0,
          "width": 16.0,
          "height": 40.0,
          "visible": true,
          "name": "g702",
          "type": "furniture_piece",
          "properties": [
            {
              "name": "destructible",
              "type": "bool",
              "value": true
            },
            {
              "name": "hp",
              "type": "int",
              "value": 20
            },
            {
              "name": "parent_group",
              "type": "string",
              "value": "g713"
            },
            {
              "name": "piece_id",
              "type": "string",
              "value": "g702"
            },
            {
              "name": "damaged_sprite",
              "type": "string",
              "value": "xcybstr3_12.png"
            },
            {
              "name": "damage_state",
              "type": "string",
              "value": "intact"
            }
          ]
        },
        {
          "id": 1253,
          "gid": 10,
          "x": 3649.0,
          "y": 120.0,
          "width": 24.0,
          "height": 40.0,
          "visible": true,
          "name": "g690",
          "type": "furniture_piece",
          "properties": [
            {
              "name": "destructible",
              "type": "bool",
              "value": true
            },
            {
              "name": "hp",
              "type": "int",
              "value": 20
            },
            {
              "name": "parent_group",
              "type": "string",
              "value": "g713"
            },
            {
              "name": "piece_id",
              "type": "string",
              "value": "g690"
            },
            {
              "name": "damaged_sprite",
              "type": "string",
              "value": "xcybstr3_10.png"
            },
            {
              "name": "damage_state",
              "type": "string",
              "value": "intact"
            }
          ]
        },
        {
          "id": 1254,
          "gid": 8,
          "x": 3649.0,
          "y": 80.0,
          "width": 24.0,
          "height": 24.0,
          "visible": true,
          "name": "g692",
          "type": "furniture_piece",
          "properties": [
            {
              "name": "destructible",
              "type": "bool",
              "value": true
            },
            {
              "name": "hp",
              "type": "int",
              "value": 20
            },
            {
              "name": "parent_group",
              "type": "string",
              "value": "g713"
            },
            {
              "name": "piece_id",
              "type": "string",
              "value": "g692"
            },
            {
              "name": "damaged_sprite",
              "type": "string",
              "value": "xcybstr3_08.png"
            },
            {
              "name": "damage_state",
              "type": "string",
              "value": "intact"
            }
          ]
        },
        {
          "id": 1255,
          "gid": 8,
          "x": 3649.0,
          "y": 56.0,
          "width": 24.0,
          "height": 24.0,
          "visible": true,
          "name": "g694",
          "type": "furniture_piece",
          "properties": [
            {
              "name": "destructible",
              "type": "bool",
              "value": true
            },
            {
              "name": "hp",
              "type": "int",
              "value": 20
            },
            {
              "name": "parent_group",
              "type": "string",
              "value": "g713"
            },
            {
              "name": "piece_id",
              "type": "string",
              "value": "g694"
            },
            {
              "name": "damaged_sprite",
              "type": "string",
              "value": "xcybstr3_08.png"
            },
            {
              "name": "damage_state",
              "type": "string",
              "value": "intact"
            }
          ]
        },
        {
          "id": 1256,
          "gid": 13,
          "x": 3673.0,
          "y": 48.0,
          "width": 16.0,
          "height": 16.0,
          "visible": true,
          "name": "g682",
          "type": "furniture_piece",
          "properties": [
            {
              "name": "destructible",
              "type": "bool",
              "value": true
            },
            {
              "name": "hp",
              "type": "int",
              "value": 20
            },
            {
              "name": "parent_group",
              "type": "string",
              "value": "g713"
            },
            {
              "name": "piece_id",
              "type": "string",
              "value": "g682"
            },
            {
              "name": "damaged_sprite",
              "type": "string",
              "value": "xcybstr3_13.png"
            },
            {
              "name": "damage_state",
              "type": "string",
              "value": "intact"
            }
          ]
        },
        {
          "id": 1257,
          "gid": 14,
          "x": 3673.0,
          "y": 80.0,
          "width": 16.0,
          "height": 32.0,
          "visible": true,
          "name": "g704",
          "type": "furniture_piece",
          "properties": [
            {
              "name": "destructible",
              "type": "bool",
              "value": true
            },
            {
              "name": "hp",
              "type": "int",
              "value": 20
            },
            {
              "name": "parent_group",
              "type": "string",
              "value": "g713"
            },
            {
              "name": "piece_id",
              "type": "string",
              "value": "g704"
            },
            {
              "name": "damaged_sprite",
              "type": "string",
              "value": "xcybstr3_14.png"
            },
            {
              "name": "damage_state",
              "type": "string",
              "value": "intact"
            }
          ]
        },
        {
          "id": 1258,
          "gid": 15,
          "x": 3673.0,
          "y": 120.0,
          "width": 16.0,
          "height": 40.0,
          "visible": true,
          "name": "g706",
          "type": "furniture_piece",
          "properties": [
            {
              "name": "destructible",
              "type": "bool",
              "value": true
            },
            {
              "name": "hp",
              "type": "int",
              "value": 20
            },
            {
              "name": "parent_group",
              "type": "string",
              "value": "g713"
            },
            {
              "name": "piece_id",
              "type": "string",
              "value": "g706"
            },
            {
              "name": "damaged_sprite",
              "type": "string",
              "value": "xcybstr3_15.png"
            },
            {
              "name": "damage_state",
              "type": "string",
              "value": "intact"
            }
          ]
        },
        {
          "id": 1259,
          "gid": 8,
          "x": 3689.0,
          "y": 56.0,
          "width": 24.0,
          "height": 24.0,
          "visible": true,
          "name": "g708",
          "type": "furniture_piece",
          "properties": [
            {
              "name": "destructible",
              "type": "bool",
              "value": true
            },
            {
              "name": "hp",
              "type": "int",
              "value": 20
            },
            {
              "name": "parent_group",
              "type": "string",
              "value": "g713"
            },
            {
              "name": "piece_id",
              "type": "string",
              "value": "g708"
            },
            {
              "name": "damaged_sprite",
              "type": "string",
              "value": "xcybstr3_08.png"
            },
            {
              "name": "damage_state",
              "type": "string",
              "value": "intact"
            }
          ]
        },
        {
          "id": 1260,
          "gid": 9,
          "x": 3689.0,
          "y": 80.0,
          "width": 24.0,
          "height": 24.0,
          "visible": true,
          "name": "g710",
          "type": "furniture_piece",
          "properties": [
            {
              "name": "destructible",
              "type": "bool",
              "value": true
            },
            {
              "name": "hp",
              "type": "int",
              "value": 20
            },
            {
              "name": "parent_group",
              "type": "string",
              "value": "g713"
            },
            {
              "name": "piece_id",
              "type": "string",
              "value": "g710"
            },
            {
              "name": "damaged_sprite",
              "type": "string",
              "value": "xcybstr3_09.png"
            },
            {
              "name": "damage_state",
              "type": "string",
              "value": "intact"
            }
          ]
        },
        {
          "id": 1261,
          "gid": 10,
          "x": 3689.0,
          "y": 120.0,
          "width": 24.0,
          "height": 40.0,
          "visible": true,
          "name": "g712",
          "type": "furniture_piece",
          "properties": [
            {
              "name": "destructible",
              "type": "bool",
              "value": true
            },
            {
              "name": "hp",
              "type": "int",
              "value": 20
            },
            {
              "name": "parent_group",
              "type": "string",
              "value": "g713"
            },
            {
              "name": "piece_id",
              "type": "string",
              "value": "g712"
            },
            {
              "name": "damaged_sprite",
              "type": "string",
              "value": "xcybstr3_10.png"
            },
            {
              "name": "damage_state",
              "type": "string",
              "value": "intact"
            }
          ]
        },
        {
          "id": 1262,
          "gid": 29,
          "x": 3776.06,
          "y": 93.63,
          "width": 56.0,
          "height": 16.0,
          "visible": true,
          "name": "g598",
          "type": "furniture_piece",
          "properties": [
            {
              "name": "destructible",
              "type": "bool",
              "value": true
            },
            {
              "name": "hp",
              "type": "int",
              "value": 20
            },
            {
              "name": "parent_group",
              "type": "string",
              "value": "g603"
            },
            {
              "name": "piece_id",
              "type": "string",
              "value": "g598"
            },
            {
              "name": "damaged_sprite",
              "type": "string",
              "value": "xcybstr4_09.png"
            },
            {
              "name": "damage_state",
              "type": "string",
              "value": "intact"
            }
          ]
        },
        {
          "id": 1263,
          "gid": 30,
          "x": 3776.06,
          "y": 120.63,
          "width": 28.0,
          "height": 27.0,
          "visible": true,
          "name": "g600",
          "type": "furniture_piece",
          "properties": [
            {
              "name": "destructible",
              "type": "bool",
              "value": true
            },
            {
              "name": "hp",
              "type": "int",
              "value": 20
            },
            {
              "name": "parent_group",
              "type": "string",
              "value": "g603"
            },
            {
              "name": "piece_id",
              "type": "string",
              "value": "g600"
            },
            {
              "name": "damaged_sprite",
              "type": "string",
              "value": "xcybstr4_10.png"
            },
            {
              "name": "damage_state",
              "type": "string",
              "value": "intact"
            }
          ]
        },
        {
          "id": 1264,
          "gid": 28,
          "x": 3794.0,
          "y": 78.64,
          "width": 18.0,
          "height": 17.0,
          "visible": true,
          "name": "g596",
          "type": "furniture_piece",
          "properties": [
            {
              "name": "destructible",
              "type": "bool",
              "value": true
            },
            {
              "name": "hp",
              "type": "int",
              "value": 20
            },
            {
              "name": "parent_group",
              "type": "string",
              "value": "g603"
            },
            {
              "name": "piece_id",
              "type": "string",
              "value": "g596"
            },
            {
              "name": "damaged_sprite",
              "type": "string",
              "value": "xcybstr4_08.png"
            },
            {
              "name": "damage_state",
              "type": "string",
              "value": "intact"
            }
          ]
        },
        {
          "id": 1265,
          "gid": 31,
          "x": 3804.06,
          "y": 120.63,
          "width": 28.0,
          "height": 27.0,
          "visible": true,
          "name": "g602",
          "type": "furniture_piece",
          "properties": [
            {
              "name": "destructible",
              "type": "bool",
              "value": true
            },
            {
              "name": "hp",
              "type": "int",
              "value": 20
            },
            {
              "name": "parent_group",
              "type": "string",
              "value": "g603"
            },
            {
              "name": "piece_id",
              "type": "string",
              "value": "g602"
            },
            {
              "name": "damaged_sprite",
              "type": "string",
              "value": "xcybstr4_11.png"
            },
            {
              "name": "damage_state",
              "type": "string",
              "value": "intact"
            }
          ]
        },
        {
          "id": 1266,
          "gid": 36,
          "x": 3832.06,
          "y": 88.63,
          "width": 16.0,
          "height": 16.0,
          "visible": true,
          "name": "g590",
          "type": "furniture_piece",
          "properties": [
            {
              "name": "destructible",
              "type": "bool",
              "value": true
            },
            {
              "name": "hp",
              "type": "int",
              "value": 20
            },
            {
              "name": "parent_group",
              "type": "string",
              "value": "g603"
            },
            {
              "name": "piece_id",
              "type": "string",
              "value": "g590"
            },
            {
              "name": "damaged_sprite",
              "type": "string",
              "value": "xcybstr4_13.png"
            },
            {
              "name": "damage_state",
              "type": "string",
              "value": "intact"
            }
          ]
        },
        {
          "id": 1267,
          "gid": 36,
          "x": 3832.06,
          "y": 104.63,
          "width": 16.0,
          "height": 16.0,
          "visible": true,
          "name": "g592",
          "type": "furniture_piece",
          "properties": [
            {
              "name": "destructible",
              "type": "bool",
              "value": true
            },
            {
              "name": "hp",
              "type": "int",
              "value": 20
            },
            {
              "name": "parent_group",
              "type": "string",
              "value": "g603"
            },
            {
              "name": "piece_id",
              "type": "string",
              "value": "g592"
            },
            {
              "name": "damaged_sprite",
              "type": "string",
              "value": "xcybstr4_13.png"
            },
            {
              "name": "damage_state",
              "type": "string",
              "value": "intact"
            }
          ]
        },
        {
          "id": 1268,
          "gid": 36,
          "x": 3832.06,
          "y": 120.63,
          "width": 16.0,
          "height": 16.0,
          "visible": true,
          "name": "g594",
          "type": "furniture_piece",
          "properties": [
            {
              "name": "destructible",
              "type": "bool",
              "value": true
            },
            {
              "name": "hp",
              "type": "int",
              "value": 20
            },
            {
              "name": "parent_group",
              "type": "string",
              "value": "g603"
            },
            {
              "name": "piece_id",
              "type": "string",
              "value": "g594"
            },
            {
              "name": "damaged_sprite",
              "type": "string",
              "value": "xcybstr4_13.png"
            },
            {
              "name": "damage_state",
              "type": "string",
              "value": "intact"
            }
          ]
        },
        {
          "id": 1269,
          "gid": 26,
          "x": 3906.0,
          "y": 120.63,
          "width": 24.0,
          "height": 63.0,
          "visible": true,
          "name": "g525",
          "type": "furniture_piece",
          "properties": [
            {
              "name": "destructible",
              "type": "bool",
              "value": true
            },
            {
              "name": "hp",
              "type": "int",
              "value": 20
            },
            {
              "name": "parent_group",
              "type": "string",
              "value": "g532"
            },
            {
              "name": "piece_id",
              "type": "string",
              "value": "g525"
            },
            {
              "name": "damaged_sprite",
              "type": "string",
              "value": "xcybstr4_03.png"
            },
            {
              "name": "damage_state",
              "type": "string",
              "value": "intact"
            }
          ]
        },
        {
          "id": 1270,
          "gid": 26,
          "x": 3930.0,
          "y": 120.63,
          "width": 24.0,
          "height": 63.0,
          "visible": true,
          "name": "g527",
          "type": "furniture_piece",
          "properties": [
            {
              "name": "destructible",
              "type": "bool",
              "value": true
            },
            {
              "name": "hp",
              "type": "int",
              "value": 20
            },
            {
              "name": "parent_group",
              "type": "string",
              "value": "g532"
            },
            {
              "name": "piece_id",
              "type": "string",
              "value": "g527"
            },
            {
              "name": "damaged_sprite",
              "type": "string",
              "value": "xcybstr4_03.png"
            },
            {
              "name": "damage_state",
              "type": "string",
              "value": "intact"
            }
          ]
        },
        {
          "id": 1271,
          "gid": 26,
          "x": 3954.0,
          "y": 120.63,
          "width": 24.0,
          "height": 63.0,
          "visible": true,
          "name": "g529",
          "type": "furniture_piece",
          "properties": [
            {
              "name": "destructible",
              "type": "bool",
              "value": true
            },
            {
              "name": "hp",
              "type": "int",
              "value": 20
            },
            {
              "name": "parent_group",
              "type": "string",
              "value": "g532"
            },
            {
              "name": "piece_id",
              "type": "string",
              "value": "g529"
            },
            {
              "name": "damaged_sprite",
              "type": "string",
              "value": "xcybstr4_03.png"
            },
            {
              "name": "damage_state",
              "type": "string",
              "value": "intact"
            }
          ]
        },
        {
          "id": 1272,
          "gid": 26,
          "x": 3978.0,
          "y": 120.63,
          "width": 24.0,
          "height": 63.0,
          "visible": true,
          "name": "g531",
          "type": "furniture_piece",
          "properties": [
            {
              "name": "destructible",
              "type": "bool",
              "value": true
            },
            {
              "name": "hp",
              "type": "int",
              "value": 20
            },
            {
              "name": "parent_group",
              "type": "string",
              "value": "g532"
            },
            {
              "name": "piece_id",
              "type": "string",
              "value": "g531"
            },
            {
              "name": "damaged_sprite",
              "type": "string",
              "value": "xcybstr4_03.png"
            },
            {
              "name": "damage_state",
              "type": "string",
              "value": "intact"
            }
          ]
        }
      ],
      "opacity": 1,
      "visible": true,
      "x": 0,
      "y": 0
    },
    {
      "id": 4,
      "type": "objectgroup",
      "name": "sol_0",
      "parallaxx": 1.0,
      "parallaxy": 0.0,
      "objects": [
        {
          "id": 1273,
          "gid": 1,
          "x": 128.0,
          "y": 174.0,
          "width": 128.0,
          "height": 62.0,
          "visible": true,
          "name": "",
          "type": "floor"
        },
        {
          "id": 1274,
          "gid": 1,
          "x": 128.0,
          "y": 174.0,
          "width": 128.0,
          "height": 62.0,
          "visible": true,
          "name": "",
          "type": "floor"
        },
        {
          "id": 1275,
          "gid": 1,
          "x": 256.0,
          "y": 174.0,
          "width": 128.0,
          "height": 62.0,
          "visible": true,
          "name": "",
          "type": "floor"
        },
        {
          "id": 1276,
          "gid": 1,
          "x": 256.0,
          "y": 174.0,
          "width": 128.0,
          "height": 62.0,
          "visible": true,
          "name": "",
          "type": "floor"
        },
        {
          "id": 1277,
          "gid": 1,
          "x": 384.0,
          "y": 174.0,
          "width": 128.0,
          "height": 62.0,
          "visible": true,
          "name": "",
          "type": "floor"
        },
        {
          "id": 1278,
          "gid": 1,
          "x": 512.0,
          "y": 174.0,
          "width": 128.0,
          "height": 62.0,
          "visible": true,
          "name": "",
          "type": "floor"
        },
        {
          "id": 1279,
          "gid": 1,
          "x": 640.0,
          "y": 174.0,
          "width": 128.0,
          "height": 62.0,
          "visible": true,
          "name": "",
          "type": "floor"
        },
        {
          "id": 1280,
          "gid": 1,
          "x": 768.0,
          "y": 174.0,
          "width": 128.0,
          "height": 62.0,
          "visible": true,
          "name": "",
          "type": "floor"
        },
        {
          "id": 1281,
          "gid": 1,
          "x": 896.0,
          "y": 174.0,
          "width": 128.0,
          "height": 62.0,
          "visible": true,
          "name": "",
          "type": "floor"
        },
        {
          "id": 1282,
          "gid": 1,
          "x": 1024.0,
          "y": 174.0,
          "width": 128.0,
          "height": 62.0,
          "visible": true,
          "name": "",
          "type": "floor"
        },
        {
          "id": 1283,
          "gid": 1,
          "x": 1152.0,
          "y": 174.0,
          "width": 128.0,
          "height": 62.0,
          "visible": true,
          "name": "",
          "type": "floor"
        },
        {
          "id": 1284,
          "gid": 1,
          "x": 1280.0,
          "y": 174.0,
          "width": 128.0,
          "height": 62.0,
          "visible": true,
          "name": "",
          "type": "floor"
        },
        {
          "id": 1285,
          "gid": 1,
          "x": 1408.0,
          "y": 174.0,
          "width": 128.0,
          "height": 62.0,
          "visible": true,
          "name": "",
          "type": "floor"
        },
        {
          "id": 1286,
          "gid": 1,
          "x": 1536.0,
          "y": 174.0,
          "width": 128.0,
          "height": 62.0,
          "visible": true,
          "name": "",
          "type": "floor"
        },
        {
          "id": 1287,
          "gid": 1,
          "x": 1664.0,
          "y": 174.0,
          "width": 128.0,
          "height": 62.0,
          "visible": true,
          "name": "",
          "type": "floor"
        },
        {
          "id": 1288,
          "gid": 1,
          "x": 1792.0,
          "y": 174.0,
          "width": 128.0,
          "height": 62.0,
          "visible": true,
          "name": "",
          "type": "floor"
        },
        {
          "id": 1289,
          "gid": 1,
          "x": 1920.0,
          "y": 174.0,
          "width": 128.0,
          "height": 62.0,
          "visible": true,
          "name": "",
          "type": "floor"
        },
        {
          "id": 1290,
          "gid": 1,
          "x": 2048.0,
          "y": 174.0,
          "width": 128.0,
          "height": 62.0,
          "visible": true,
          "name": "",
          "type": "floor"
        },
        {
          "id": 1291,
          "gid": 1,
          "x": 2176.0,
          "y": 174.0,
          "width": 128.0,
          "height": 62.0,
          "visible": true,
          "name": "",
          "type": "floor"
        },
        {
          "id": 1292,
          "gid": 1,
          "x": 2304.0,
          "y": 174.0,
          "width": 128.0,
          "height": 62.0,
          "visible": true,
          "name": "",
          "type": "floor"
        },
        {
          "id": 1293,
          "gid": 1,
          "x": 2432.0,
          "y": 174.0,
          "width": 128.0,
          "height": 62.0,
          "visible": true,
          "name": "",
          "type": "floor"
        },
        {
          "id": 1294,
          "gid": 1,
          "x": 2560.0,
          "y": 174.0,
          "width": 128.0,
          "height": 62.0,
          "visible": true,
          "name": "",
          "type": "floor"
        },
        {
          "id": 1295,
          "gid": 1,
          "x": 2688.0,
          "y": 174.0,
          "width": 128.0,
          "height": 62.0,
          "visible": true,
          "name": "",
          "type": "floor"
        },
        {
          "id": 1296,
          "gid": 1,
          "x": 2816.0,
          "y": 174.0,
          "width": 128.0,
          "height": 62.0,
          "visible": true,
          "name": "",
          "type": "floor"
        },
        {
          "id": 1297,
          "gid": 1,
          "x": 2944.0,
          "y": 174.0,
          "width": 128.0,
          "height": 62.0,
          "visible": true,
          "name": "",
          "type": "floor"
        },
        {
          "id": 1298,
          "gid": 1,
          "x": 3072.0,
          "y": 174.0,
          "width": 128.0,
          "height": 62.0,
          "visible": true,
          "name": "",
          "type": "floor"
        },
        {
          "id": 1299,
          "gid": 1,
          "x": 3200.0,
          "y": 174.0,
          "width": 128.0,
          "height": 62.0,
          "visible": true,
          "name": "",
          "type": "floor"
        },
        {
          "id": 1300,
          "gid": 1,
          "x": 3328.0,
          "y": 174.0,
          "width": 128.0,
          "height": 62.0,
          "visible": true,
          "name": "",
          "type": "floor"
        },
        {
          "id": 1301,
          "gid": 1,
          "x": 3456.0,
          "y": 174.0,
          "width": 128.0,
          "height": 62.0,
          "visible": true,
          "name": "",
          "type": "floor"
        },
        {
          "id": 1302,
          "gid": 1,
          "x": 3584.0,
          "y": 174.0,
          "width": 128.0,
          "height": 62.0,
          "visible": true,
          "name": "",
          "type": "floor"
        },
        {
          "id": 1303,
          "gid": 1,
          "x": 3712.0,
          "y": 174.0,
          "width": 128.0,
          "height": 62.0,
          "visible": true,
          "name": "",
          "type": "floor"
        },
        {
          "id": 1304,
          "gid": 1,
          "x": 3840.0,
          "y": 174.0,
          "width": 128.0,
          "height": 62.0,
          "visible": true,
          "name": "",
          "type": "floor"
        },
        {
          "id": 1305,
          "gid": 1,
          "x": 3968.0,
          "y": 174.0,
          "width": 128.0,
          "height": 62.0,
          "visible": true,
          "name": "",
          "type": "floor"
        }
      ],
      "opacity": 1,
      "visible": true,
      "x": 0,
      "y": 0
    },
    {
      "id": 5,
      "type": "objectgroup",
      "name": "frontdesk_fg",
      "parallaxx": 1.15,
      "parallaxy": 0.0,
      "objects": [
        {
          "id": 1306,
          "gid": 38,
          "x": 122.96,
          "y": 173.0,
          "width": 21.0,
          "height": 36.0,
          "visible": true,
          "name": "g814",
          "type": "desk_piece",
          "properties": [
            {
              "name": "destructible",
              "type": "bool",
              "value": true
            },
            {
              "name": "hp",
              "type": "int",
              "value": 20
            },
            {
              "name": "parent_group",
              "type": "string",
              "value": "g823"
            },
            {
              "name": "piece_id",
              "type": "string",
              "value": "g814"
            },
            {
              "name": "damaged_sprite",
              "type": "string",
              "value": "xcybstr5_05.png"
            },
            {
              "name": "damage_state",
              "type": "string",
              "value": "intact"
            }
          ]
        },
        {
          "id": 1307,
          "gid": 40,
          "x": 143.96,
          "y": 173.0,
          "width": 65.0,
          "height": 35.0,
          "visible": true,
          "name": "g818",
          "type": "desk_piece",
          "properties": [
            {
              "name": "destructible",
              "type": "bool",
              "value": true
            },
            {
              "name": "hp",
              "type": "int",
              "value": 20
            },
            {
              "name": "parent_group",
              "type": "string",
              "value": "g823"
            },
            {
              "name": "piece_id",
              "type": "string",
              "value": "g818"
            },
            {
              "name": "damaged_sprite",
              "type": "string",
              "value": "xcybstr5_07.png"
            },
            {
              "name": "damage_state",
              "type": "string",
              "value": "intact"
            }
          ]
        },
        {
          "id": 1308,
          "gid": 39,
          "x": 143.96,
          "y": 137.0,
          "width": 48.0,
          "height": 37.0,
          "visible": true,
          "name": "g816",
          "type": "desk_piece",
          "properties": [
            {
              "name": "destructible",
              "type": "bool",
              "value": true
            },
            {
              "name": "hp",
              "type": "int",
              "value": 20
            },
            {
              "name": "parent_group",
              "type": "string",
              "value": "g823"
            },
            {
              "name": "piece_id",
              "type": "string",
              "value": "g816"
            },
            {
              "name": "damaged_sprite",
              "type": "string",
              "value": "xcybstr5_06.png"
            },
            {
              "name": "damage_state",
              "type": "string",
              "value": "intact"
            }
          ]
        },
        {
          "id": 1309,
          "gid": 41,
          "x": 200.98,
          "y": 173.0,
          "width": 28.0,
          "height": 48.0,
          "visible": true,
          "name": "g820",
          "type": "desk_piece",
          "properties": [
            {
              "name": "destructible",
              "type": "bool",
              "value": true
            },
            {
              "name": "hp",
              "type": "int",
              "value": 20
            },
            {
              "name": "parent_group",
              "type": "string",
              "value": "g823"
            },
            {
              "name": "piece_id",
              "type": "string",
              "value": "g820"
            },
            {
              "name": "damaged_sprite",
              "type": "string",
              "value": "xcybstr5_08.png"
            },
            {
              "name": "damage_state",
              "type": "string",
              "value": "intact"
            }
          ]
        },
        {
          "id": 1310,
          "gid": 42,
          "x": 228.98,
          "y": 173.0,
          "width": 34.0,
          "height": 24.0,
          "visible": true,
          "name": "g822",
          "type": "desk_piece",
          "properties": [
            {
              "name": "destructible",
              "type": "bool",
              "value": true
            },
            {
              "name": "hp",
              "type": "int",
              "value": 20
            },
            {
              "name": "parent_group",
              "type": "string",
              "value": "g823"
            },
            {
              "name": "piece_id",
              "type": "string",
              "value": "g822"
            },
            {
              "name": "damaged_sprite",
              "type": "string",
              "value": "xcybstr5_09.png"
            },
            {
              "name": "damage_state",
              "type": "string",
              "value": "intact"
            }
          ]
        },
        {
          "id": 1311,
          "gid": 38,
          "x": 562.98,
          "y": 173.0,
          "width": 21.0,
          "height": 36.0,
          "visible": true,
          "name": "g894",
          "type": "desk_piece",
          "properties": [
            {
              "name": "destructible",
              "type": "bool",
              "value": true
            },
            {
              "name": "hp",
              "type": "int",
              "value": 20
            },
            {
              "name": "parent_group",
              "type": "string",
              "value": "g903"
            },
            {
              "name": "piece_id",
              "type": "string",
              "value": "g894"
            },
            {
              "name": "damaged_sprite",
              "type": "string",
              "value": "xcybstr5_05.png"
            },
            {
              "name": "damage_state",
              "type": "string",
              "value": "intact"
            }
          ]
        },
        {
          "id": 1312,
          "gid": 40,
          "x": 583.98,
          "y": 173.0,
          "width": 65.0,
          "height": 35.0,
          "visible": true,
          "name": "g898",
          "type": "desk_piece",
          "properties": [
            {
              "name": "destructible",
              "type": "bool",
              "value": true
            },
            {
              "name": "hp",
              "type": "int",
              "value": 20
            },
            {
              "name": "parent_group",
              "type": "string",
              "value": "g903"
            },
            {
              "name": "piece_id",
              "type": "string",
              "value": "g898"
            },
            {
              "name": "damaged_sprite",
              "type": "string",
              "value": "xcybstr5_07.png"
            },
            {
              "name": "damage_state",
              "type": "string",
              "value": "intact"
            }
          ]
        },
        {
          "id": 1313,
          "gid": 39,
          "x": 583.98,
          "y": 137.0,
          "width": 48.0,
          "height": 37.0,
          "visible": true,
          "name": "g896",
          "type": "desk_piece",
          "properties": [
            {
              "name": "destructible",
              "type": "bool",
              "value": true
            },
            {
              "name": "hp",
              "type": "int",
              "value": 20
            },
            {
              "name": "parent_group",
              "type": "string",
              "value": "g903"
            },
            {
              "name": "piece_id",
              "type": "string",
              "value": "g896"
            },
            {
              "name": "damaged_sprite",
              "type": "string",
              "value": "xcybstr5_06.png"
            },
            {
              "name": "damage_state",
              "type": "string",
              "value": "intact"
            }
          ]
        },
        {
          "id": 1314,
          "gid": 41,
          "x": 640.99,
          "y": 173.0,
          "width": 28.0,
          "height": 48.0,
          "visible": true,
          "name": "g900",
          "type": "desk_piece",
          "properties": [
            {
              "name": "destructible",
              "type": "bool",
              "value": true
            },
            {
              "name": "hp",
              "type": "int",
              "value": 20
            },
            {
              "name": "parent_group",
              "type": "string",
              "value": "g903"
            },
            {
              "name": "piece_id",
              "type": "string",
              "value": "g900"
            },
            {
              "name": "damaged_sprite",
              "type": "string",
              "value": "xcybstr5_08.png"
            },
            {
              "name": "damage_state",
              "type": "string",
              "value": "intact"
            }
          ]
        },
        {
          "id": 1315,
          "gid": 42,
          "x": 669.0,
          "y": 173.0,
          "width": 34.0,
          "height": 24.0,
          "visible": true,
          "name": "g902",
          "type": "desk_piece",
          "properties": [
            {
              "name": "destructible",
              "type": "bool",
              "value": true
            },
            {
              "name": "hp",
              "type": "int",
              "value": 20
            },
            {
              "name": "parent_group",
              "type": "string",
              "value": "g903"
            },
            {
              "name": "piece_id",
              "type": "string",
              "value": "g902"
            },
            {
              "name": "damaged_sprite",
              "type": "string",
              "value": "xcybstr5_09.png"
            },
            {
              "name": "damage_state",
              "type": "string",
              "value": "intact"
            }
          ]
        },
        {
          "id": 1316,
          "gid": 38,
          "x": 1003.0,
          "y": 173.0,
          "width": 21.0,
          "height": 36.0,
          "visible": true,
          "name": "g884",
          "type": "desk_piece",
          "properties": [
            {
              "name": "destructible",
              "type": "bool",
              "value": true
            },
            {
              "name": "hp",
              "type": "int",
              "value": 20
            },
            {
              "name": "parent_group",
              "type": "string",
              "value": "g893"
            },
            {
              "name": "piece_id",
              "type": "string",
              "value": "g884"
            },
            {
              "name": "damaged_sprite",
              "type": "string",
              "value": "xcybstr5_05.png"
            },
            {
              "name": "damage_state",
              "type": "string",
              "value": "intact"
            }
          ]
        },
        {
          "id": 1317,
          "gid": 40,
          "x": 1024.0,
          "y": 173.0,
          "width": 65.0,
          "height": 35.0,
          "visible": true,
          "name": "g888",
          "type": "desk_piece",
          "properties": [
            {
              "name": "destructible",
              "type": "bool",
              "value": true
            },
            {
              "name": "hp",
              "type": "int",
              "value": 20
            },
            {
              "name": "parent_group",
              "type": "string",
              "value": "g893"
            },
            {
              "name": "piece_id",
              "type": "string",
              "value": "g888"
            },
            {
              "name": "damaged_sprite",
              "type": "string",
              "value": "xcybstr5_07.png"
            },
            {
              "name": "damage_state",
              "type": "string",
              "value": "intact"
            }
          ]
        },
        {
          "id": 1318,
          "gid": 39,
          "x": 1024.0,
          "y": 137.0,
          "width": 48.0,
          "height": 37.0,
          "visible": true,
          "name": "g886",
          "type": "desk_piece",
          "properties": [
            {
              "name": "destructible",
              "type": "bool",
              "value": true
            },
            {
              "name": "hp",
              "type": "int",
              "value": 20
            },
            {
              "name": "parent_group",
              "type": "string",
              "value": "g893"
            },
            {
              "name": "piece_id",
              "type": "string",
              "value": "g886"
            },
            {
              "name": "damaged_sprite",
              "type": "string",
              "value": "xcybstr5_06.png"
            },
            {
              "name": "damage_state",
              "type": "string",
              "value": "intact"
            }
          ]
        },
        {
          "id": 1319,
          "gid": 41,
          "x": 1081.01,
          "y": 173.0,
          "width": 28.0,
          "height": 48.0,
          "visible": true,
          "name": "g890",
          "type": "desk_piece",
          "properties": [
            {
              "name": "destructible",
              "type": "bool",
              "value": true
            },
            {
              "name": "hp",
              "type": "int",
              "value": 20
            },
            {
              "name": "parent_group",
              "type": "string",
              "value": "g893"
            },
            {
              "name": "piece_id",
              "type": "string",
              "value": "g890"
            },
            {
              "name": "damaged_sprite",
              "type": "string",
              "value": "xcybstr5_08.png"
            },
            {
              "name": "damage_state",
              "type": "string",
              "value": "intact"
            }
          ]
        },
        {
          "id": 1320,
          "gid": 42,
          "x": 1109.01,
          "y": 173.0,
          "width": 34.0,
          "height": 24.0,
          "visible": true,
          "name": "g892",
          "type": "desk_piece",
          "properties": [
            {
              "name": "destructible",
              "type": "bool",
              "value": true
            },
            {
              "name": "hp",
              "type": "int",
              "value": 20
            },
            {
              "name": "parent_group",
              "type": "string",
              "value": "g893"
            },
            {
              "name": "piece_id",
              "type": "string",
              "value": "g892"
            },
            {
              "name": "damaged_sprite",
              "type": "string",
              "value": "xcybstr5_09.png"
            },
            {
              "name": "damage_state",
              "type": "string",
              "value": "intact"
            }
          ]
        },
        {
          "id": 1321,
          "gid": 38,
          "x": 1443.02,
          "y": 173.0,
          "width": 21.0,
          "height": 36.0,
          "visible": true,
          "name": "g874",
          "type": "desk_piece",
          "properties": [
            {
              "name": "destructible",
              "type": "bool",
              "value": true
            },
            {
              "name": "hp",
              "type": "int",
              "value": 20
            },
            {
              "name": "parent_group",
              "type": "string",
              "value": "g883"
            },
            {
              "name": "piece_id",
              "type": "string",
              "value": "g874"
            },
            {
              "name": "damaged_sprite",
              "type": "string",
              "value": "xcybstr5_05.png"
            },
            {
              "name": "damage_state",
              "type": "string",
              "value": "intact"
            }
          ]
        },
        {
          "id": 1322,
          "gid": 40,
          "x": 1464.02,
          "y": 173.0,
          "width": 65.0,
          "height": 35.0,
          "visible": true,
          "name": "g878",
          "type": "desk_piece",
          "properties": [
            {
              "name": "destructible",
              "type": "bool",
              "value": true
            },
            {
              "name": "hp",
              "type": "int",
              "value": 20
            },
            {
              "name": "parent_group",
              "type": "string",
              "value": "g883"
            },
            {
              "name": "piece_id",
              "type": "string",
              "value": "g878"
            },
            {
              "name": "damaged_sprite",
              "type": "string",
              "value": "xcybstr5_07.png"
            },
            {
              "name": "damage_state",
              "type": "string",
              "value": "intact"
            }
          ]
        },
        {
          "id": 1323,
          "gid": 39,
          "x": 1464.02,
          "y": 137.0,
          "width": 48.0,
          "height": 37.0,
          "visible": true,
          "name": "g876",
          "type": "desk_piece",
          "properties": [
            {
              "name": "destructible",
              "type": "bool",
              "value": true
            },
            {
              "name": "hp",
              "type": "int",
              "value": 20
            },
            {
              "name": "parent_group",
              "type": "string",
              "value": "g883"
            },
            {
              "name": "piece_id",
              "type": "string",
              "value": "g876"
            },
            {
              "name": "damaged_sprite",
              "type": "string",
              "value": "xcybstr5_06.png"
            },
            {
              "name": "damage_state",
              "type": "string",
              "value": "intact"
            }
          ]
        },
        {
          "id": 1324,
          "gid": 41,
          "x": 1521.03,
          "y": 173.0,
          "width": 28.0,
          "height": 48.0,
          "visible": true,
          "name": "g880",
          "type": "desk_piece",
          "properties": [
            {
              "name": "destructible",
              "type": "bool",
              "value": true
            },
            {
              "name": "hp",
              "type": "int",
              "value": 20
            },
            {
              "name": "parent_group",
              "type": "string",
              "value": "g883"
            },
            {
              "name": "piece_id",
              "type": "string",
              "value": "g880"
            },
            {
              "name": "damaged_sprite",
              "type": "string",
              "value": "xcybstr5_08.png"
            },
            {
              "name": "damage_state",
              "type": "string",
              "value": "intact"
            }
          ]
        },
        {
          "id": 1325,
          "gid": 42,
          "x": 1549.03,
          "y": 173.0,
          "width": 34.0,
          "height": 24.0,
          "visible": true,
          "name": "g882",
          "type": "desk_piece",
          "properties": [
            {
              "name": "destructible",
              "type": "bool",
              "value": true
            },
            {
              "name": "hp",
              "type": "int",
              "value": 20
            },
            {
              "name": "parent_group",
              "type": "string",
              "value": "g883"
            },
            {
              "name": "piece_id",
              "type": "string",
              "value": "g882"
            },
            {
              "name": "damaged_sprite",
              "type": "string",
              "value": "xcybstr5_09.png"
            },
            {
              "name": "damage_state",
              "type": "string",
              "value": "intact"
            }
          ]
        },
        {
          "id": 1326,
          "gid": 38,
          "x": 1883.04,
          "y": 173.0,
          "width": 21.0,
          "height": 36.0,
          "visible": true,
          "name": "g864",
          "type": "desk_piece",
          "properties": [
            {
              "name": "destructible",
              "type": "bool",
              "value": true
            },
            {
              "name": "hp",
              "type": "int",
              "value": 20
            },
            {
              "name": "parent_group",
              "type": "string",
              "value": "g873"
            },
            {
              "name": "piece_id",
              "type": "string",
              "value": "g864"
            },
            {
              "name": "damaged_sprite",
              "type": "string",
              "value": "xcybstr5_05.png"
            },
            {
              "name": "damage_state",
              "type": "string",
              "value": "intact"
            }
          ]
        },
        {
          "id": 1327,
          "gid": 40,
          "x": 1904.04,
          "y": 173.0,
          "width": 65.0,
          "height": 35.0,
          "visible": true,
          "name": "g868",
          "type": "desk_piece",
          "properties": [
            {
              "name": "destructible",
              "type": "bool",
              "value": true
            },
            {
              "name": "hp",
              "type": "int",
              "value": 20
            },
            {
              "name": "parent_group",
              "type": "string",
              "value": "g873"
            },
            {
              "name": "piece_id",
              "type": "string",
              "value": "g868"
            },
            {
              "name": "damaged_sprite",
              "type": "string",
              "value": "xcybstr5_07.png"
            },
            {
              "name": "damage_state",
              "type": "string",
              "value": "intact"
            }
          ]
        },
        {
          "id": 1328,
          "gid": 39,
          "x": 1904.04,
          "y": 137.0,
          "width": 48.0,
          "height": 37.0,
          "visible": true,
          "name": "g866",
          "type": "desk_piece",
          "properties": [
            {
              "name": "destructible",
              "type": "bool",
              "value": true
            },
            {
              "name": "hp",
              "type": "int",
              "value": 20
            },
            {
              "name": "parent_group",
              "type": "string",
              "value": "g873"
            },
            {
              "name": "piece_id",
              "type": "string",
              "value": "g866"
            },
            {
              "name": "damaged_sprite",
              "type": "string",
              "value": "xcybstr5_06.png"
            },
            {
              "name": "damage_state",
              "type": "string",
              "value": "intact"
            }
          ]
        },
        {
          "id": 1329,
          "gid": 41,
          "x": 1961.05,
          "y": 173.0,
          "width": 28.0,
          "height": 48.0,
          "visible": true,
          "name": "g870",
          "type": "desk_piece",
          "properties": [
            {
              "name": "destructible",
              "type": "bool",
              "value": true
            },
            {
              "name": "hp",
              "type": "int",
              "value": 20
            },
            {
              "name": "parent_group",
              "type": "string",
              "value": "g873"
            },
            {
              "name": "piece_id",
              "type": "string",
              "value": "g870"
            },
            {
              "name": "damaged_sprite",
              "type": "string",
              "value": "xcybstr5_08.png"
            },
            {
              "name": "damage_state",
              "type": "string",
              "value": "intact"
            }
          ]
        },
        {
          "id": 1330,
          "gid": 42,
          "x": 1989.05,
          "y": 173.0,
          "width": 34.0,
          "height": 24.0,
          "visible": true,
          "name": "g872",
          "type": "desk_piece",
          "properties": [
            {
              "name": "destructible",
              "type": "bool",
              "value": true
            },
            {
              "name": "hp",
              "type": "int",
              "value": 20
            },
            {
              "name": "parent_group",
              "type": "string",
              "value": "g873"
            },
            {
              "name": "piece_id",
              "type": "string",
              "value": "g872"
            },
            {
              "name": "damaged_sprite",
              "type": "string",
              "value": "xcybstr5_09.png"
            },
            {
              "name": "damage_state",
              "type": "string",
              "value": "intact"
            }
          ]
        },
        {
          "id": 1331,
          "gid": 38,
          "x": 2323.06,
          "y": 173.0,
          "width": 21.0,
          "height": 36.0,
          "visible": true,
          "name": "g854",
          "type": "desk_piece",
          "properties": [
            {
              "name": "destructible",
              "type": "bool",
              "value": true
            },
            {
              "name": "hp",
              "type": "int",
              "value": 20
            },
            {
              "name": "parent_group",
              "type": "string",
              "value": "g863"
            },
            {
              "name": "piece_id",
              "type": "string",
              "value": "g854"
            },
            {
              "name": "damaged_sprite",
              "type": "string",
              "value": "xcybstr5_05.png"
            },
            {
              "name": "damage_state",
              "type": "string",
              "value": "intact"
            }
          ]
        },
        {
          "id": 1332,
          "gid": 40,
          "x": 2344.06,
          "y": 173.0,
          "width": 65.0,
          "height": 35.0,
          "visible": true,
          "name": "g858",
          "type": "desk_piece",
          "properties": [
            {
              "name": "destructible",
              "type": "bool",
              "value": true
            },
            {
              "name": "hp",
              "type": "int",
              "value": 20
            },
            {
              "name": "parent_group",
              "type": "string",
              "value": "g863"
            },
            {
              "name": "piece_id",
              "type": "string",
              "value": "g858"
            },
            {
              "name": "damaged_sprite",
              "type": "string",
              "value": "xcybstr5_07.png"
            },
            {
              "name": "damage_state",
              "type": "string",
              "value": "intact"
            }
          ]
        },
        {
          "id": 1333,
          "gid": 39,
          "x": 2344.06,
          "y": 137.0,
          "width": 48.0,
          "height": 37.0,
          "visible": true,
          "name": "g856",
          "type": "desk_piece",
          "properties": [
            {
              "name": "destructible",
              "type": "bool",
              "value": true
            },
            {
              "name": "hp",
              "type": "int",
              "value": 20
            },
            {
              "name": "parent_group",
              "type": "string",
              "value": "g863"
            },
            {
              "name": "piece_id",
              "type": "string",
              "value": "g856"
            },
            {
              "name": "damaged_sprite",
              "type": "string",
              "value": "xcybstr5_06.png"
            },
            {
              "name": "damage_state",
              "type": "string",
              "value": "intact"
            }
          ]
        },
        {
          "id": 1334,
          "gid": 41,
          "x": 2401.07,
          "y": 173.0,
          "width": 28.0,
          "height": 48.0,
          "visible": true,
          "name": "g860",
          "type": "desk_piece",
          "properties": [
            {
              "name": "destructible",
              "type": "bool",
              "value": true
            },
            {
              "name": "hp",
              "type": "int",
              "value": 20
            },
            {
              "name": "parent_group",
              "type": "string",
              "value": "g863"
            },
            {
              "name": "piece_id",
              "type": "string",
              "value": "g860"
            },
            {
              "name": "damaged_sprite",
              "type": "string",
              "value": "xcybstr5_08.png"
            },
            {
              "name": "damage_state",
              "type": "string",
              "value": "intact"
            }
          ]
        },
        {
          "id": 1335,
          "gid": 42,
          "x": 2429.07,
          "y": 173.0,
          "width": 34.0,
          "height": 24.0,
          "visible": true,
          "name": "g862",
          "type": "desk_piece",
          "properties": [
            {
              "name": "destructible",
              "type": "bool",
              "value": true
            },
            {
              "name": "hp",
              "type": "int",
              "value": 20
            },
            {
              "name": "parent_group",
              "type": "string",
              "value": "g863"
            },
            {
              "name": "piece_id",
              "type": "string",
              "value": "g862"
            },
            {
              "name": "damaged_sprite",
              "type": "string",
              "value": "xcybstr5_09.png"
            },
            {
              "name": "damage_state",
              "type": "string",
              "value": "intact"
            }
          ]
        },
        {
          "id": 1336,
          "gid": 38,
          "x": 2763.08,
          "y": 173.0,
          "width": 21.0,
          "height": 36.0,
          "visible": true,
          "name": "g844",
          "type": "desk_piece",
          "properties": [
            {
              "name": "destructible",
              "type": "bool",
              "value": true
            },
            {
              "name": "hp",
              "type": "int",
              "value": 20
            },
            {
              "name": "parent_group",
              "type": "string",
              "value": "g853"
            },
            {
              "name": "piece_id",
              "type": "string",
              "value": "g844"
            },
            {
              "name": "damaged_sprite",
              "type": "string",
              "value": "xcybstr5_05.png"
            },
            {
              "name": "damage_state",
              "type": "string",
              "value": "intact"
            }
          ]
        },
        {
          "id": 1337,
          "gid": 40,
          "x": 2784.08,
          "y": 173.0,
          "width": 65.0,
          "height": 35.0,
          "visible": true,
          "name": "g848",
          "type": "desk_piece",
          "properties": [
            {
              "name": "destructible",
              "type": "bool",
              "value": true
            },
            {
              "name": "hp",
              "type": "int",
              "value": 20
            },
            {
              "name": "parent_group",
              "type": "string",
              "value": "g853"
            },
            {
              "name": "piece_id",
              "type": "string",
              "value": "g848"
            },
            {
              "name": "damaged_sprite",
              "type": "string",
              "value": "xcybstr5_07.png"
            },
            {
              "name": "damage_state",
              "type": "string",
              "value": "intact"
            }
          ]
        },
        {
          "id": 1338,
          "gid": 39,
          "x": 2784.08,
          "y": 137.0,
          "width": 48.0,
          "height": 37.0,
          "visible": true,
          "name": "g846",
          "type": "desk_piece",
          "properties": [
            {
              "name": "destructible",
              "type": "bool",
              "value": true
            },
            {
              "name": "hp",
              "type": "int",
              "value": 20
            },
            {
              "name": "parent_group",
              "type": "string",
              "value": "g853"
            },
            {
              "name": "piece_id",
              "type": "string",
              "value": "g846"
            },
            {
              "name": "damaged_sprite",
              "type": "string",
              "value": "xcybstr5_06.png"
            },
            {
              "name": "damage_state",
              "type": "string",
              "value": "intact"
            }
          ]
        },
        {
          "id": 1339,
          "gid": 41,
          "x": 2841.09,
          "y": 173.0,
          "width": 28.0,
          "height": 48.0,
          "visible": true,
          "name": "g850",
          "type": "desk_piece",
          "properties": [
            {
              "name": "destructible",
              "type": "bool",
              "value": true
            },
            {
              "name": "hp",
              "type": "int",
              "value": 20
            },
            {
              "name": "parent_group",
              "type": "string",
              "value": "g853"
            },
            {
              "name": "piece_id",
              "type": "string",
              "value": "g850"
            },
            {
              "name": "damaged_sprite",
              "type": "string",
              "value": "xcybstr5_08.png"
            },
            {
              "name": "damage_state",
              "type": "string",
              "value": "intact"
            }
          ]
        },
        {
          "id": 1340,
          "gid": 42,
          "x": 2869.09,
          "y": 173.0,
          "width": 34.0,
          "height": 24.0,
          "visible": true,
          "name": "g852",
          "type": "desk_piece",
          "properties": [
            {
              "name": "destructible",
              "type": "bool",
              "value": true
            },
            {
              "name": "hp",
              "type": "int",
              "value": 20
            },
            {
              "name": "parent_group",
              "type": "string",
              "value": "g853"
            },
            {
              "name": "piece_id",
              "type": "string",
              "value": "g852"
            },
            {
              "name": "damaged_sprite",
              "type": "string",
              "value": "xcybstr5_09.png"
            },
            {
              "name": "damage_state",
              "type": "string",
              "value": "intact"
            }
          ]
        },
        {
          "id": 1341,
          "gid": 38,
          "x": 3203.09,
          "y": 173.0,
          "width": 21.0,
          "height": 36.0,
          "visible": true,
          "name": "g834",
          "type": "desk_piece",
          "properties": [
            {
              "name": "destructible",
              "type": "bool",
              "value": true
            },
            {
              "name": "hp",
              "type": "int",
              "value": 20
            },
            {
              "name": "parent_group",
              "type": "string",
              "value": "g843"
            },
            {
              "name": "piece_id",
              "type": "string",
              "value": "g834"
            },
            {
              "name": "damaged_sprite",
              "type": "string",
              "value": "xcybstr5_05.png"
            },
            {
              "name": "damage_state",
              "type": "string",
              "value": "intact"
            }
          ]
        },
        {
          "id": 1342,
          "gid": 40,
          "x": 3224.09,
          "y": 173.0,
          "width": 65.0,
          "height": 35.0,
          "visible": true,
          "name": "g838",
          "type": "desk_piece",
          "properties": [
            {
              "name": "destructible",
              "type": "bool",
              "value": true
            },
            {
              "name": "hp",
              "type": "int",
              "value": 20
            },
            {
              "name": "parent_group",
              "type": "string",
              "value": "g843"
            },
            {
              "name": "piece_id",
              "type": "string",
              "value": "g838"
            },
            {
              "name": "damaged_sprite",
              "type": "string",
              "value": "xcybstr5_07.png"
            },
            {
              "name": "damage_state",
              "type": "string",
              "value": "intact"
            }
          ]
        },
        {
          "id": 1343,
          "gid": 39,
          "x": 3224.09,
          "y": 137.0,
          "width": 48.0,
          "height": 37.0,
          "visible": true,
          "name": "g836",
          "type": "desk_piece",
          "properties": [
            {
              "name": "destructible",
              "type": "bool",
              "value": true
            },
            {
              "name": "hp",
              "type": "int",
              "value": 20
            },
            {
              "name": "parent_group",
              "type": "string",
              "value": "g843"
            },
            {
              "name": "piece_id",
              "type": "string",
              "value": "g836"
            },
            {
              "name": "damaged_sprite",
              "type": "string",
              "value": "xcybstr5_06.png"
            },
            {
              "name": "damage_state",
              "type": "string",
              "value": "intact"
            }
          ]
        },
        {
          "id": 1344,
          "gid": 41,
          "x": 3281.11,
          "y": 173.0,
          "width": 28.0,
          "height": 48.0,
          "visible": true,
          "name": "g840",
          "type": "desk_piece",
          "properties": [
            {
              "name": "destructible",
              "type": "bool",
              "value": true
            },
            {
              "name": "hp",
              "type": "int",
              "value": 20
            },
            {
              "name": "parent_group",
              "type": "string",
              "value": "g843"
            },
            {
              "name": "piece_id",
              "type": "string",
              "value": "g840"
            },
            {
              "name": "damaged_sprite",
              "type": "string",
              "value": "xcybstr5_08.png"
            },
            {
              "name": "damage_state",
              "type": "string",
              "value": "intact"
            }
          ]
        },
        {
          "id": 1345,
          "gid": 42,
          "x": 3309.11,
          "y": 173.0,
          "width": 34.0,
          "height": 24.0,
          "visible": true,
          "name": "g842",
          "type": "desk_piece",
          "properties": [
            {
              "name": "destructible",
              "type": "bool",
              "value": true
            },
            {
              "name": "hp",
              "type": "int",
              "value": 20
            },
            {
              "name": "parent_group",
              "type": "string",
              "value": "g843"
            },
            {
              "name": "piece_id",
              "type": "string",
              "value": "g842"
            },
            {
              "name": "damaged_sprite",
              "type": "string",
              "value": "xcybstr5_09.png"
            },
            {
              "name": "damage_state",
              "type": "string",
              "value": "intact"
            }
          ]
        },
        {
          "id": 1346,
          "gid": 38,
          "x": 3643.11,
          "y": 173.0,
          "width": 21.0,
          "height": 36.0,
          "visible": true,
          "name": "g824",
          "type": "desk_piece",
          "properties": [
            {
              "name": "destructible",
              "type": "bool",
              "value": true
            },
            {
              "name": "hp",
              "type": "int",
              "value": 20
            },
            {
              "name": "parent_group",
              "type": "string",
              "value": "g833"
            },
            {
              "name": "piece_id",
              "type": "string",
              "value": "g824"
            },
            {
              "name": "damaged_sprite",
              "type": "string",
              "value": "xcybstr5_05.png"
            },
            {
              "name": "damage_state",
              "type": "string",
              "value": "intact"
            }
          ]
        },
        {
          "id": 1347,
          "gid": 40,
          "x": 3664.11,
          "y": 173.0,
          "width": 65.0,
          "height": 35.0,
          "visible": true,
          "name": "g828",
          "type": "desk_piece",
          "properties": [
            {
              "name": "destructible",
              "type": "bool",
              "value": true
            },
            {
              "name": "hp",
              "type": "int",
              "value": 20
            },
            {
              "name": "parent_group",
              "type": "string",
              "value": "g833"
            },
            {
              "name": "piece_id",
              "type": "string",
              "value": "g828"
            },
            {
              "name": "damaged_sprite",
              "type": "string",
              "value": "xcybstr5_07.png"
            },
            {
              "name": "damage_state",
              "type": "string",
              "value": "intact"
            }
          ]
        },
        {
          "id": 1348,
          "gid": 39,
          "x": 3664.11,
          "y": 137.0,
          "width": 48.0,
          "height": 37.0,
          "visible": true,
          "name": "g826",
          "type": "desk_piece",
          "properties": [
            {
              "name": "destructible",
              "type": "bool",
              "value": true
            },
            {
              "name": "hp",
              "type": "int",
              "value": 20
            },
            {
              "name": "parent_group",
              "type": "string",
              "value": "g833"
            },
            {
              "name": "piece_id",
              "type": "string",
              "value": "g826"
            },
            {
              "name": "damaged_sprite",
              "type": "string",
              "value": "xcybstr5_06.png"
            },
            {
              "name": "damage_state",
              "type": "string",
              "value": "intact"
            }
          ]
        },
        {
          "id": 1349,
          "gid": 41,
          "x": 3721.13,
          "y": 173.0,
          "width": 28.0,
          "height": 48.0,
          "visible": true,
          "name": "g830",
          "type": "desk_piece",
          "properties": [
            {
              "name": "destructible",
              "type": "bool",
              "value": true
            },
            {
              "name": "hp",
              "type": "int",
              "value": 20
            },
            {
              "name": "parent_group",
              "type": "string",
              "value": "g833"
            },
            {
              "name": "piece_id",
              "type": "string",
              "value": "g830"
            },
            {
              "name": "damaged_sprite",
              "type": "string",
              "value": "xcybstr5_08.png"
            },
            {
              "name": "damage_state",
              "type": "string",
              "value": "intact"
            }
          ]
        },
        {
          "id": 1350,
          "gid": 42,
          "x": 3749.13,
          "y": 173.0,
          "width": 34.0,
          "height": 24.0,
          "visible": true,
          "name": "g832",
          "type": "desk_piece",
          "properties": [
            {
              "name": "destructible",
              "type": "bool",
              "value": true
            },
            {
              "name": "hp",
              "type": "int",
              "value": 20
            },
            {
              "name": "parent_group",
              "type": "string",
              "value": "g833"
            },
            {
              "name": "piece_id",
              "type": "string",
              "value": "g832"
            },
            {
              "name": "damaged_sprite",
              "type": "string",
              "value": "xcybstr5_09.png"
            },
            {
              "name": "damage_state",
              "type": "string",
              "value": "intact"
            }
          ]
        },
        {
          "id": 1351,
          "gid": 38,
          "x": 4083.13,
          "y": 173.0,
          "width": 21.0,
          "height": 36.0,
          "visible": true,
          "name": "g728",
          "type": "desk_piece",
          "properties": [
            {
              "name": "destructible",
              "type": "bool",
              "value": true
            },
            {
              "name": "hp",
              "type": "int",
              "value": 20
            },
            {
              "name": "parent_group",
              "type": "string",
              "value": "g733"
            },
            {
              "name": "piece_id",
              "type": "string",
              "value": "g728"
            },
            {
              "name": "damaged_sprite",
              "type": "string",
              "value": "xcybstr5_05.png"
            },
            {
              "name": "damage_state",
              "type": "string",
              "value": "intact"
            }
          ]
        },
        {
          "id": 1352,
          "gid": 40,
          "x": 4104.13,
          "y": 173.0,
          "width": 65.0,
          "height": 35.0,
          "visible": true,
          "name": "g729",
          "type": "desk_piece",
          "properties": [
            {
              "name": "destructible",
              "type": "bool",
              "value": true
            },
            {
              "name": "hp",
              "type": "int",
              "value": 20
            },
            {
              "name": "parent_group",
              "type": "string",
              "value": "g733"
            },
            {
              "name": "piece_id",
              "type": "string",
              "value": "g729"
            },
            {
              "name": "damaged_sprite",
              "type": "string",
              "value": "xcybstr5_07.png"
            },
            {
              "name": "damage_state",
              "type": "string",
              "value": "intact"
            }
          ]
        },
        {
          "id": 1353,
          "gid": 39,
          "x": 4104.13,
          "y": 137.0,
          "width": 48.0,
          "height": 37.0,
          "visible": true,
          "name": "g732",
          "type": "desk_piece",
          "properties": [
            {
              "name": "destructible",
              "type": "bool",
              "value": true
            },
            {
              "name": "hp",
              "type": "int",
              "value": 20
            },
            {
              "name": "parent_group",
              "type": "string",
              "value": "g733"
            },
            {
              "name": "piece_id",
              "type": "string",
              "value": "g732"
            },
            {
              "name": "damaged_sprite",
              "type": "string",
              "value": "xcybstr5_06.png"
            },
            {
              "name": "damage_state",
              "type": "string",
              "value": "intact"
            }
          ]
        },
        {
          "id": 1354,
          "gid": 41,
          "x": 4161.15,
          "y": 173.0,
          "width": 28.0,
          "height": 48.0,
          "visible": true,
          "name": "g730",
          "type": "desk_piece",
          "properties": [
            {
              "name": "destructible",
              "type": "bool",
              "value": true
            },
            {
              "name": "hp",
              "type": "int",
              "value": 20
            },
            {
              "name": "parent_group",
              "type": "string",
              "value": "g733"
            },
            {
              "name": "piece_id",
              "type": "string",
              "value": "g730"
            },
            {
              "name": "damaged_sprite",
              "type": "string",
              "value": "xcybstr5_08.png"
            },
            {
              "name": "damage_state",
              "type": "string",
              "value": "intact"
            }
          ]
        },
        {
          "id": 1355,
          "gid": 42,
          "x": 4189.15,
          "y": 173.0,
          "width": 34.0,
          "height": 24.0,
          "visible": true,
          "name": "g731",
          "type": "desk_piece",
          "properties": [
            {
              "name": "destructible",
              "type": "bool",
              "value": true
            },
            {
              "name": "hp",
              "type": "int",
              "value": 20
            },
            {
              "name": "parent_group",
              "type": "string",
              "value": "g733"
            },
            {
              "name": "piece_id",
              "type": "string",
              "value": "g731"
            },
            {
              "name": "damaged_sprite",
              "type": "string",
              "value": "xcybstr5_09.png"
            },
            {
              "name": "damage_state",
              "type": "string",
              "value": "intact"
            }
          ]
        },
        {
          "id": 1356,
          "gid": 38,
          "x": 4523.15,
          "y": 173.0,
          "width": 21.0,
          "height": 36.0,
          "visible": true,
          "name": "g804",
          "type": "desk_piece",
          "properties": [
            {
              "name": "destructible",
              "type": "bool",
              "value": true
            },
            {
              "name": "hp",
              "type": "int",
              "value": 20
            },
            {
              "name": "parent_group",
              "type": "string",
              "value": "g813"
            },
            {
              "name": "piece_id",
              "type": "string",
              "value": "g804"
            },
            {
              "name": "damaged_sprite",
              "type": "string",
              "value": "xcybstr5_05.png"
            },
            {
              "name": "damage_state",
              "type": "string",
              "value": "intact"
            }
          ]
        },
        {
          "id": 1357,
          "gid": 40,
          "x": 4544.15,
          "y": 173.0,
          "width": 65.0,
          "height": 35.0,
          "visible": true,
          "name": "g808",
          "type": "desk_piece",
          "properties": [
            {
              "name": "destructible",
              "type": "bool",
              "value": true
            },
            {
              "name": "hp",
              "type": "int",
              "value": 20
            },
            {
              "name": "parent_group",
              "type": "string",
              "value": "g813"
            },
            {
              "name": "piece_id",
              "type": "string",
              "value": "g808"
            },
            {
              "name": "damaged_sprite",
              "type": "string",
              "value": "xcybstr5_07.png"
            },
            {
              "name": "damage_state",
              "type": "string",
              "value": "intact"
            }
          ]
        },
        {
          "id": 1358,
          "gid": 39,
          "x": 4544.15,
          "y": 137.0,
          "width": 48.0,
          "height": 37.0,
          "visible": true,
          "name": "g806",
          "type": "desk_piece",
          "properties": [
            {
              "name": "destructible",
              "type": "bool",
              "value": true
            },
            {
              "name": "hp",
              "type": "int",
              "value": 20
            },
            {
              "name": "parent_group",
              "type": "string",
              "value": "g813"
            },
            {
              "name": "piece_id",
              "type": "string",
              "value": "g806"
            },
            {
              "name": "damaged_sprite",
              "type": "string",
              "value": "xcybstr5_06.png"
            },
            {
              "name": "damage_state",
              "type": "string",
              "value": "intact"
            }
          ]
        },
        {
          "id": 1359,
          "gid": 41,
          "x": 4601.17,
          "y": 173.0,
          "width": 28.0,
          "height": 48.0,
          "visible": true,
          "name": "g810",
          "type": "desk_piece",
          "properties": [
            {
              "name": "destructible",
              "type": "bool",
              "value": true
            },
            {
              "name": "hp",
              "type": "int",
              "value": 20
            },
            {
              "name": "parent_group",
              "type": "string",
              "value": "g813"
            },
            {
              "name": "piece_id",
              "type": "string",
              "value": "g810"
            },
            {
              "name": "damaged_sprite",
              "type": "string",
              "value": "xcybstr5_08.png"
            },
            {
              "name": "damage_state",
              "type": "string",
              "value": "intact"
            }
          ]
        },
        {
          "id": 1360,
          "gid": 42,
          "x": 4629.17,
          "y": 173.0,
          "width": 34.0,
          "height": 24.0,
          "visible": true,
          "name": "g812",
          "type": "desk_piece",
          "properties": [
            {
              "name": "destructible",
              "type": "bool",
              "value": true
            },
            {
              "name": "hp",
              "type": "int",
              "value": 20
            },
            {
              "name": "parent_group",
              "type": "string",
              "value": "g813"
            },
            {
              "name": "piece_id",
              "type": "string",
              "value": "g812"
            },
            {
              "name": "damaged_sprite",
              "type": "string",
              "value": "xcybstr5_09.png"
            },
            {
              "name": "damage_state",
              "type": "string",
              "value": "intact"
            }
          ]
        },
        {
          "id": 1361,
          "gid": 38,
          "x": 4963.17,
          "y": 173.0,
          "width": 21.0,
          "height": 36.0,
          "visible": true,
          "name": "g794",
          "type": "desk_piece",
          "properties": [
            {
              "name": "destructible",
              "type": "bool",
              "value": true
            },
            {
              "name": "hp",
              "type": "int",
              "value": 20
            },
            {
              "name": "parent_group",
              "type": "string",
              "value": "g803"
            },
            {
              "name": "piece_id",
              "type": "string",
              "value": "g794"
            },
            {
              "name": "damaged_sprite",
              "type": "string",
              "value": "xcybstr5_05.png"
            },
            {
              "name": "damage_state",
              "type": "string",
              "value": "intact"
            }
          ]
        },
        {
          "id": 1362,
          "gid": 40,
          "x": 4984.17,
          "y": 173.0,
          "width": 65.0,
          "height": 35.0,
          "visible": true,
          "name": "g798",
          "type": "desk_piece",
          "properties": [
            {
              "name": "destructible",
              "type": "bool",
              "value": true
            },
            {
              "name": "hp",
              "type": "int",
              "value": 20
            },
            {
              "name": "parent_group",
              "type": "string",
              "value": "g803"
            },
            {
              "name": "piece_id",
              "type": "string",
              "value": "g798"
            },
            {
              "name": "damaged_sprite",
              "type": "string",
              "value": "xcybstr5_07.png"
            },
            {
              "name": "damage_state",
              "type": "string",
              "value": "intact"
            }
          ]
        },
        {
          "id": 1363,
          "gid": 39,
          "x": 4984.17,
          "y": 137.0,
          "width": 48.0,
          "height": 37.0,
          "visible": true,
          "name": "g796",
          "type": "desk_piece",
          "properties": [
            {
              "name": "destructible",
              "type": "bool",
              "value": true
            },
            {
              "name": "hp",
              "type": "int",
              "value": 20
            },
            {
              "name": "parent_group",
              "type": "string",
              "value": "g803"
            },
            {
              "name": "piece_id",
              "type": "string",
              "value": "g796"
            },
            {
              "name": "damaged_sprite",
              "type": "string",
              "value": "xcybstr5_06.png"
            },
            {
              "name": "damage_state",
              "type": "string",
              "value": "intact"
            }
          ]
        },
        {
          "id": 1364,
          "gid": 41,
          "x": 5041.18,
          "y": 173.0,
          "width": 28.0,
          "height": 48.0,
          "visible": true,
          "name": "g800",
          "type": "desk_piece",
          "properties": [
            {
              "name": "destructible",
              "type": "bool",
              "value": true
            },
            {
              "name": "hp",
              "type": "int",
              "value": 20
            },
            {
              "name": "parent_group",
              "type": "string",
              "value": "g803"
            },
            {
              "name": "piece_id",
              "type": "string",
              "value": "g800"
            },
            {
              "name": "damaged_sprite",
              "type": "string",
              "value": "xcybstr5_08.png"
            },
            {
              "name": "damage_state",
              "type": "string",
              "value": "intact"
            }
          ]
        },
        {
          "id": 1365,
          "gid": 42,
          "x": 5069.18,
          "y": 173.0,
          "width": 34.0,
          "height": 24.0,
          "visible": true,
          "name": "g802",
          "type": "desk_piece",
          "properties": [
            {
              "name": "destructible",
              "type": "bool",
              "value": true
            },
            {
              "name": "hp",
              "type": "int",
              "value": 20
            },
            {
              "name": "parent_group",
              "type": "string",
              "value": "g803"
            },
            {
              "name": "piece_id",
              "type": "string",
              "value": "g802"
            },
            {
              "name": "damaged_sprite",
              "type": "string",
              "value": "xcybstr5_09.png"
            },
            {
              "name": "damage_state",
              "type": "string",
              "value": "intact"
            }
          ]
        },
        {
          "id": 1366,
          "gid": 38,
          "x": 5403.19,
          "y": 173.0,
          "width": 21.0,
          "height": 36.0,
          "visible": true,
          "name": "g784",
          "type": "desk_piece",
          "properties": [
            {
              "name": "destructible",
              "type": "bool",
              "value": true
            },
            {
              "name": "hp",
              "type": "int",
              "value": 20
            },
            {
              "name": "parent_group",
              "type": "string",
              "value": "g793"
            },
            {
              "name": "piece_id",
              "type": "string",
              "value": "g784"
            },
            {
              "name": "damaged_sprite",
              "type": "string",
              "value": "xcybstr5_05.png"
            },
            {
              "name": "damage_state",
              "type": "string",
              "value": "intact"
            }
          ]
        },
        {
          "id": 1367,
          "gid": 40,
          "x": 5424.19,
          "y": 173.0,
          "width": 65.0,
          "height": 35.0,
          "visible": true,
          "name": "g788",
          "type": "desk_piece",
          "properties": [
            {
              "name": "destructible",
              "type": "bool",
              "value": true
            },
            {
              "name": "hp",
              "type": "int",
              "value": 20
            },
            {
              "name": "parent_group",
              "type": "string",
              "value": "g793"
            },
            {
              "name": "piece_id",
              "type": "string",
              "value": "g788"
            },
            {
              "name": "damaged_sprite",
              "type": "string",
              "value": "xcybstr5_07.png"
            },
            {
              "name": "damage_state",
              "type": "string",
              "value": "intact"
            }
          ]
        },
        {
          "id": 1368,
          "gid": 39,
          "x": 5424.19,
          "y": 137.0,
          "width": 48.0,
          "height": 37.0,
          "visible": true,
          "name": "g786",
          "type": "desk_piece",
          "properties": [
            {
              "name": "destructible",
              "type": "bool",
              "value": true
            },
            {
              "name": "hp",
              "type": "int",
              "value": 20
            },
            {
              "name": "parent_group",
              "type": "string",
              "value": "g793"
            },
            {
              "name": "piece_id",
              "type": "string",
              "value": "g786"
            },
            {
              "name": "damaged_sprite",
              "type": "string",
              "value": "xcybstr5_06.png"
            },
            {
              "name": "damage_state",
              "type": "string",
              "value": "intact"
            }
          ]
        },
        {
          "id": 1369,
          "gid": 41,
          "x": 5481.2,
          "y": 173.0,
          "width": 28.0,
          "height": 48.0,
          "visible": true,
          "name": "g790",
          "type": "desk_piece",
          "properties": [
            {
              "name": "destructible",
              "type": "bool",
              "value": true
            },
            {
              "name": "hp",
              "type": "int",
              "value": 20
            },
            {
              "name": "parent_group",
              "type": "string",
              "value": "g793"
            },
            {
              "name": "piece_id",
              "type": "string",
              "value": "g790"
            },
            {
              "name": "damaged_sprite",
              "type": "string",
              "value": "xcybstr5_08.png"
            },
            {
              "name": "damage_state",
              "type": "string",
              "value": "intact"
            }
          ]
        },
        {
          "id": 1370,
          "gid": 42,
          "x": 5509.2,
          "y": 173.0,
          "width": 34.0,
          "height": 24.0,
          "visible": true,
          "name": "g792",
          "type": "desk_piece",
          "properties": [
            {
              "name": "destructible",
              "type": "bool",
              "value": true
            },
            {
              "name": "hp",
              "type": "int",
              "value": 20
            },
            {
              "name": "parent_group",
              "type": "string",
              "value": "g793"
            },
            {
              "name": "piece_id",
              "type": "string",
              "value": "g792"
            },
            {
              "name": "damaged_sprite",
              "type": "string",
              "value": "xcybstr5_09.png"
            },
            {
              "name": "damage_state",
              "type": "string",
              "value": "intact"
            }
          ]
        },
        {
          "id": 1371,
          "gid": 38,
          "x": 5843.21,
          "y": 173.0,
          "width": 21.0,
          "height": 36.0,
          "visible": true,
          "name": "g774",
          "type": "desk_piece",
          "properties": [
            {
              "name": "destructible",
              "type": "bool",
              "value": true
            },
            {
              "name": "hp",
              "type": "int",
              "value": 20
            },
            {
              "name": "parent_group",
              "type": "string",
              "value": "g783"
            },
            {
              "name": "piece_id",
              "type": "string",
              "value": "g774"
            },
            {
              "name": "damaged_sprite",
              "type": "string",
              "value": "xcybstr5_05.png"
            },
            {
              "name": "damage_state",
              "type": "string",
              "value": "intact"
            }
          ]
        },
        {
          "id": 1372,
          "gid": 40,
          "x": 5864.21,
          "y": 173.0,
          "width": 65.0,
          "height": 35.0,
          "visible": true,
          "name": "g778",
          "type": "desk_piece",
          "properties": [
            {
              "name": "destructible",
              "type": "bool",
              "value": true
            },
            {
              "name": "hp",
              "type": "int",
              "value": 20
            },
            {
              "name": "parent_group",
              "type": "string",
              "value": "g783"
            },
            {
              "name": "piece_id",
              "type": "string",
              "value": "g778"
            },
            {
              "name": "damaged_sprite",
              "type": "string",
              "value": "xcybstr5_07.png"
            },
            {
              "name": "damage_state",
              "type": "string",
              "value": "intact"
            }
          ]
        },
        {
          "id": 1373,
          "gid": 39,
          "x": 5864.21,
          "y": 137.0,
          "width": 48.0,
          "height": 37.0,
          "visible": true,
          "name": "g776",
          "type": "desk_piece",
          "properties": [
            {
              "name": "destructible",
              "type": "bool",
              "value": true
            },
            {
              "name": "hp",
              "type": "int",
              "value": 20
            },
            {
              "name": "parent_group",
              "type": "string",
              "value": "g783"
            },
            {
              "name": "piece_id",
              "type": "string",
              "value": "g776"
            },
            {
              "name": "damaged_sprite",
              "type": "string",
              "value": "xcybstr5_06.png"
            },
            {
              "name": "damage_state",
              "type": "string",
              "value": "intact"
            }
          ]
        },
        {
          "id": 1374,
          "gid": 41,
          "x": 5921.22,
          "y": 173.0,
          "width": 28.0,
          "height": 48.0,
          "visible": true,
          "name": "g780",
          "type": "desk_piece",
          "properties": [
            {
              "name": "destructible",
              "type": "bool",
              "value": true
            },
            {
              "name": "hp",
              "type": "int",
              "value": 20
            },
            {
              "name": "parent_group",
              "type": "string",
              "value": "g783"
            },
            {
              "name": "piece_id",
              "type": "string",
              "value": "g780"
            },
            {
              "name": "damaged_sprite",
              "type": "string",
              "value": "xcybstr5_08.png"
            },
            {
              "name": "damage_state",
              "type": "string",
              "value": "intact"
            }
          ]
        },
        {
          "id": 1375,
          "gid": 42,
          "x": 5949.22,
          "y": 173.0,
          "width": 34.0,
          "height": 24.0,
          "visible": true,
          "name": "g782",
          "type": "desk_piece",
          "properties": [
            {
              "name": "destructible",
              "type": "bool",
              "value": true
            },
            {
              "name": "hp",
              "type": "int",
              "value": 20
            },
            {
              "name": "parent_group",
              "type": "string",
              "value": "g783"
            },
            {
              "name": "piece_id",
              "type": "string",
              "value": "g782"
            },
            {
              "name": "damaged_sprite",
              "type": "string",
              "value": "xcybstr5_09.png"
            },
            {
              "name": "damage_state",
              "type": "string",
              "value": "intact"
            }
          ]
        },
        {
          "id": 1376,
          "gid": 38,
          "x": 6283.23,
          "y": 173.0,
          "width": 21.0,
          "height": 36.0,
          "visible": true,
          "name": "g764",
          "type": "desk_piece",
          "properties": [
            {
              "name": "destructible",
              "type": "bool",
              "value": true
            },
            {
              "name": "hp",
              "type": "int",
              "value": 20
            },
            {
              "name": "parent_group",
              "type": "string",
              "value": "g773"
            },
            {
              "name": "piece_id",
              "type": "string",
              "value": "g764"
            },
            {
              "name": "damaged_sprite",
              "type": "string",
              "value": "xcybstr5_05.png"
            },
            {
              "name": "damage_state",
              "type": "string",
              "value": "intact"
            }
          ]
        },
        {
          "id": 1377,
          "gid": 40,
          "x": 6304.23,
          "y": 173.0,
          "width": 65.0,
          "height": 35.0,
          "visible": true,
          "name": "g768",
          "type": "desk_piece",
          "properties": [
            {
              "name": "destructible",
              "type": "bool",
              "value": true
            },
            {
              "name": "hp",
              "type": "int",
              "value": 20
            },
            {
              "name": "parent_group",
              "type": "string",
              "value": "g773"
            },
            {
              "name": "piece_id",
              "type": "string",
              "value": "g768"
            },
            {
              "name": "damaged_sprite",
              "type": "string",
              "value": "xcybstr5_07.png"
            },
            {
              "name": "damage_state",
              "type": "string",
              "value": "intact"
            }
          ]
        },
        {
          "id": 1378,
          "gid": 39,
          "x": 6304.23,
          "y": 137.0,
          "width": 48.0,
          "height": 37.0,
          "visible": true,
          "name": "g766",
          "type": "desk_piece",
          "properties": [
            {
              "name": "destructible",
              "type": "bool",
              "value": true
            },
            {
              "name": "hp",
              "type": "int",
              "value": 20
            },
            {
              "name": "parent_group",
              "type": "string",
              "value": "g773"
            },
            {
              "name": "piece_id",
              "type": "string",
              "value": "g766"
            },
            {
              "name": "damaged_sprite",
              "type": "string",
              "value": "xcybstr5_06.png"
            },
            {
              "name": "damage_state",
              "type": "string",
              "value": "intact"
            }
          ]
        },
        {
          "id": 1379,
          "gid": 41,
          "x": 6361.24,
          "y": 173.0,
          "width": 28.0,
          "height": 48.0,
          "visible": true,
          "name": "g770",
          "type": "desk_piece",
          "properties": [
            {
              "name": "destructible",
              "type": "bool",
              "value": true
            },
            {
              "name": "hp",
              "type": "int",
              "value": 20
            },
            {
              "name": "parent_group",
              "type": "string",
              "value": "g773"
            },
            {
              "name": "piece_id",
              "type": "string",
              "value": "g770"
            },
            {
              "name": "damaged_sprite",
              "type": "string",
              "value": "xcybstr5_08.png"
            },
            {
              "name": "damage_state",
              "type": "string",
              "value": "intact"
            }
          ]
        },
        {
          "id": 1380,
          "gid": 42,
          "x": 6389.24,
          "y": 173.0,
          "width": 34.0,
          "height": 24.0,
          "visible": true,
          "name": "g772",
          "type": "desk_piece",
          "properties": [
            {
              "name": "destructible",
              "type": "bool",
              "value": true
            },
            {
              "name": "hp",
              "type": "int",
              "value": 20
            },
            {
              "name": "parent_group",
              "type": "string",
              "value": "g773"
            },
            {
              "name": "piece_id",
              "type": "string",
              "value": "g772"
            },
            {
              "name": "damaged_sprite",
              "type": "string",
              "value": "xcybstr5_09.png"
            },
            {
              "name": "damage_state",
              "type": "string",
              "value": "intact"
            }
          ]
        },
        {
          "id": 1381,
          "gid": 38,
          "x": 6723.25,
          "y": 173.0,
          "width": 21.0,
          "height": 36.0,
          "visible": true,
          "name": "g754",
          "type": "desk_piece",
          "properties": [
            {
              "name": "destructible",
              "type": "bool",
              "value": true
            },
            {
              "name": "hp",
              "type": "int",
              "value": 20
            },
            {
              "name": "parent_group",
              "type": "string",
              "value": "g763"
            },
            {
              "name": "piece_id",
              "type": "string",
              "value": "g754"
            },
            {
              "name": "damaged_sprite",
              "type": "string",
              "value": "xcybstr5_05.png"
            },
            {
              "name": "damage_state",
              "type": "string",
              "value": "intact"
            }
          ]
        },
        {
          "id": 1382,
          "gid": 40,
          "x": 6744.25,
          "y": 173.0,
          "width": 65.0,
          "height": 35.0,
          "visible": true,
          "name": "g758",
          "type": "desk_piece",
          "properties": [
            {
              "name": "destructible",
              "type": "bool",
              "value": true
            },
            {
              "name": "hp",
              "type": "int",
              "value": 20
            },
            {
              "name": "parent_group",
              "type": "string",
              "value": "g763"
            },
            {
              "name": "piece_id",
              "type": "string",
              "value": "g758"
            },
            {
              "name": "damaged_sprite",
              "type": "string",
              "value": "xcybstr5_07.png"
            },
            {
              "name": "damage_state",
              "type": "string",
              "value": "intact"
            }
          ]
        },
        {
          "id": 1383,
          "gid": 39,
          "x": 6744.25,
          "y": 137.0,
          "width": 48.0,
          "height": 37.0,
          "visible": true,
          "name": "g756",
          "type": "desk_piece",
          "properties": [
            {
              "name": "destructible",
              "type": "bool",
              "value": true
            },
            {
              "name": "hp",
              "type": "int",
              "value": 20
            },
            {
              "name": "parent_group",
              "type": "string",
              "value": "g763"
            },
            {
              "name": "piece_id",
              "type": "string",
              "value": "g756"
            },
            {
              "name": "damaged_sprite",
              "type": "string",
              "value": "xcybstr5_06.png"
            },
            {
              "name": "damage_state",
              "type": "string",
              "value": "intact"
            }
          ]
        },
        {
          "id": 1384,
          "gid": 41,
          "x": 6801.26,
          "y": 173.0,
          "width": 28.0,
          "height": 48.0,
          "visible": true,
          "name": "g760",
          "type": "desk_piece",
          "properties": [
            {
              "name": "destructible",
              "type": "bool",
              "value": true
            },
            {
              "name": "hp",
              "type": "int",
              "value": 20
            },
            {
              "name": "parent_group",
              "type": "string",
              "value": "g763"
            },
            {
              "name": "piece_id",
              "type": "string",
              "value": "g760"
            },
            {
              "name": "damaged_sprite",
              "type": "string",
              "value": "xcybstr5_08.png"
            },
            {
              "name": "damage_state",
              "type": "string",
              "value": "intact"
            }
          ]
        },
        {
          "id": 1385,
          "gid": 42,
          "x": 6829.26,
          "y": 173.0,
          "width": 34.0,
          "height": 24.0,
          "visible": true,
          "name": "g762",
          "type": "desk_piece",
          "properties": [
            {
              "name": "destructible",
              "type": "bool",
              "value": true
            },
            {
              "name": "hp",
              "type": "int",
              "value": 20
            },
            {
              "name": "parent_group",
              "type": "string",
              "value": "g763"
            },
            {
              "name": "piece_id",
              "type": "string",
              "value": "g762"
            },
            {
              "name": "damaged_sprite",
              "type": "string",
              "value": "xcybstr5_09.png"
            },
            {
              "name": "damage_state",
              "type": "string",
              "value": "intact"
            }
          ]
        },
        {
          "id": 1386,
          "gid": 38,
          "x": 7163.27,
          "y": 173.0,
          "width": 21.0,
          "height": 36.0,
          "visible": true,
          "name": "g744",
          "type": "desk_piece",
          "properties": [
            {
              "name": "destructible",
              "type": "bool",
              "value": true
            },
            {
              "name": "hp",
              "type": "int",
              "value": 20
            },
            {
              "name": "parent_group",
              "type": "string",
              "value": "g753"
            },
            {
              "name": "piece_id",
              "type": "string",
              "value": "g744"
            },
            {
              "name": "damaged_sprite",
              "type": "string",
              "value": "xcybstr5_05.png"
            },
            {
              "name": "damage_state",
              "type": "string",
              "value": "intact"
            }
          ]
        },
        {
          "id": 1387,
          "gid": 40,
          "x": 7184.27,
          "y": 173.0,
          "width": 65.0,
          "height": 35.0,
          "visible": true,
          "name": "g748",
          "type": "desk_piece",
          "properties": [
            {
              "name": "destructible",
              "type": "bool",
              "value": true
            },
            {
              "name": "hp",
              "type": "int",
              "value": 20
            },
            {
              "name": "parent_group",
              "type": "string",
              "value": "g753"
            },
            {
              "name": "piece_id",
              "type": "string",
              "value": "g748"
            },
            {
              "name": "damaged_sprite",
              "type": "string",
              "value": "xcybstr5_07.png"
            },
            {
              "name": "damage_state",
              "type": "string",
              "value": "intact"
            }
          ]
        },
        {
          "id": 1388,
          "gid": 39,
          "x": 7184.27,
          "y": 137.0,
          "width": 48.0,
          "height": 37.0,
          "visible": true,
          "name": "g746",
          "type": "desk_piece",
          "properties": [
            {
              "name": "destructible",
              "type": "bool",
              "value": true
            },
            {
              "name": "hp",
              "type": "int",
              "value": 20
            },
            {
              "name": "parent_group",
              "type": "string",
              "value": "g753"
            },
            {
              "name": "piece_id",
              "type": "string",
              "value": "g746"
            },
            {
              "name": "damaged_sprite",
              "type": "string",
              "value": "xcybstr5_06.png"
            },
            {
              "name": "damage_state",
              "type": "string",
              "value": "intact"
            }
          ]
        },
        {
          "id": 1389,
          "gid": 41,
          "x": 7241.28,
          "y": 173.0,
          "width": 28.0,
          "height": 48.0,
          "visible": true,
          "name": "g750",
          "type": "desk_piece",
          "properties": [
            {
              "name": "destructible",
              "type": "bool",
              "value": true
            },
            {
              "name": "hp",
              "type": "int",
              "value": 20
            },
            {
              "name": "parent_group",
              "type": "string",
              "value": "g753"
            },
            {
              "name": "piece_id",
              "type": "string",
              "value": "g750"
            },
            {
              "name": "damaged_sprite",
              "type": "string",
              "value": "xcybstr5_08.png"
            },
            {
              "name": "damage_state",
              "type": "string",
              "value": "intact"
            }
          ]
        },
        {
          "id": 1390,
          "gid": 42,
          "x": 7269.28,
          "y": 173.0,
          "width": 34.0,
          "height": 24.0,
          "visible": true,
          "name": "g752",
          "type": "desk_piece",
          "properties": [
            {
              "name": "destructible",
              "type": "bool",
              "value": true
            },
            {
              "name": "hp",
              "type": "int",
              "value": 20
            },
            {
              "name": "parent_group",
              "type": "string",
              "value": "g753"
            },
            {
              "name": "piece_id",
              "type": "string",
              "value": "g752"
            },
            {
              "name": "damaged_sprite",
              "type": "string",
              "value": "xcybstr5_09.png"
            },
            {
              "name": "damage_state",
              "type": "string",
              "value": "intact"
            }
          ]
        },
        {
          "id": 1391,
          "gid": 38,
          "x": 7603.28,
          "y": 173.0,
          "width": 21.0,
          "height": 36.0,
          "visible": true,
          "name": "g734",
          "type": "desk_piece",
          "properties": [
            {
              "name": "destructible",
              "type": "bool",
              "value": true
            },
            {
              "name": "hp",
              "type": "int",
              "value": 20
            },
            {
              "name": "parent_group",
              "type": "string",
              "value": "g743"
            },
            {
              "name": "piece_id",
              "type": "string",
              "value": "g734"
            },
            {
              "name": "damaged_sprite",
              "type": "string",
              "value": "xcybstr5_05.png"
            },
            {
              "name": "damage_state",
              "type": "string",
              "value": "intact"
            }
          ]
        },
        {
          "id": 1392,
          "gid": 40,
          "x": 7624.28,
          "y": 173.0,
          "width": 65.0,
          "height": 35.0,
          "visible": true,
          "name": "g738",
          "type": "desk_piece",
          "properties": [
            {
              "name": "destructible",
              "type": "bool",
              "value": true
            },
            {
              "name": "hp",
              "type": "int",
              "value": 20
            },
            {
              "name": "parent_group",
              "type": "string",
              "value": "g743"
            },
            {
              "name": "piece_id",
              "type": "string",
              "value": "g738"
            },
            {
              "name": "damaged_sprite",
              "type": "string",
              "value": "xcybstr5_07.png"
            },
            {
              "name": "damage_state",
              "type": "string",
              "value": "intact"
            }
          ]
        },
        {
          "id": 1393,
          "gid": 39,
          "x": 7624.28,
          "y": 137.0,
          "width": 48.0,
          "height": 37.0,
          "visible": true,
          "name": "g736",
          "type": "desk_piece",
          "properties": [
            {
              "name": "destructible",
              "type": "bool",
              "value": true
            },
            {
              "name": "hp",
              "type": "int",
              "value": 20
            },
            {
              "name": "parent_group",
              "type": "string",
              "value": "g743"
            },
            {
              "name": "piece_id",
              "type": "string",
              "value": "g736"
            },
            {
              "name": "damaged_sprite",
              "type": "string",
              "value": "xcybstr5_06.png"
            },
            {
              "name": "damage_state",
              "type": "string",
              "value": "intact"
            }
          ]
        },
        {
          "id": 1394,
          "gid": 41,
          "x": 7681.3,
          "y": 173.0,
          "width": 28.0,
          "height": 48.0,
          "visible": true,
          "name": "g740",
          "type": "desk_piece",
          "properties": [
            {
              "name": "destructible",
              "type": "bool",
              "value": true
            },
            {
              "name": "hp",
              "type": "int",
              "value": 20
            },
            {
              "name": "parent_group",
              "type": "string",
              "value": "g743"
            },
            {
              "name": "piece_id",
              "type": "string",
              "value": "g740"
            },
            {
              "name": "damaged_sprite",
              "type": "string",
              "value": "xcybstr5_08.png"
            },
            {
              "name": "damage_state",
              "type": "string",
              "value": "intact"
            }
          ]
        },
        {
          "id": 1395,
          "gid": 42,
          "x": 7709.3,
          "y": 173.0,
          "width": 34.0,
          "height": 24.0,
          "visible": true,
          "name": "g742",
          "type": "desk_piece",
          "properties": [
            {
              "name": "destructible",
              "type": "bool",
              "value": true
            },
            {
              "name": "hp",
              "type": "int",
              "value": 20
            },
            {
              "name": "parent_group",
              "type": "string",
              "value": "g743"
            },
            {
              "name": "piece_id",
              "type": "string",
              "value": "g742"
            },
            {
              "name": "damaged_sprite",
              "type": "string",
              "value": "xcybstr5_09.png"
            },
            {
              "name": "damage_state",
              "type": "string",
              "value": "intact"
            }
          ]
        }
      ],
      "opacity": 1,
      "visible": true,
      "x": 0,
      "y": 0
    },
    {
      "id": 6,
      "type": "objectgroup",
      "name": "Gameplay_Triggers",
      "parallaxx": 1.0,
      "parallaxy": 0.0,
      "objects": [
        {
          "id": 1396,
          "name": "Main_Rail",
          "type": "rail",
          "x": 0.0,
          "y": 0.0,
          "width": 7680.0,
          "height": 174.0,
          "visible": true,
          "properties": [
            {
              "name": "scroll_speed",
              "type": "float",
              "value": 1.0
            }
          ]
        },
        {
          "id": 1397,
          "name": "level_end",
          "type": "level_end",
          "x": 7168,
          "y": 0.0,
          "width": 128.0,
          "height": 174.0,
          "visible": true,
          "properties": [
            {
              "name": "next_level",
              "type": "string",
              "value": "maps/backdrops/level1/t2_xl1bck.tmj"
            }
          ]
        }
      ],
      "opacity": 1,
      "visible": true,
      "x": 0,
      "y": 0
    },
    {
      "id": 7,
      "type": "objectgroup",
      "name": "Entities",
      "parallaxx": 1.0,
      "parallaxy": 0.0,
      "objects": [],
      "opacity": 1,
      "visible": true,
      "x": 0,
      "y": 0
    }
  ],
  "tilesets": [
    {
      "columns": 0,
      "firstgid": 1,
      "grid": {
        "height": 1,
        "orientation": "orthogonal",
        "width": 1
      },
      "margin": 0,
      "name": "xcybst_decor",
      "spacing": 0,
      "tilecount": 47,
      "tileheight": 174,
      "tilewidth": 256,
      "tiles": [
        {
          "id": 0,
          "image": "xcybstr1_06.png",
          "imageheight": 62,
          "imagewidth": 128
        },
        {
          "id": 1,
          "image": "xcybstr2_00.png",
          "imageheight": 32,
          "imagewidth": 128
        },
        {
          "id": 2,
          "image": "xcybstr2_01.png",
          "imageheight": 32,
          "imagewidth": 128
        },
        {
          "id": 3,
          "image": "xcybstr2_02.png",
          "imageheight": 40,
          "imagewidth": 128
        },
        {
          "id": 4,
          "image": "xcybstr2_03.png",
          "imageheight": 40,
          "imagewidth": 128
        },
        {
          "id": 5,
          "image": "xcybstr2_04.png",
          "imageheight": 40,
          "imagewidth": 128
        },
        {
          "id": 6,
          "image": "xcybstr2_05.png",
          "imageheight": 40,
          "imagewidth": 128
        },
        {
          "id": 7,
          "image": "xcybstr3_00.png",
          "imageheight": 24,
          "imagewidth": 24
        },
        {
          "id": 8,
          "image": "xcybstr3_01.png",
          "imageheight": 24,
          "imagewidth": 24
        },
        {
          "id": 9,
          "image": "xcybstr3_02.png",
          "imageheight": 40,
          "imagewidth": 24
        },
        {
          "id": 10,
          "image": "xcybstr3_03.png",
          "imageheight": 24,
          "imagewidth": 16
        },
        {
          "id": 11,
          "image": "xcybstr3_04.png",
          "imageheight": 40,
          "imagewidth": 16
        },
        {
          "id": 12,
          "image": "xcybstr3_05.png",
          "imageheight": 16,
          "imagewidth": 16
        },
        {
          "id": 13,
          "image": "xcybstr3_06.png",
          "imageheight": 32,
          "imagewidth": 16
        },
        {
          "id": 14,
          "image": "xcybstr3_07.png",
          "imageheight": 40,
          "imagewidth": 16
        },
        {
          "id": 15,
          "image": "xcybstr3_08.png",
          "imageheight": 24,
          "imagewidth": 24
        },
        {
          "id": 16,
          "image": "xcybstr3_09.png",
          "imageheight": 24,
          "imagewidth": 24
        },
        {
          "id": 17,
          "image": "xcybstr3_10.png",
          "imageheight": 40,
          "imagewidth": 24
        },
        {
          "id": 18,
          "image": "xcybstr3_11.png",
          "imageheight": 24,
          "imagewidth": 16
        },
        {
          "id": 19,
          "image": "xcybstr3_12.png",
          "imageheight": 40,
          "imagewidth": 16
        },
        {
          "id": 20,
          "image": "xcybstr3_13.png",
          "imageheight": 16,
          "imagewidth": 16
        },
        {
          "id": 21,
          "image": "xcybstr3_14.png",
          "imageheight": 32,
          "imagewidth": 16
        },
        {
          "id": 22,
          "image": "xcybstr3_15.png",
          "imageheight": 40,
          "imagewidth": 16
        },
        {
          "id": 23,
          "image": "xcybstr4_00.png",
          "imageheight": 56,
          "imagewidth": 32
        },
        {
          "id": 24,
          "image": "xcybstr4_01.png",
          "imageheight": 56,
          "imagewidth": 32
        },
        {
          "id": 25,
          "image": "xcybstr4_02.png",
          "imageheight": 63,
          "imagewidth": 24
        },
        {
          "id": 26,
          "image": "xcybstr4_03.png",
          "imageheight": 63,
          "imagewidth": 24
        },
        {
          "id": 27,
          "image": "xcybstr4_04.png",
          "imageheight": 17,
          "imagewidth": 18
        },
        {
          "id": 28,
          "image": "xcybstr4_05.png",
          "imageheight": 16,
          "imagewidth": 56
        },
        {
          "id": 29,
          "image": "xcybstr4_06.png",
          "imageheight": 27,
          "imagewidth": 28
        },
        {
          "id": 30,
          "image": "xcybstr4_07.png",
          "imageheight": 27,
          "imagewidth": 28
        },
        {
          "id": 31,
          "image": "xcybstr4_08.png",
          "imageheight": 17,
          "imagewidth": 18
        },
        {
          "id": 32,
          "image": "xcybstr4_09.png",
          "imageheight": 16,
          "imagewidth": 56
        },
        {
          "id": 33,
          "image": "xcybstr4_10.png",
          "imageheight": 27,
          "imagewidth": 28
        },
        {
          "id": 34,
          "image": "xcybstr4_11.png",
          "imageheight": 27,
          "imagewidth": 28
        },
        {
          "id": 35,
          "image": "xcybstr4_12.png",
          "imageheight": 16,
          "imagewidth": 16
        },
        {
          "id": 36,
          "image": "xcybstr4_13.png",
          "imageheight": 16,
          "imagewidth": 16
        },
        {
          "id": 37,
          "image": "xcybstr5_00.png",
          "imageheight": 36,
          "imagewidth": 21
        },
        {
          "id": 38,
          "image": "xcybstr5_01.png",
          "imageheight": 37,
          "imagewidth": 48
        },
        {
          "id": 39,
          "image": "xcybstr5_02.png",
          "imageheight": 35,
          "imagewidth": 65
        },
        {
          "id": 40,
          "image": "xcybstr5_03.png",
          "imageheight": 48,
          "imagewidth": 28
        },
        {
          "id": 41,
          "image": "xcybstr5_04.png",
          "imageheight": 24,
          "imagewidth": 34
        },
        {
          "id": 42,
          "image": "xcybstr5_05.png",
          "imageheight": 36,
          "imagewidth": 21
        },
        {
          "id": 43,
          "image": "xcybstr5_06.png",
          "imageheight": 37,
          "imagewidth": 48
        },
        {
          "id": 44,
          "image": "xcybstr5_07.png",
          "imageheight": 35,
          "imagewidth": 65
        },
        {
          "id": 45,
          "image": "xcybstr5_08.png",
          "imageheight": 48,
          "imagewidth": 28
        },
        {
          "id": 46,
          "image": "xcybstr5_09.png",
          "imageheight": 24,
          "imagewidth": 34
        }
      ]
    }
  ]
}